<?xml version="1.0" encoding="UTF-8"?>
<map version="1.10" tiledversion="1.12.1" orientation="orthogonal" renderorder="right-down" width="28" height="18" tilewidth="50" tileheight="50" infinite="0" nextlayerid="15" nextobjectid="44">
 <tileset firstgid="1" source="ch0-tiles.tsx"/>
 <tileset firstgid="33" source="../../textures/spike.tsx"/>
 <tileset firstgid="41" source="../../textures/laser.tsx"/>
 <tileset firstgid="59" source="../../textures/save.tsx"/>
 <tileset firstgid="60" source="../../textures/transition-tiles.tsx"/>
 <tileset firstgid="65" source="../../textures/misc/portal.tsx"/>
 <layer id="1" name="tiles-main" width="28" height="18">
  <data encoding="csv">
0,0,0,0,0,0,0,0,0,0,0,0,0,0,0,0,0,0,0,0,0,0,0,0,0,0,0,0,
0,0,0,0,0,0,0,0,0,0,0,0,0,0,0,0,0,0,0,0,0,0,0,0,0,0,0,0,
0,0,0,0,0,0,0,0,0,0,0,0,0,0,0,0,0,0,0,0,0,0,0,0,0,0,0,0,
1,1,1,1,1,1,1,1,1,1,1,1,1,1,1,1,1,1,1,1,1,1,1,1,0,0,0,0,
0,0,0,0,0,0,0,0,0,0,0,0,0,0,0,0,0,0,0,0,0,0,0,1,0,0,0,0,
0,0,0,0,0,0,0,0,0,0,0,0,0,0,0,0,0,0,0,0,0,0,0,1,0,0,0,0,
0,0,0,0,0,0,0,0,0,0,0,0,0,0,0,0,0,0,0,0,0,0,0,1,0,0,0,0,
0,0,0,0,0,0,0,0,0,0,0,0,0,0,0,0,0,0,0,0,0,0,0,1,0,0,0,0,
0,0,0,0,0,0,0,0,0,0,0,0,0,0,0,0,0,0,0,0,0,0,0,1,0,0,0,0,
1,1,1,1,1,1,1,1,1,3,0,0,0,0,0,0,0,0,0,0,0,0,3,1,0,0,0,0,
0,0,0,0,0,0,0,0,1,1,1,3,3,0,3,0,0,0,0,0,0,0,3,1,0,0,0,0,
0,0,0,0,0,0,0,0,0,0,1,1,1,1,3,3,0,0,0,0,0,3,3,1,0,0,0,0,
0,0,0,0,0,0,0,0,0,0,0,0,0,1,1,1,1,1,1,1,1,1,1,1,0,0,0,0,
0,0,0,0,0,0,0,0,0,0,0,0,0,0,0,0,0,0,0,0,0,0,0,0,0,0,0,0,
0,0,0,0,0,0,0,0,0,0,0,0,0,0,0,0,0,0,0,0,0,0,0,0,0,0,0,0,
0,0,0,0,0,0,0,0,0,0,0,0,0,0,0,0,0,0,0,0,0,0,0,0,0,0,0,0,
0,0,0,0,0,0,0,0,0,0,0,0,0,0,0,0,0,0,0,0,0,0,0,0,0,0,0,0,
0,0,0,0,0,0,0,0,0,0,0,0,0,0,0,0,0,0,0,0,0,0,0,0,0,0,0,0
</data>
 </layer>
 <layer id="3" name="tiles-deco" width="28" height="18">
  <data encoding="csv">
9,9,9,9,9,9,9,9,9,9,9,9,9,9,9,17,9,9,9,9,17,9,9,17,9,17,9,9,
9,17,9,17,9,17,9,9,17,17,9,17,9,9,9,17,9,9,9,9,9,17,9,9,9,9,9,9,
9,17,9,9,9,17,9,9,9,9,17,9,9,17,9,9,9,9,17,9,9,9,9,9,17,9,9,9,
0,0,0,0,0,0,0,0,0,0,0,0,0,0,0,0,0,0,0,0,0,0,0,0,9,9,9,17,
0,0,0,0,0,0,0,0,0,0,0,0,0,0,0,0,0,0,0,0,0,0,0,0,9,17,9,17,
0,0,0,0,0,0,0,0,0,0,0,0,0,0,0,0,0,0,0,0,0,0,0,0,9,9,9,9,
0,0,0,0,0,0,0,0,0,0,0,0,0,0,0,0,0,0,0,0,0,0,0,0,9,9,17,9,
0,0,0,0,0,0,0,0,11,0,0,0,0,0,0,0,0,0,0,0,0,0,0,0,9,17,9,9,
0,0,0,0,0,0,0,11,11,0,0,0,0,0,0,0,0,0,0,0,0,0,11,0,9,17,9,9,
0,0,0,0,0,0,0,0,0,0,11,11,0,0,0,0,0,0,0,0,0,0,0,0,9,9,9,9,
9,9,17,9,9,9,9,9,0,0,0,0,0,0,0,0,11,0,0,0,0,11,0,0,9,9,9,9,
17,9,9,9,9,17,9,9,9,9,0,0,0,0,0,0,11,0,0,0,11,0,0,0,9,9,17,9,
9,9,17,17,17,9,9,17,17,9,9,17,9,0,0,0,0,0,0,0,0,0,0,0,17,9,17,9,
9,9,9,17,9,9,9,9,9,17,9,17,17,9,9,9,9,9,9,17,9,9,9,9,9,9,9,9,
9,9,17,9,9,17,9,9,17,9,17,9,17,9,17,9,17,9,9,17,9,9,9,9,17,9,9,9,
9,17,9,9,9,9,9,17,9,9,9,9,9,17,9,9,9,9,9,9,9,17,9,9,9,9,17,9,
9,9,9,9,17,17,9,9,17,9,9,9,9,9,9,9,9,17,9,9,9,9,17,9,9,9,9,9,
9,9,9,9,9,9,9,9,9,9,9,9,9,9,9,9,9,9,9,9,9,9,9,9,9,9,9,9
</data>
 </layer>
 <layer id="10" name="tiles-deco2" width="28" height="18">
  <data encoding="csv">
0,0,0,0,0,0,0,0,0,0,0,0,0,0,0,0,0,0,0,0,0,0,0,0,0,0,0,0,
0,0,0,0,0,0,0,0,0,0,0,0,0,0,0,0,0,0,0,0,0,0,0,0,0,0,0,0,
0,0,0,0,0,0,0,0,0,0,0,0,0,0,0,0,0,0,0,0,0,0,0,0,0,0,0,0,
0,0,0,0,0,0,0,0,0,0,0,0,0,0,0,0,0,0,0,0,0,0,0,0,0,0,0,0,
0,0,0,0,0,0,0,0,0,0,0,0,0,0,0,0,0,0,0,0,0,0,0,0,0,0,0,0,
0,0,0,0,0,0,0,0,0,0,0,0,0,0,0,0,0,0,0,0,0,0,0,0,0,0,0,0,
0,0,0,0,0,0,0,0,0,0,0,0,0,0,0,0,0,0,0,0,0,0,0,0,0,0,0,0,
0,0,0,0,0,0,0,0,0,0,0,0,0,0,0,0,0,0,0,0,0,0,0,0,0,0,0,0,
0,0,0,0,0,0,0,0,0,0,0,0,0,0,0,0,0,0,0,0,0,0,0,0,0,0,0,0,
0,0,0,0,0,0,0,0,0,0,0,0,0,0,0,0,0,0,0,0,0,0,0,0,0,0,0,0,
0,0,0,0,0,0,0,0,0,0,0,0,0,0,0,0,0,0,0,0,0,0,0,0,0,0,0,0,
0,0,0,0,0,0,0,0,0,0,0,0,0,0,0,0,0,0,0,0,0,0,0,0,0,0,0,0,
0,0,0,0,0,0,0,0,0,0,0,0,0,0,0,0,0,0,0,0,0,0,0,0,0,0,0,0,
0,0,0,0,0,0,0,0,0,0,0,0,0,0,0,0,0,0,0,0,0,0,0,0,0,0,0,0,
0,0,0,0,0,0,0,0,0,0,0,0,0,0,0,0,0,0,0,0,0,0,0,0,0,0,0,0,
0,0,0,0,0,0,0,0,0,0,0,0,0,0,0,0,0,0,0,0,0,0,0,0,0,0,0,0,
0,0,0,0,0,0,0,0,0,0,0,0,0,0,0,0,0,0,0,0,0,0,0,0,0,0,0,0,
0,0,0,0,0,0,0,0,0,0,0,0,0,0,0,0,0,0,0,0,0,0,0,0,0,0,0,0
</data>
 </layer>
 <objectgroup id="7" name="save"/>
 <objectgroup id="12" name="camera"/>
 <objectgroup id="8" name="spike-normal"/>
 <objectgroup id="14" name="portal">
  <object id="38" name="portal" gid="65" x="856" y="461.333" width="128" height="128"/>
 </objectgroup>
 <objectgroup id="9" name="laser"/>
 <objectgroup id="13" name="music">
  <properties>
   <property name="songName" value="tutorial"/>
  </properties>
 </objectgroup>
 <objectgroup id="5" name="shaders">
  <properties>
   <property name="shaderName" value="dawn"/>
  </properties>
 </objectgroup>
 <objectgroup id="11" name="waterDecoLayer"/>
 <objectgroup id="6" name="bg">
  <properties>
   <property name="bgName" value="bgMountainsDawn"/>
   <property name="bgShader" value="sunset"/>
  </properties>
 </objectgroup>
 <objectgroup id="4" name="warps">
  <object id="39" name="warp" gid="63" x="0" y="250" width="50" height="50">
   <properties>
    <property name="direction" value="left"/>
    <property name="target" value="map01"/>
   </properties>
  </object>
  <object id="40" name="warp" gid="63" x="0" y="300" width="50" height="50">
   <properties>
    <property name="direction" value="left"/>
    <property name="target" value="map01"/>
   </properties>
  </object>
  <object id="41" name="warp" gid="63" x="0" y="350" width="50" height="50">
   <properties>
    <property name="direction" value="left"/>
    <property name="target" value="map01"/>
   </properties>
  </object>
  <object id="42" name="warp" gid="63" x="0" y="400" width="50" height="50">
   <properties>
    <property name="direction" value="left"/>
    <property name="target" value="map01"/>
   </properties>
  </object>
  <object id="43" name="warp" gid="63" x="0" y="450" width="50" height="50">
   <properties>
    <property name="direction" value="left"/>
    <property name="target" value="map01"/>
   </properties>
  </object>
 </objectgroup>
</map>
