<?xml version="1.0" encoding="UTF-8"?>
<map version="1.10" tiledversion="1.12.1" orientation="orthogonal" renderorder="right-down" width="50" height="18" tilewidth="50" tileheight="50" infinite="0" nextlayerid="32" nextobjectid="1854">
 <properties>
  <property name="songName" value="rain"/>
 </properties>
 <tileset firstgid="1" source="ch1-tiles.tsx"/>
 <tileset firstgid="81" source="../../textures/trampoline.tsx"/>
 <tileset firstgid="84" source="../../textures/save.tsx"/>
 <tileset firstgid="85" source="../../textures/spike.tsx"/>
 <tileset firstgid="93" source="../../textures/laser.tsx"/>
 <tileset firstgid="111" source="../../textures/light.tsx"/>
 <tileset firstgid="113" source="../../textures/trampoline-mini.tsx"/>
 <tileset firstgid="122" source="../../textures/transition-tiles.tsx"/>
 <tileset firstgid="127" source="../../textures/small-spike.tsx"/>
 <tileset firstgid="131" source="../../textures/coins.tsx"/>
 <layer id="1" name="tiles-main" width="50" height="18">
  <data encoding="csv">
0,0,0,0,0,0,0,0,0,0,0,0,0,33,0,33,0,0,0,0,0,0,33,0,33,0,33,0,0,0,0,0,0,0,33,0,0,0,0,0,0,0,0,0,0,0,0,0,0,0,
0,0,0,0,0,0,0,0,0,0,0,0,0,33,0,33,0,0,0,0,0,0,33,0,33,0,33,0,0,0,0,0,0,0,33,0,0,0,0,0,0,0,0,0,0,0,0,0,0,0,
0,0,0,0,0,0,0,0,0,0,0,0,0,33,0,33,0,0,0,0,0,0,33,0,33,0,33,0,0,0,0,0,0,0,33,0,0,0,0,0,0,0,0,0,0,0,0,0,0,0,
0,0,0,0,0,0,0,0,0,0,0,0,0,33,0,33,0,0,0,0,0,0,33,0,33,0,33,41,37,37,41,41,0,0,33,0,0,0,0,35,0,0,0,0,0,0,0,0,0,0,
0,0,0,0,0,0,0,0,0,0,0,0,0,33,0,35,36,36,36,36,36,36,35,0,33,0,0,0,0,0,0,41,0,0,33,0,0,0,0,33,0,35,0,0,0,0,0,0,0,0,
0,0,0,0,0,0,0,0,0,0,0,0,0,33,0,0,0,0,0,0,0,0,0,0,33,0,0,0,0,0,0,41,0,0,33,0,0,0,0,33,0,33,0,35,0,0,0,0,0,0,
0,0,0,0,0,0,0,0,0,0,0,0,0,35,36,36,36,36,36,36,36,36,36,36,33,0,0,0,0,0,0,37,0,0,33,0,0,0,0,35,0,33,0,33,0,35,0,0,0,0,
0,0,0,0,0,0,0,0,0,0,0,0,0,0,0,0,0,0,0,0,0,0,0,0,33,0,33,37,41,0,0,41,41,37,33,0,0,0,0,0,0,35,0,33,0,33,0,0,0,0,
0,0,0,0,0,0,0,0,0,0,0,0,0,0,0,0,35,36,36,36,36,36,35,0,33,0,33,0,41,41,0,0,0,0,0,0,0,0,0,0,0,0,0,35,0,33,0,0,0,0,
0,0,0,0,0,0,0,0,0,35,36,36,36,36,35,0,33,0,0,0,0,0,33,0,35,0,33,0,0,37,0,0,0,0,0,0,0,0,0,0,0,0,0,0,0,35,0,0,0,0,
36,36,36,36,36,36,36,36,36,33,0,0,0,0,33,0,33,0,0,0,0,0,33,0,0,0,33,0,0,41,0,0,0,0,0,0,0,0,0,0,0,0,0,0,0,0,0,0,0,0,
0,0,0,0,0,0,0,0,0,33,0,0,0,0,33,0,33,0,0,0,0,0,33,0,35,0,33,0,0,41,37,41,41,41,33,0,0,0,0,0,0,0,0,0,0,0,0,0,0,0,
0,0,0,0,0,0,0,0,0,33,0,0,0,0,33,0,33,0,0,0,0,0,33,0,33,0,33,41,0,0,0,0,0,0,33,0,0,0,0,0,0,0,0,0,0,0,0,0,0,0,
0,0,0,0,0,0,0,0,0,33,0,0,0,0,33,0,33,0,0,0,0,0,33,0,33,0,0,41,0,0,0,0,0,0,33,0,35,36,35,0,0,0,0,0,0,0,0,0,0,0,
0,0,0,0,0,0,0,0,0,33,0,0,0,0,33,0,33,0,0,0,0,0,33,0,33,0,33,41,0,0,0,0,0,0,33,0,33,0,33,0,0,0,0,0,0,0,0,0,0,0,
0,0,0,0,0,0,0,0,0,33,0,0,0,0,33,0,33,0,0,0,0,0,33,0,33,0,33,0,0,0,0,0,0,0,33,0,33,0,35,36,35,0,0,0,0,0,0,0,0,0,
0,0,0,0,0,0,0,0,0,33,0,0,0,0,33,0,33,0,0,0,0,0,33,0,33,0,33,0,0,0,0,0,0,0,33,0,33,0,0,0,33,0,0,0,0,0,0,0,0,0,
0,0,0,0,0,0,0,0,0,33,0,0,0,0,33,0,33,0,0,0,0,0,33,0,33,0,33,0,0,0,0,0,0,0,33,0,33,0,0,0,33,0,0,0,0,0,0,0,0,0
</data>
 </layer>
 <layer id="5" name="tiles-deco" width="50" height="18">
  <data encoding="csv">
0,0,0,45,0,0,0,0,0,0,0,0,0,0,0,0,41,41,41,41,41,41,0,0,0,0,0,41,41,37,37,41,41,41,0,0,0,0,0,45,0,45,0,45,0,45,0,0,0,0,
0,0,0,45,0,0,0,0,0,0,0,0,0,0,0,0,41,41,37,41,37,41,0,0,0,0,0,41,41,41,41,41,37,41,0,0,0,0,0,45,0,45,0,45,0,45,0,0,0,0,
0,0,0,45,0,0,0,0,0,0,0,0,0,0,0,0,41,37,41,37,41,41,0,0,0,0,0,41,41,41,37,41,41,37,0,0,0,0,0,45,0,45,0,45,0,45,0,0,0,0,
0,0,0,45,0,0,0,0,0,0,0,0,0,0,0,0,41,41,41,41,41,37,0,0,0,0,0,0,0,0,0,0,41,41,0,0,0,0,0,0,0,45,0,45,0,45,0,0,0,0,
0,0,0,45,0,0,0,0,0,0,0,0,0,0,0,0,0,0,0,0,0,0,0,0,0,0,33,41,41,41,41,0,41,37,0,0,0,0,0,0,0,0,0,45,0,45,0,0,0,0,
0,0,0,0,0,0,0,0,0,0,0,0,0,0,0,0,0,0,0,0,0,0,0,0,0,0,33,37,37,41,41,0,41,41,0,0,0,0,0,0,0,0,0,0,0,45,0,0,0,0,
0,0,0,0,0,0,0,0,0,0,0,0,0,0,0,0,0,0,0,0,0,0,0,0,0,0,33,41,41,37,41,0,41,41,0,0,0,0,0,0,0,0,0,0,0,0,0,0,0,0,
0,0,0,0,0,0,0,0,0,0,0,0,0,0,0,0,0,0,0,0,0,0,0,0,0,0,0,0,0,41,41,0,0,0,0,0,0,0,0,0,0,0,0,0,0,0,0,0,0,0,
0,0,0,0,0,0,0,0,0,0,0,0,0,0,0,0,0,0,0,0,0,0,0,0,0,0,0,41,0,0,41,41,41,41,33,0,0,0,0,0,0,0,0,0,0,0,0,0,0,0,
0,0,0,0,0,0,0,0,0,0,0,0,0,0,0,0,0,41,37,37,41,41,0,0,0,0,0,37,41,0,41,37,41,37,33,0,0,0,0,0,0,0,0,0,0,0,0,0,0,0,
0,0,0,0,0,0,0,0,0,0,41,37,41,41,0,0,0,41,41,41,41,37,0,0,0,0,0,41,41,0,41,41,41,41,33,0,0,0,0,0,0,0,0,0,0,0,0,0,0,0,
41,41,41,41,41,41,41,41,41,0,41,41,37,41,0,0,0,41,37,41,37,37,0,0,0,0,0,37,41,0,0,0,0,0,0,0,0,0,0,0,0,0,0,0,0,0,0,0,0,0,
41,37,41,41,41,37,37,41,41,0,41,41,41,37,0,0,0,41,41,41,41,41,0,0,0,0,0,0,41,37,37,41,41,41,0,0,0,0,0,0,0,0,0,0,0,0,0,0,0,0,
41,41,41,37,37,41,41,37,41,0,37,37,41,41,0,0,0,41,37,41,41,41,0,0,0,0,34,0,37,41,41,37,37,41,0,0,0,0,0,0,0,0,0,0,0,0,0,0,0,0,
41,41,41,37,41,41,41,37,37,0,41,41,41,41,0,0,0,41,41,37,41,41,0,0,0,0,0,0,41,37,41,41,41,41,0,0,0,41,0,0,0,0,0,0,0,0,0,0,0,0,
41,37,41,41,41,37,41,41,41,0,41,41,37,41,0,0,0,41,41,41,37,41,0,0,0,0,0,41,37,41,37,37,41,37,0,0,0,37,0,0,0,0,0,0,0,0,0,0,0,0,
41,41,41,37,41,37,37,41,41,0,41,37,37,41,0,0,0,41,37,37,37,41,0,0,0,0,0,41,41,37,41,41,41,41,0,0,0,41,41,41,0,0,0,0,0,0,0,0,0,0,
41,41,41,41,41,41,41,37,41,0,41,41,41,41,0,0,0,41,41,41,41,41,0,0,0,0,0,37,41,41,41,41,41,41,0,0,0,41,41,41,0,0,0,0,0,0,0,0,0,0
</data>
 </layer>
 <layer id="18" name="tiles-deco2" width="50" height="18">
  <data encoding="csv">
0,0,0,0,0,0,0,0,0,0,0,0,0,0,0,0,0,0,0,0,0,0,0,0,0,0,0,0,0,0,0,0,0,0,0,0,0,0,0,0,0,0,0,0,0,0,0,0,0,0,
0,0,0,0,0,0,0,0,0,0,0,0,0,0,0,0,0,0,0,0,0,0,0,0,0,0,0,0,0,0,0,0,0,0,0,0,0,0,0,0,0,0,0,0,0,0,0,0,0,0,
0,0,0,0,0,0,0,0,0,0,0,0,0,0,0,0,0,0,0,0,0,0,0,0,0,0,0,0,0,0,0,0,0,0,0,0,0,0,0,0,0,0,0,0,0,0,0,0,0,0,
0,0,0,0,0,0,0,0,0,0,0,0,0,0,0,0,0,0,0,0,0,0,0,0,0,0,0,0,0,0,0,0,0,0,0,0,0,0,0,0,0,0,0,0,0,0,0,0,0,0,
0,0,0,0,0,0,0,0,0,0,0,0,0,0,0,0,0,0,0,0,0,0,0,0,0,0,0,0,0,0,0,0,0,0,0,0,0,0,0,0,0,0,0,0,0,0,0,0,0,0,
0,0,0,0,0,0,0,0,0,0,0,0,0,0,0,0,0,0,0,0,0,0,0,0,0,0,0,0,0,0,0,0,0,0,0,0,0,0,0,0,0,0,0,0,0,0,0,0,0,0,
0,0,0,0,0,0,0,0,0,0,0,0,0,0,0,0,0,0,0,0,0,0,0,0,0,0,0,0,0,0,0,0,0,0,0,0,0,0,0,0,0,0,0,0,0,0,0,0,0,0,
0,0,0,0,0,0,0,0,0,0,0,0,0,0,0,0,0,0,0,0,0,0,0,0,0,0,0,0,0,0,0,0,0,0,0,0,0,0,0,0,0,0,0,0,0,0,0,0,0,0,
0,0,0,0,0,0,0,0,0,0,0,0,0,0,0,0,0,0,0,0,0,0,0,0,0,0,0,0,0,0,0,0,0,0,0,0,0,0,0,0,0,0,0,0,0,0,0,0,0,0,
0,0,0,0,0,0,0,0,0,0,0,0,0,0,0,0,0,0,0,0,0,0,0,0,0,0,0,0,0,0,0,0,0,0,0,0,0,0,0,0,0,0,0,0,0,0,0,0,0,0,
0,0,0,0,0,0,0,0,0,0,0,0,0,0,0,0,0,0,0,0,0,0,0,0,0,0,0,0,0,0,0,0,0,0,0,0,0,0,0,0,0,0,0,0,0,0,0,0,0,0,
0,0,0,0,0,0,0,0,0,0,0,0,0,0,0,0,0,0,0,0,0,0,0,0,0,0,0,0,0,0,0,0,0,0,0,0,0,0,0,0,0,0,0,0,0,0,0,0,0,0,
0,0,0,0,0,0,0,0,0,0,0,0,0,0,0,0,0,0,0,0,0,0,0,0,0,0,0,0,0,0,0,0,0,0,0,0,0,0,0,0,0,0,0,0,0,0,0,0,0,0,
0,0,0,0,0,0,0,0,0,0,0,0,0,0,0,0,0,0,0,0,0,0,0,0,0,0,0,0,0,0,0,0,0,0,0,0,0,0,0,0,0,0,0,0,0,0,0,0,0,0,
0,0,0,0,0,0,0,0,0,0,0,0,0,0,0,0,0,0,0,0,0,0,0,0,0,0,0,0,0,0,0,0,0,0,0,0,0,0,0,0,0,0,0,0,0,0,0,0,0,0,
0,0,0,0,0,0,0,0,0,0,0,0,0,0,0,0,0,0,0,0,0,0,0,0,0,0,0,0,0,0,0,0,0,0,0,0,0,0,0,0,0,0,0,0,0,0,0,0,0,0,
0,0,0,0,0,0,0,0,0,0,0,0,0,0,0,0,0,0,0,0,0,0,0,0,0,0,0,0,0,0,0,0,0,0,0,0,0,0,0,0,0,0,0,0,0,0,0,0,0,0,
0,0,0,0,0,0,0,0,0,0,0,0,0,0,0,0,0,0,0,0,0,0,0,0,0,0,0,0,0,0,0,0,0,0,0,0,0,0,0,0,0,0,0,0,0,0,0,0,0,0
</data>
 </layer>
 <objectgroup id="16" name="falling">
  <properties>
   <property name="direction" value="down"/>
  </properties>
 </objectgroup>
 <objectgroup id="13" name="platform"/>
 <objectgroup id="7" name="trampoline"/>
 <objectgroup id="26" name="camera">
  <properties>
   <property name="cameraType" value="unlockX"/>
  </properties>
 </objectgroup>
 <objectgroup id="28" name="solid_block">
  <object id="1803" name="solid_block" gid="36" x="850" y="450" width="50" height="50"/>
  <object id="1804" name="solid_block" gid="36" x="950" y="350" width="50" height="50"/>
  <object id="1805" name="solid_block" gid="36" x="1050" y="450" width="50" height="50"/>
  <object id="1812" name="solid_block" gid="33" x="1200" y="400" width="50" height="50"/>
 </objectgroup>
 <objectgroup id="25" name="slab">
  <object id="1816" name="slab" gid="48" x="0" y="300" width="50" height="50">
   <properties>
    <property name="target" value="map35a"/>
   </properties>
  </object>
  <object id="1817" name="slab" gid="48" x="50" y="300" width="50" height="50">
   <properties>
    <property name="target" value="map35a"/>
   </properties>
  </object>
  <object id="1818" name="slab" gid="48" x="100" y="300" width="50" height="50">
   <properties>
    <property name="target" value="map35a"/>
   </properties>
  </object>
  <object id="1819" name="slab" gid="48" x="150" y="300" width="50" height="50">
   <properties>
    <property name="target" value="map35a"/>
   </properties>
  </object>
 </objectgroup>
 <objectgroup id="19" name="trampoline-mini"/>
 <objectgroup id="30" name="small-spike">
  <object id="1815" name="small-spike" gid="129" x="650" y="375" width="25" height="25">
   <properties>
    <property name="id" value="2"/>
   </properties>
  </object>
 </objectgroup>
 <objectgroup id="9" name="spike-normal">
  <object id="1802" name="spike" gid="85" x="700" y="450" width="50" height="50">
   <properties>
    <property name="id" value="0"/>
    <property name="status" value="active"/>
   </properties>
  </object>
  <object id="1850" name="spike" gid="87" x="1950" y="400" width="50" height="50">
   <properties>
    <property name="id" value="2"/>
    <property name="status" value="active"/>
   </properties>
  </object>
  <object id="1851" name="spike" gid="87" x="2050" y="450" width="50" height="50">
   <properties>
    <property name="id" value="2"/>
    <property name="status" value="active"/>
   </properties>
  </object>
  <object id="1852" name="spike" gid="87" x="2150" y="500" width="50" height="50">
   <properties>
    <property name="id" value="2"/>
    <property name="status" value="active"/>
   </properties>
  </object>
  <object id="1853" name="spike" gid="87" x="2250" y="550" width="50" height="50">
   <properties>
    <property name="id" value="2"/>
    <property name="status" value="active"/>
   </properties>
  </object>
 </objectgroup>
 <objectgroup id="29" name="redCoin"/>
 <objectgroup id="27" name="switch-spike">
  <object id="1806" name="switch-spike" gid="85" x="850" y="400" width="50" height="50">
   <properties>
    <property name="id" value="0"/>
    <property name="status" value="active"/>
   </properties>
  </object>
  <object id="1807" name="switch-spike" gid="85" x="1050" y="400" width="50" height="50">
   <properties>
    <property name="id" value="0"/>
    <property name="status" value="active"/>
   </properties>
  </object>
  <object id="1809" name="switch-spike" gid="87" x="950" y="400" width="50" height="50">
   <properties>
    <property name="id" value="2"/>
    <property name="status" value="disabled"/>
   </properties>
  </object>
  <object id="1810" name="solid_block" gid="35" x="1200" y="600" width="50" height="50"/>
  <object id="1811" name="switch-spike" gid="85" x="1200" y="550" width="50" height="50">
   <properties>
    <property name="id" value="0"/>
    <property name="status" value="disabled"/>
   </properties>
  </object>
  <object id="1814" name="switch-spike" gid="86" x="1250" y="400" width="50" height="50">
   <properties>
    <property name="id" value="1"/>
    <property name="status" value="active"/>
   </properties>
  </object>
 </objectgroup>
 <objectgroup id="8" name="save"/>
 <objectgroup id="10" name="laser"/>
 <objectgroup id="31" name="shaders">
  <properties>
   <property name="shaderName" value="radioactive"/>
  </properties>
 </objectgroup>
 <objectgroup id="11" name="bg">
  <properties>
   <property name="bgName" value="castleBG3"/>
   <property name="bgShader" value="toxic"/>
  </properties>
 </objectgroup>
 <objectgroup id="12" name="foregroundEffect">
  <properties>
   <property name="foregroundEffectType" value="toxic"/>
  </properties>
 </objectgroup>
 <objectgroup id="22" name="mapEffect">
  <properties>
   <property name="effectType" value="poison-fog"/>
  </properties>
 </objectgroup>
 <objectgroup id="15" name="music">
  <properties>
   <property name="songName" value="castle_underground"/>
  </properties>
 </objectgroup>
 <objectgroup id="20" name="warps">
  <object id="1789" name="warp" gid="124" x="2050" y="900" width="50" height="50">
   <properties>
    <property name="direction" value="down"/>
    <property name="target" value="map36"/>
   </properties>
  </object>
  <object id="1790" name="warp" gid="124" x="2100" y="900" width="50" height="50">
   <properties>
    <property name="direction" value="down"/>
    <property name="target" value="map36"/>
   </properties>
  </object>
  <object id="1791" name="warp" gid="124" x="2150" y="900" width="50" height="50">
   <properties>
    <property name="direction" value="down"/>
    <property name="target" value="map36"/>
   </properties>
  </object>
  <object id="1792" name="warp" gid="124" x="2200" y="900" width="50" height="50">
   <properties>
    <property name="direction" value="down"/>
    <property name="target" value="map36"/>
   </properties>
  </object>
  <object id="1793" name="warp" gid="124" x="2250" y="900" width="50" height="50">
   <properties>
    <property name="direction" value="down"/>
    <property name="target" value="map36"/>
   </properties>
  </object>
  <object id="1794" name="warp" gid="124" x="2300" y="900" width="50" height="50">
   <properties>
    <property name="direction" value="down"/>
    <property name="target" value="map36"/>
   </properties>
  </object>
  <object id="1795" name="warp" gid="124" x="2350" y="900" width="50" height="50">
   <properties>
    <property name="direction" value="down"/>
    <property name="target" value="map36"/>
   </properties>
  </object>
  <object id="1796" name="warp" gid="124" x="2400" y="900" width="50" height="50">
   <properties>
    <property name="direction" value="down"/>
    <property name="target" value="map36"/>
   </properties>
  </object>
  <object id="1801" name="warp" gid="124" x="2450" y="900" width="50" height="50">
   <properties>
    <property name="direction" value="down"/>
    <property name="target" value="map36"/>
   </properties>
  </object>
  <object id="1822" name="warp" gid="123" x="2450" y="450" width="50" height="50">
   <properties>
    <property name="direction" value="right"/>
    <property name="target" value="map37a"/>
   </properties>
  </object>
  <object id="1823" name="warp" gid="123" x="2450" y="400" width="50" height="50">
   <properties>
    <property name="direction" value="right"/>
    <property name="target" value="map37a"/>
   </properties>
  </object>
  <object id="1824" name="warp" gid="123" x="2450" y="350" width="50" height="50">
   <properties>
    <property name="direction" value="right"/>
    <property name="target" value="map37a"/>
   </properties>
  </object>
  <object id="1825" name="warp" gid="123" x="2450" y="300" width="50" height="50">
   <properties>
    <property name="direction" value="right"/>
    <property name="target" value="map37a"/>
   </properties>
  </object>
  <object id="1826" name="warp" gid="123" x="2450" y="250" width="50" height="50">
   <properties>
    <property name="direction" value="right"/>
    <property name="target" value="map37a"/>
   </properties>
  </object>
  <object id="1827" name="warp" gid="123" x="2450" y="200" width="50" height="50">
   <properties>
    <property name="direction" value="right"/>
    <property name="target" value="map37a"/>
   </properties>
  </object>
  <object id="1828" name="warp" gid="123" x="2450" y="150" width="50" height="50">
   <properties>
    <property name="direction" value="right"/>
    <property name="target" value="map37a"/>
   </properties>
  </object>
  <object id="1829" name="warp" gid="123" x="2450" y="100" width="50" height="50">
   <properties>
    <property name="direction" value="right"/>
    <property name="target" value="map37a"/>
   </properties>
  </object>
  <object id="1830" name="warp" gid="123" x="2450" y="50" width="50" height="50">
   <properties>
    <property name="direction" value="right"/>
    <property name="target" value="map37a"/>
   </properties>
  </object>
  <object id="1832" name="warp" gid="123" x="2450" y="850" width="50" height="50">
   <properties>
    <property name="direction" value="right"/>
    <property name="target" value="map37a"/>
   </properties>
  </object>
  <object id="1833" name="warp" gid="123" x="2450" y="800" width="50" height="50">
   <properties>
    <property name="direction" value="right"/>
    <property name="target" value="map37a"/>
   </properties>
  </object>
  <object id="1834" name="warp" gid="123" x="2450" y="750" width="50" height="50">
   <properties>
    <property name="direction" value="right"/>
    <property name="target" value="map37a"/>
   </properties>
  </object>
  <object id="1835" name="warp" gid="123" x="2450" y="700" width="50" height="50">
   <properties>
    <property name="direction" value="right"/>
    <property name="target" value="map37a"/>
   </properties>
  </object>
  <object id="1836" name="warp" gid="123" x="2450" y="650" width="50" height="50">
   <properties>
    <property name="direction" value="right"/>
    <property name="target" value="map37a"/>
   </properties>
  </object>
  <object id="1837" name="warp" gid="123" x="2450" y="600" width="50" height="50">
   <properties>
    <property name="direction" value="right"/>
    <property name="target" value="map37a"/>
   </properties>
  </object>
  <object id="1838" name="warp" gid="123" x="2450" y="550" width="50" height="50">
   <properties>
    <property name="direction" value="right"/>
    <property name="target" value="map37a"/>
   </properties>
  </object>
  <object id="1839" name="warp" gid="123" x="2450" y="500" width="50" height="50">
   <properties>
    <property name="direction" value="right"/>
    <property name="target" value="map37a"/>
   </properties>
  </object>
  <object id="1840" name="warp" gid="125" x="0" y="500" width="50" height="50">
   <properties>
    <property name="direction" value="left"/>
    <property name="target" value="map35a"/>
   </properties>
  </object>
  <object id="1841" name="warp" gid="125" x="0" y="450" width="50" height="50">
   <properties>
    <property name="direction" value="left"/>
    <property name="target" value="map35a"/>
   </properties>
  </object>
  <object id="1842" name="warp" gid="125" x="0" y="400" width="50" height="50">
   <properties>
    <property name="direction" value="left"/>
    <property name="target" value="map35a"/>
   </properties>
  </object>
  <object id="1843" name="warp" gid="125" x="0" y="350" width="50" height="50">
   <properties>
    <property name="direction" value="left"/>
    <property name="target" value="map35a"/>
   </properties>
  </object>
  <object id="1844" name="warp" gid="125" x="0" y="300" width="50" height="50">
   <properties>
    <property name="direction" value="left"/>
    <property name="target" value="map35a"/>
   </properties>
  </object>
  <object id="1845" name="warp" gid="125" x="0" y="250" width="50" height="50">
   <properties>
    <property name="direction" value="left"/>
    <property name="target" value="map35a"/>
   </properties>
  </object>
  <object id="1846" name="warp" gid="125" x="0" y="200" width="50" height="50">
   <properties>
    <property name="direction" value="left"/>
    <property name="target" value="map35a"/>
   </properties>
  </object>
  <object id="1847" name="warp" gid="125" x="0" y="150" width="50" height="50">
   <properties>
    <property name="direction" value="left"/>
    <property name="target" value="map35a"/>
   </properties>
  </object>
  <object id="1848" name="warp" gid="125" x="0" y="100" width="50" height="50">
   <properties>
    <property name="direction" value="left"/>
    <property name="target" value="map35a"/>
   </properties>
  </object>
  <object id="1849" name="warp" gid="125" x="0" y="50" width="50" height="50">
   <properties>
    <property name="direction" value="left"/>
    <property name="target" value="map35a"/>
   </properties>
  </object>
 </objectgroup>
</map>
