<?xml version="1.0" encoding="UTF-8"?>
<map version="1.10" tiledversion="1.12.1" orientation="orthogonal" renderorder="right-down" width="60" height="18" tilewidth="50" tileheight="50" infinite="0" nextlayerid="27" nextobjectid="738">
 <properties>
  <property name="songName" value="castle1"/>
 </properties>
 <tileset firstgid="1" source="ch1-tiles.tsx"/>
 <tileset firstgid="89" source="../../textures/trampoline.tsx"/>
 <tileset firstgid="92" source="../../textures/save.tsx"/>
 <tileset firstgid="93" source="../../textures/spike.tsx"/>
 <tileset firstgid="101" source="../../textures/laser.tsx"/>
 <tileset firstgid="119" source="../../textures/light.tsx"/>
 <tileset firstgid="121" source="../../textures/transition-tiles.tsx"/>
 <layer id="1" name="tiles-main" width="60" height="18">
  <data encoding="csv">
0,0,0,0,0,0,0,0,0,0,0,0,0,0,0,1,0,0,0,0,0,1,0,0,0,1,0,0,0,0,0,0,0,0,0,0,0,0,0,0,0,0,0,0,0,0,0,0,0,0,0,0,0,0,0,0,0,0,0,0,
0,0,0,0,0,0,0,0,0,0,0,0,0,0,0,1,0,0,0,0,0,1,0,0,0,1,0,0,0,0,0,0,0,0,0,0,0,0,0,0,0,0,0,0,0,0,0,0,0,0,0,0,0,0,0,0,0,0,0,0,
0,0,0,0,0,0,0,0,0,0,0,0,0,0,0,1,0,0,0,0,0,1,0,0,0,1,0,0,0,0,0,0,0,0,0,0,0,0,0,0,0,0,0,0,0,0,0,0,0,0,0,0,0,0,0,0,0,0,0,0,
0,0,0,0,0,0,0,0,0,0,0,0,0,0,0,1,1,0,0,0,0,1,0,0,0,1,0,0,0,0,0,0,0,0,0,0,0,0,0,0,0,0,0,0,0,0,0,0,0,0,0,0,0,0,0,0,0,0,0,0,
0,0,0,0,0,0,0,0,0,0,0,0,0,0,0,0,1,1,1,1,1,1,0,0,0,1,1,1,0,0,0,0,0,0,0,0,0,0,0,0,0,0,0,0,0,0,0,0,0,0,0,0,0,0,0,0,0,0,0,0,
0,0,0,0,0,0,0,0,0,0,0,0,0,0,0,0,0,0,0,0,0,0,0,0,0,0,0,1,1,1,0,0,0,0,0,0,0,0,0,0,0,0,0,0,0,0,0,0,0,0,0,0,0,0,0,0,0,0,0,0,
0,0,0,0,0,0,0,0,0,0,0,0,0,0,0,0,0,0,0,0,0,0,0,0,0,0,0,0,0,1,1,1,1,1,0,0,0,0,0,1,1,1,1,1,1,1,1,1,1,1,1,1,1,1,1,1,1,1,1,1,
0,0,0,0,0,0,0,0,0,0,0,0,0,0,0,0,0,0,0,0,0,0,0,0,0,0,0,0,0,0,0,0,0,1,1,1,1,1,1,1,0,0,0,0,0,0,0,0,0,0,0,0,0,0,0,0,0,0,0,0,
0,0,0,0,0,0,0,0,0,81,0,0,0,0,0,0,0,0,0,0,0,0,0,0,0,0,0,0,0,0,0,0,0,0,0,0,0,0,0,0,0,0,0,0,0,0,0,0,0,0,0,0,7,0,0,0,0,0,0,0,
0,0,0,0,0,0,0,0,0,81,0,0,0,0,0,0,0,0,0,0,0,0,0,0,0,0,0,0,0,0,0,0,0,0,0,0,0,0,0,0,0,0,0,0,7,0,0,0,0,0,0,0,0,0,0,0,0,0,0,0,
1,1,1,1,1,1,1,1,1,1,1,0,0,0,0,0,0,0,0,0,0,0,0,0,0,0,0,0,0,0,0,0,7,0,0,0,0,0,0,7,0,0,0,0,0,0,0,0,7,0,0,0,0,0,0,0,0,0,0,0,
0,0,0,0,0,0,0,0,0,0,1,0,0,0,0,0,0,0,0,0,0,0,0,0,0,0,0,0,0,0,0,0,0,0,0,0,0,0,0,0,0,0,0,0,0,0,0,0,0,0,0,0,0,0,0,0,0,1,1,1,
0,0,0,0,0,0,0,0,0,1,1,0,0,0,0,0,0,0,0,0,0,0,0,0,0,0,0,0,0,0,0,0,0,0,0,0,0,0,0,0,0,0,0,0,0,0,0,0,0,0,0,0,7,0,0,0,0,1,0,0,
0,0,0,0,0,0,0,0,0,1,0,0,0,0,0,0,0,0,0,0,0,0,0,0,0,0,0,0,0,0,0,0,0,0,0,0,0,0,0,0,0,0,0,0,0,0,0,0,0,0,0,0,0,0,0,0,0,1,0,0,
0,0,0,0,0,0,0,0,1,1,0,0,0,0,0,0,0,0,0,0,0,0,0,0,0,0,0,0,0,0,0,0,0,0,0,0,0,0,0,0,0,0,0,0,0,0,0,0,0,0,0,0,0,0,0,0,0,1,0,0,
0,0,0,0,0,0,0,0,1,0,0,0,0,0,0,0,0,0,0,0,0,0,0,0,0,0,0,0,0,0,0,0,0,0,0,0,0,0,0,0,0,0,0,0,0,0,0,0,0,0,0,0,0,0,0,0,0,1,0,0,
0,0,0,0,0,0,0,0,1,0,0,0,0,0,0,0,0,0,0,0,0,0,0,0,0,0,0,0,0,0,0,0,0,0,0,0,0,0,0,0,0,0,0,0,0,0,0,0,0,0,0,0,0,0,0,0,0,1,0,0,
0,0,0,0,0,0,0,0,1,0,0,0,0,0,0,0,0,0,0,0,0,0,0,0,0,0,0,0,0,0,0,0,0,0,0,0,0,0,0,0,0,0,0,0,0,0,0,0,0,0,0,0,0,0,0,0,0,1,0,0
</data>
 </layer>
 <layer id="5" name="tiles-deco" width="60" height="18">
  <data encoding="csv">
78,78,78,78,78,78,78,78,78,78,78,78,78,78,78,0,9,9,9,9,9,0,0,0,0,0,9,9,9,9,9,9,9,9,9,9,9,9,9,9,9,9,9,9,9,9,9,9,9,9,9,9,9,9,9,9,9,9,9,9,
78,78,78,78,78,78,78,78,78,78,78,78,78,78,78,0,9,9,9,9,9,0,0,0,0,0,9,9,9,9,9,9,9,9,9,9,9,9,9,9,9,9,9,9,9,9,9,9,9,9,9,9,9,9,9,9,9,9,9,9,
0,0,0,0,78,78,78,78,78,78,78,78,78,78,78,0,9,9,9,9,9,0,0,0,0,0,9,9,9,9,9,9,9,9,9,9,9,9,9,9,9,9,9,9,9,9,9,9,9,9,9,9,9,9,9,9,9,9,9,9,
0,0,0,0,78,78,78,78,78,78,78,78,78,78,78,0,0,9,9,9,9,0,0,0,0,0,9,9,9,9,9,9,9,9,9,9,9,9,9,9,9,9,9,9,9,9,9,9,9,9,9,9,9,9,9,9,9,9,9,9,
0,0,0,0,78,78,78,78,78,78,79,88,0,88,80,78,0,0,0,0,0,0,0,0,0,0,0,0,9,9,9,9,9,9,9,9,9,9,9,9,9,9,9,9,9,9,9,9,9,9,9,9,9,9,9,9,9,9,9,9,
0,0,0,0,78,78,78,78,78,79,0,0,0,0,0,0,0,0,0,0,0,0,0,0,0,0,87,0,0,0,9,9,9,9,9,9,9,9,9,9,9,9,9,9,9,9,9,9,9,9,9,9,9,9,9,9,9,9,9,9,
0,0,0,0,78,78,78,78,79,0,0,0,0,0,0,0,0,0,0,0,0,0,0,0,0,0,87,78,78,0,0,0,0,0,9,9,9,9,9,0,0,0,0,0,0,0,0,0,0,0,0,0,0,0,0,0,0,0,0,0,
0,0,0,0,78,78,78,79,0,0,0,0,0,0,0,0,0,0,0,0,0,0,0,0,0,0,87,78,78,0,0,0,12,0,0,0,0,0,0,0,78,78,78,78,78,78,78,78,78,78,78,78,79,0,0,0,0,0,0,0,
78,78,78,78,78,78,79,0,0,0,0,0,0,0,0,0,0,0,0,0,0,0,0,0,0,0,85,78,79,0,0,0,12,0,0,0,0,85,78,78,78,78,78,78,78,78,78,78,78,78,78,78,0,0,0,0,0,0,0,0,
78,78,78,78,78,79,0,0,83,0,0,0,0,0,0,0,0,0,0,0,0,0,0,0,0,0,78,78,86,0,0,0,12,0,0,0,85,78,78,78,78,78,78,78,0,78,78,78,78,78,78,79,0,0,0,0,0,0,0,0,
0,0,0,0,0,0,0,0,0,0,0,0,0,0,0,0,0,0,0,0,0,0,0,0,0,0,78,78,86,0,0,0,0,0,0,85,78,78,78,0,78,78,78,78,78,78,78,78,0,78,79,0,0,0,0,0,0,0,0,0,
9,9,9,9,9,9,9,9,9,9,0,0,0,0,0,0,0,0,0,0,0,0,0,0,0,0,78,78,86,0,0,0,0,0,85,78,78,78,78,78,78,78,78,78,78,78,78,78,78,79,0,0,0,0,0,0,0,0,0,0,
9,9,9,9,9,9,9,9,9,0,0,0,0,0,0,0,0,0,0,0,0,0,0,0,0,0,78,78,86,0,0,0,0,0,78,78,78,78,78,78,78,78,78,78,78,78,78,78,79,0,0,0,0,0,0,0,0,0,9,9,
9,9,9,9,9,9,9,9,9,0,0,0,0,0,0,0,0,0,0,0,0,0,0,0,0,0,78,78,86,0,0,0,0,87,78,78,78,78,78,78,78,78,78,78,78,78,78,79,0,0,0,0,0,0,0,0,87,0,9,9,
9,9,9,9,9,9,9,9,0,0,0,0,0,0,0,0,0,0,0,0,0,0,0,0,0,85,78,79,0,0,0,0,0,85,78,78,78,78,78,78,78,78,78,78,78,78,79,0,0,0,0,0,0,0,0,0,85,0,9,9,
9,9,9,9,9,9,9,9,0,0,0,0,0,0,0,0,0,0,0,0,0,0,0,0,0,78,78,86,0,0,0,0,87,78,78,78,78,78,78,78,78,78,78,78,78,78,86,0,0,0,0,0,0,0,0,85,78,0,9,9,
9,9,9,9,9,9,9,9,0,0,0,0,0,0,0,0,0,0,0,0,0,0,0,0,0,78,78,86,0,0,0,0,87,78,78,78,78,78,78,78,78,78,78,78,78,79,0,0,0,0,0,0,0,0,87,78,78,0,9,9,
9,9,9,9,9,9,9,9,0,0,0,0,0,0,0,0,0,0,0,0,0,0,0,0,85,78,78,86,0,0,0,0,85,78,78,78,78,78,78,78,78,78,78,78,79,0,0,0,0,0,0,0,0,0,85,78,78,1,9,9
</data>
 </layer>
 <layer id="18" name="tiles-deco2" width="60" height="18">
  <data encoding="csv">
0,0,0,0,0,0,0,0,0,0,0,0,0,0,0,0,0,0,0,0,0,0,0,0,0,0,0,0,0,0,0,0,0,0,0,0,0,0,0,0,0,0,0,0,0,0,0,0,0,0,0,0,0,0,0,0,0,0,0,0,
0,0,0,0,31,0,0,0,0,0,0,0,0,0,0,0,0,0,0,0,0,0,0,0,0,0,0,0,0,0,0,0,0,0,0,0,0,0,0,0,0,0,0,0,0,0,0,0,0,0,0,0,0,0,0,0,0,0,0,0,
0,0,0,0,0,0,0,0,0,0,0,0,0,0,0,0,0,0,0,0,0,0,0,0,0,0,0,0,0,0,0,0,0,0,0,0,0,0,0,0,0,0,0,0,0,0,0,0,0,0,0,0,0,0,0,0,0,0,0,0,
0,0,0,0,0,0,0,0,0,0,0,0,0,0,0,0,0,31,0,0,31,0,0,0,0,0,0,0,0,0,0,0,0,0,0,0,0,0,0,0,0,0,0,0,0,0,0,0,0,0,0,0,0,0,0,0,0,0,0,0,
0,0,0,0,0,0,0,0,0,0,0,0,0,0,0,0,0,0,0,0,0,0,0,0,0,0,0,0,31,0,0,0,0,0,0,0,0,0,0,0,0,0,0,0,0,0,0,0,0,0,0,0,0,0,0,0,0,0,0,0,
0,0,0,0,0,0,0,0,0,0,0,0,0,0,0,0,0,0,0,0,0,0,0,0,0,0,0,0,0,0,0,0,0,0,0,0,0,0,0,0,0,0,0,0,0,0,31,0,0,0,0,0,0,0,0,0,31,0,0,0,
0,0,0,0,0,0,0,0,0,0,0,0,0,0,0,0,0,0,0,0,0,0,0,0,0,0,0,0,0,0,0,0,0,0,0,0,0,0,31,0,0,0,0,0,0,0,0,0,0,0,0,0,0,0,0,0,0,0,0,0,
0,0,0,0,0,0,0,0,0,0,0,0,0,0,0,0,0,0,0,0,0,0,0,0,0,0,0,0,0,0,0,0,0,0,0,0,0,0,0,0,0,0,0,0,12,0,0,0,12,0,0,0,12,0,0,0,0,0,0,0,
0,0,0,0,31,0,0,0,0,0,0,0,0,0,0,0,0,0,0,0,0,0,0,0,0,0,0,0,0,0,0,0,0,0,0,0,0,0,0,12,0,0,0,0,12,0,0,0,12,0,0,0,31,0,0,0,0,0,0,0,
0,0,0,0,0,0,0,0,0,0,0,0,0,0,0,0,0,0,0,0,0,0,0,0,0,0,0,0,0,0,0,0,0,0,0,0,0,0,0,12,0,0,0,0,31,0,0,0,12,0,0,0,0,0,0,0,0,0,0,0,
0,0,0,0,0,0,0,0,0,0,0,0,0,0,0,0,0,0,0,0,0,0,0,0,0,0,0,0,0,0,0,0,31,0,0,0,0,0,0,31,0,0,0,0,0,0,0,0,31,0,0,0,0,0,0,0,0,0,0,0,
0,0,0,0,0,0,0,0,0,31,0,0,0,0,0,0,0,0,0,0,0,0,0,0,0,0,0,0,0,0,0,0,0,0,0,0,0,0,0,0,0,0,0,0,0,0,0,0,0,0,0,0,0,0,0,0,0,0,0,0,
0,0,0,0,0,0,0,0,0,0,0,0,0,0,0,0,0,0,0,0,0,0,0,0,0,0,0,0,0,0,0,0,0,0,0,0,0,0,0,0,0,0,0,0,0,0,0,0,0,0,0,0,31,0,0,0,0,0,31,0,
0,0,0,0,0,0,0,0,0,0,0,0,0,0,0,0,0,0,0,0,0,0,0,0,0,0,0,0,0,0,0,0,0,0,0,0,0,0,0,0,0,0,0,0,0,0,0,0,0,0,0,0,0,0,0,0,0,0,0,0,
0,0,0,0,0,0,0,0,0,0,0,0,0,0,0,0,0,0,0,0,0,0,0,0,0,0,0,0,0,0,0,0,0,0,0,0,0,0,0,0,0,0,0,0,0,0,0,0,0,0,0,0,0,0,0,0,0,0,0,0,
0,0,0,0,0,0,0,0,0,0,0,0,0,0,0,0,0,0,0,0,0,0,0,0,0,0,0,0,0,0,0,0,0,0,0,0,0,0,0,0,0,0,0,0,0,0,0,0,0,0,0,0,0,0,0,0,0,0,0,0,
0,0,0,0,0,0,0,0,0,0,0,0,0,0,0,0,0,0,0,0,0,0,0,0,0,0,0,0,0,0,0,0,0,0,0,0,0,0,0,0,0,0,0,0,0,0,0,0,0,0,0,0,0,0,0,0,0,0,0,0,
0,0,0,0,0,0,0,0,0,0,0,0,0,0,0,0,0,0,0,0,0,0,0,0,0,0,0,0,0,0,0,0,0,0,0,0,0,0,0,0,0,0,0,0,0,0,0,0,0,0,0,0,0,0,0,0,0,0,0,0
</data>
 </layer>
 <objectgroup id="16" name="falling">
  <properties>
   <property name="direction" value="down"/>
  </properties>
 </objectgroup>
 <objectgroup id="13" name="platform">
  <object id="623" name="platform" gid="28" x="550" y="550" width="50" height="50">
   <properties>
    <property name="direction" value="right"/>
   </properties>
  </object>
  <object id="624" name="platform" gid="27" x="1150" y="400" width="50" height="50">
   <properties>
    <property name="direction" value="up"/>
    <property name="speed" value="100"/>
   </properties>
  </object>
 </objectgroup>
 <objectgroup id="22" name="images">
  <object id="647" name="image" gid="8" x="52.66" y="275.333" width="50" height="50">
   <properties>
    <property name="imageName" value="castle_window"/>
   </properties>
  </object>
 </objectgroup>
 <objectgroup id="21" name="camera">
  <properties>
   <property name="cameraType" value="unlockX"/>
  </properties>
 </objectgroup>
 <objectgroup id="14" name="light" visible="0">
  <object id="649" name="light" gid="119" x="125" y="173" width="200" height="200"/>
  <object id="651" name="light" gid="119" x="124" y="519" width="200" height="200"/>
  <object id="721" name="light" gid="119" x="1522.67" y="621.333" width="200" height="200"/>
  <object id="722" name="light" gid="119" x="1872.67" y="621.333" width="200" height="200"/>
  <object id="723" name="light" gid="119" x="2122.67" y="571.333" width="200" height="200"/>
  <object id="724" name="light" gid="119" x="2326.67" y="623.333" width="200" height="200"/>
  <object id="725" name="light" gid="119" x="2522.67" y="727.333" width="200" height="200"/>
  <object id="726" name="light" gid="119" x="2524.67" y="523.333" width="200" height="200"/>
  <object id="727" name="light" gid="119" x="2824.67" y="723.333" width="200" height="200"/>
  <object id="728" name="light" gid="119" x="374.67" y="673.333" width="200" height="200"/>
  <object id="729" name="light" gid="119" x="1324.67" y="323.333" width="200" height="200"/>
  <object id="731" name="light" gid="119" x="924.67" y="273.333" width="200" height="200"/>
  <object id="732" name="light" gid="119" x="774.67" y="273.333" width="200" height="200"/>
  <object id="734" name="light" gid="119" x="1824.67" y="423.333" width="200" height="200"/>
  <object id="736" name="light" gid="119" x="2224.67" y="373.333" width="200" height="200"/>
  <object id="737" name="light" gid="119" x="2724.67" y="373.333" width="200" height="200"/>
 </objectgroup>
 <objectgroup id="7" name="trampoline"/>
 <objectgroup id="9" name="spike-normal">
  <object id="625" name="spike" gid="93" x="1600" y="500" width="50" height="50">
   <properties>
    <property name="id" value="0"/>
   </properties>
  </object>
  <object id="626" name="spike" gid="93" x="1950" y="500" width="50" height="50">
   <properties>
    <property name="id" value="0"/>
   </properties>
  </object>
  <object id="627" name="spike" gid="93" x="2200" y="450" width="50" height="50">
   <properties>
    <property name="id" value="0"/>
   </properties>
  </object>
  <object id="628" name="spike" gid="93" x="2400" y="500" width="50" height="50">
   <properties>
    <property name="id" value="0"/>
   </properties>
  </object>
  <object id="631" name="spike" gid="93" x="2600" y="600" width="50" height="50">
   <properties>
    <property name="id" value="0"/>
   </properties>
  </object>
  <object id="632" name="spike" gid="95" x="2600" y="500" width="50" height="50">
   <properties>
    <property name="id" value="2"/>
   </properties>
  </object>
  <object id="652" name="spike" gid="97" x="450" y="900" width="50" height="50">
   <properties>
    <property name="id" value="4"/>
   </properties>
  </object>
  <object id="653" name="spike" gid="97" x="500" y="900" width="50" height="50">
   <properties>
    <property name="id" value="4"/>
   </properties>
  </object>
  <object id="654" name="spike" gid="97" x="550" y="900" width="50" height="50">
   <properties>
    <property name="id" value="4"/>
   </properties>
  </object>
  <object id="655" name="spike" gid="97" x="600" y="900" width="50" height="50">
   <properties>
    <property name="id" value="4"/>
   </properties>
  </object>
  <object id="656" name="spike" gid="97" x="600" y="900" width="50" height="50">
   <properties>
    <property name="id" value="4"/>
   </properties>
  </object>
  <object id="657" name="spike" gid="97" x="650" y="900" width="50" height="50">
   <properties>
    <property name="id" value="4"/>
   </properties>
  </object>
  <object id="658" name="spike" gid="97" x="700" y="900" width="50" height="50">
   <properties>
    <property name="id" value="4"/>
   </properties>
  </object>
  <object id="659" name="spike" gid="97" x="750" y="900" width="50" height="50">
   <properties>
    <property name="id" value="4"/>
   </properties>
  </object>
  <object id="660" name="spike" gid="97" x="800" y="900" width="50" height="50">
   <properties>
    <property name="id" value="4"/>
   </properties>
  </object>
  <object id="661" name="spike" gid="97" x="850" y="900" width="50" height="50">
   <properties>
    <property name="id" value="4"/>
   </properties>
  </object>
  <object id="662" name="spike" gid="97" x="900" y="900" width="50" height="50">
   <properties>
    <property name="id" value="4"/>
   </properties>
  </object>
  <object id="663" name="spike" gid="97" x="900" y="900" width="50" height="50">
   <properties>
    <property name="id" value="4"/>
   </properties>
  </object>
  <object id="664" name="spike" gid="97" x="950" y="900" width="50" height="50">
   <properties>
    <property name="id" value="4"/>
   </properties>
  </object>
  <object id="665" name="spike" gid="97" x="1000" y="900" width="50" height="50">
   <properties>
    <property name="id" value="4"/>
   </properties>
  </object>
  <object id="666" name="spike" gid="97" x="1050" y="900" width="50" height="50">
   <properties>
    <property name="id" value="4"/>
   </properties>
  </object>
  <object id="667" name="spike" gid="97" x="1100" y="900" width="50" height="50">
   <properties>
    <property name="id" value="4"/>
   </properties>
  </object>
  <object id="668" name="spike" gid="97" x="1150" y="900" width="50" height="50">
   <properties>
    <property name="id" value="4"/>
   </properties>
  </object>
  <object id="669" name="spike" gid="97" x="1200" y="900" width="50" height="50">
   <properties>
    <property name="id" value="4"/>
   </properties>
  </object>
  <object id="670" name="spike" gid="97" x="1200" y="900" width="50" height="50">
   <properties>
    <property name="id" value="4"/>
   </properties>
  </object>
  <object id="671" name="spike" gid="97" x="1250" y="900" width="50" height="50">
   <properties>
    <property name="id" value="4"/>
   </properties>
  </object>
  <object id="672" name="spike" gid="97" x="1300" y="900" width="50" height="50">
   <properties>
    <property name="id" value="4"/>
   </properties>
  </object>
  <object id="673" name="spike" gid="97" x="1350" y="900" width="50" height="50">
   <properties>
    <property name="id" value="4"/>
   </properties>
  </object>
  <object id="674" name="spike" gid="97" x="1400" y="900" width="50" height="50">
   <properties>
    <property name="id" value="4"/>
   </properties>
  </object>
  <object id="675" name="spike" gid="97" x="1450" y="900" width="50" height="50">
   <properties>
    <property name="id" value="4"/>
   </properties>
  </object>
  <object id="676" name="spike" gid="97" x="1500" y="900" width="50" height="50">
   <properties>
    <property name="id" value="4"/>
   </properties>
  </object>
  <object id="677" name="spike" gid="97" x="1500" y="900" width="50" height="50">
   <properties>
    <property name="id" value="4"/>
   </properties>
  </object>
  <object id="678" name="spike" gid="97" x="1550" y="900" width="50" height="50">
   <properties>
    <property name="id" value="4"/>
   </properties>
  </object>
  <object id="679" name="spike" gid="97" x="1600" y="900" width="50" height="50">
   <properties>
    <property name="id" value="4"/>
   </properties>
  </object>
  <object id="680" name="spike" gid="97" x="1650" y="900" width="50" height="50">
   <properties>
    <property name="id" value="4"/>
   </properties>
  </object>
  <object id="681" name="spike" gid="97" x="1700" y="900" width="50" height="50">
   <properties>
    <property name="id" value="4"/>
   </properties>
  </object>
  <object id="682" name="spike" gid="97" x="1750" y="900" width="50" height="50">
   <properties>
    <property name="id" value="4"/>
   </properties>
  </object>
  <object id="683" name="spike" gid="97" x="1800" y="900" width="50" height="50">
   <properties>
    <property name="id" value="4"/>
   </properties>
  </object>
  <object id="684" name="spike" gid="97" x="1800" y="900" width="50" height="50">
   <properties>
    <property name="id" value="4"/>
   </properties>
  </object>
  <object id="685" name="spike" gid="97" x="1850" y="900" width="50" height="50">
   <properties>
    <property name="id" value="4"/>
   </properties>
  </object>
  <object id="686" name="spike" gid="97" x="1900" y="900" width="50" height="50">
   <properties>
    <property name="id" value="4"/>
   </properties>
  </object>
  <object id="687" name="spike" gid="97" x="1950" y="900" width="50" height="50">
   <properties>
    <property name="id" value="4"/>
   </properties>
  </object>
  <object id="688" name="spike" gid="97" x="2000" y="900" width="50" height="50">
   <properties>
    <property name="id" value="4"/>
   </properties>
  </object>
  <object id="689" name="spike" gid="97" x="2050" y="900" width="50" height="50">
   <properties>
    <property name="id" value="4"/>
   </properties>
  </object>
  <object id="690" name="spike" gid="97" x="2100" y="900" width="50" height="50">
   <properties>
    <property name="id" value="4"/>
   </properties>
  </object>
  <object id="691" name="spike" gid="97" x="2100" y="900" width="50" height="50">
   <properties>
    <property name="id" value="4"/>
   </properties>
  </object>
  <object id="692" name="spike" gid="97" x="2150" y="900" width="50" height="50">
   <properties>
    <property name="id" value="4"/>
   </properties>
  </object>
  <object id="693" name="spike" gid="97" x="2200" y="900" width="50" height="50">
   <properties>
    <property name="id" value="4"/>
   </properties>
  </object>
  <object id="694" name="spike" gid="97" x="2250" y="900" width="50" height="50">
   <properties>
    <property name="id" value="4"/>
   </properties>
  </object>
  <object id="695" name="spike" gid="97" x="2300" y="900" width="50" height="50">
   <properties>
    <property name="id" value="4"/>
   </properties>
  </object>
  <object id="696" name="spike" gid="97" x="2350" y="900" width="50" height="50">
   <properties>
    <property name="id" value="4"/>
   </properties>
  </object>
  <object id="697" name="spike" gid="97" x="2400" y="900" width="50" height="50">
   <properties>
    <property name="id" value="4"/>
   </properties>
  </object>
  <object id="698" name="spike" gid="97" x="2400" y="900" width="50" height="50">
   <properties>
    <property name="id" value="4"/>
   </properties>
  </object>
  <object id="699" name="spike" gid="97" x="2450" y="900" width="50" height="50">
   <properties>
    <property name="id" value="4"/>
   </properties>
  </object>
  <object id="700" name="spike" gid="97" x="2500" y="900" width="50" height="50">
   <properties>
    <property name="id" value="4"/>
   </properties>
  </object>
  <object id="701" name="spike" gid="97" x="2550" y="900" width="50" height="50">
   <properties>
    <property name="id" value="4"/>
   </properties>
  </object>
  <object id="702" name="spike" gid="97" x="2600" y="900" width="50" height="50">
   <properties>
    <property name="id" value="4"/>
   </properties>
  </object>
  <object id="703" name="spike" gid="97" x="2650" y="900" width="50" height="50">
   <properties>
    <property name="id" value="4"/>
   </properties>
  </object>
  <object id="704" name="spike" gid="97" x="2700" y="900" width="50" height="50">
   <properties>
    <property name="id" value="4"/>
   </properties>
  </object>
  <object id="705" name="spike" gid="97" x="2700" y="900" width="50" height="50">
   <properties>
    <property name="id" value="4"/>
   </properties>
  </object>
  <object id="706" name="spike" gid="97" x="2750" y="900" width="50" height="50">
   <properties>
    <property name="id" value="4"/>
   </properties>
  </object>
  <object id="707" name="spike" gid="97" x="2800" y="900" width="50" height="50">
   <properties>
    <property name="id" value="4"/>
   </properties>
  </object>
 </objectgroup>
 <objectgroup id="23" name="slab"/>
 <objectgroup id="8" name="save"/>
 <objectgroup id="10" name="laser"/>
 <objectgroup id="24" name="mapDecoEffect">
  <properties>
   <property name="backDecoEffectType" value="clouds"/>
  </properties>
 </objectgroup>
 <objectgroup id="11" name="bg">
  <properties>
   <property name="bgName" value="bgMountainsDay"/>
  </properties>
 </objectgroup>
 <objectgroup id="12" name="mapEffect">
  <properties>
   <property name="effectType" value="none"/>
  </properties>
 </objectgroup>
 <objectgroup id="20" name="shaders">
  <properties>
   <property name="shaderName" value="castleRays"/>
  </properties>
 </objectgroup>
 <objectgroup id="19" name="warps">
  <object id="633" name="warp" gid="122" x="2950" y="400" width="50" height="50">
   <properties>
    <property name="direction" value="right"/>
    <property name="target" value="map46"/>
   </properties>
  </object>
  <object id="634" name="warp" gid="122" x="2950" y="450" width="50" height="50">
   <properties>
    <property name="direction" value="right"/>
    <property name="target" value="map46"/>
   </properties>
  </object>
  <object id="635" name="warp" gid="122" x="2950" y="500" width="50" height="50">
   <properties>
    <property name="direction" value="right"/>
    <property name="target" value="map46"/>
   </properties>
  </object>
  <object id="636" name="warp" gid="122" x="2950" y="550" width="50" height="50">
   <properties>
    <property name="direction" value="right"/>
    <property name="target" value="map46"/>
   </properties>
  </object>
  <object id="644" name="warp" gid="121" x="1100" y="50" width="50" height="50">
   <properties>
    <property name="direction" value="up"/>
    <property name="target" value="bonus01"/>
   </properties>
  </object>
  <object id="645" name="warp" gid="121" x="1150" y="50" width="50" height="50">
   <properties>
    <property name="direction" value="up"/>
    <property name="target" value="bonus01"/>
   </properties>
  </object>
  <object id="646" name="warp" gid="121" x="1200" y="50" width="50" height="50">
   <properties>
    <property name="direction" value="up"/>
    <property name="target" value="bonus01"/>
   </properties>
  </object>
  <object id="710" name="warp" gid="124" x="0" y="200" width="50" height="50">
   <properties>
    <property name="direction" value="left"/>
    <property name="target" value="map44"/>
   </properties>
  </object>
  <object id="711" name="warp" gid="124" x="0" y="250" width="50" height="50">
   <properties>
    <property name="direction" value="left"/>
    <property name="target" value="map44"/>
   </properties>
  </object>
  <object id="712" name="warp" gid="124" x="0" y="300" width="50" height="50">
   <properties>
    <property name="direction" value="left"/>
    <property name="target" value="map44"/>
   </properties>
  </object>
  <object id="713" name="warp" gid="124" x="0" y="350" width="50" height="50">
   <properties>
    <property name="direction" value="left"/>
    <property name="target" value="map44"/>
   </properties>
  </object>
  <object id="714" name="warp" gid="124" x="0" y="400" width="50" height="50">
   <properties>
    <property name="direction" value="left"/>
    <property name="target" value="map44"/>
   </properties>
  </object>
  <object id="715" name="warp" gid="124" x="0" y="450" width="50" height="50">
   <properties>
    <property name="direction" value="left"/>
    <property name="target" value="map44"/>
   </properties>
  </object>
  <object id="716" name="warp" gid="124" x="0" y="500" width="50" height="50">
   <properties>
    <property name="direction" value="left"/>
    <property name="target" value="map44"/>
   </properties>
  </object>
  <object id="717" name="warp" gid="124" x="0" y="50" width="50" height="50">
   <properties>
    <property name="direction" value="left"/>
    <property name="target" value="map44"/>
   </properties>
  </object>
  <object id="718" name="warp" gid="124" x="0" y="100" width="50" height="50">
   <properties>
    <property name="direction" value="left"/>
    <property name="target" value="map44"/>
   </properties>
  </object>
  <object id="719" name="warp" gid="124" x="0" y="100" width="50" height="50">
   <properties>
    <property name="direction" value="left"/>
    <property name="target" value="map44"/>
   </properties>
  </object>
  <object id="720" name="warp" gid="124" x="0" y="150" width="50" height="50">
   <properties>
    <property name="direction" value="left"/>
    <property name="target" value="map44"/>
   </properties>
  </object>
 </objectgroup>
 <objectgroup id="15" name="music">
  <properties>
   <property name="songName" value="castle_morning"/>
  </properties>
 </objectgroup>
</map>
