<?xml version="1.0" encoding="UTF-8"?>
<map version="1.10" tiledversion="1.12.1" orientation="orthogonal" renderorder="right-down" width="28" height="18" tilewidth="50" tileheight="50" infinite="0" nextlayerid="32" nextobjectid="1877">
 <properties>
  <property name="songName" value="rain"/>
 </properties>
 <tileset firstgid="1" source="ch1-tiles.tsx"/>
 <tileset firstgid="81" source="../../textures/trampoline.tsx"/>
 <tileset firstgid="84" source="../../textures/save.tsx"/>
 <tileset firstgid="85" source="../../textures/spike.tsx"/>
 <tileset firstgid="93" source="../../textures/laser.tsx"/>
 <tileset firstgid="111" source="../../textures/light.tsx"/>
 <tileset firstgid="113" source="../../textures/trampoline-mini.tsx"/>
 <tileset firstgid="122" source="../../textures/transition-tiles.tsx"/>
 <tileset firstgid="127" source="../../textures/small-spike.tsx"/>
 <tileset firstgid="131" source="../../textures/coins.tsx"/>
 <layer id="1" name="tiles-main" width="28" height="18">
  <data encoding="csv">
0,0,0,0,0,0,0,0,0,0,4,0,0,4,0,0,0,0,0,0,0,0,0,0,0,33,0,0,
0,0,0,0,0,0,0,0,0,0,4,0,0,4,0,0,0,0,0,0,0,0,0,0,0,33,0,0,
0,0,0,0,0,0,0,0,0,0,4,0,0,4,0,0,0,0,35,0,0,0,0,0,0,33,0,0,
0,0,0,0,0,0,35,0,0,0,4,0,0,4,0,0,0,0,0,0,0,0,0,0,0,33,0,0,
0,0,0,0,0,0,0,0,0,0,4,0,0,4,0,0,0,0,0,0,0,0,0,0,0,33,0,0,
0,0,0,0,0,0,0,0,0,0,7,0,0,7,5,5,5,5,5,5,5,5,5,5,5,5,5,5,
0,0,0,0,0,0,0,0,0,0,4,0,0,0,0,0,0,0,0,0,0,0,0,0,0,0,0,0,
0,0,0,0,0,0,0,0,0,0,4,0,0,0,0,0,0,0,0,0,0,0,0,0,0,0,0,0,
0,0,0,0,0,0,0,0,0,0,7,6,6,7,6,6,6,6,6,6,6,6,6,6,6,6,6,6,
0,0,0,0,0,0,0,0,0,0,0,0,0,0,0,0,0,0,0,0,0,0,0,0,0,33,0,0,
0,0,0,0,0,0,0,0,0,0,0,0,0,0,0,0,0,0,0,0,0,0,0,0,0,33,0,0,
0,0,0,0,0,0,0,0,0,0,0,0,0,0,0,35,0,0,0,0,0,0,0,0,0,33,0,0,
0,0,0,0,0,0,0,0,0,0,0,0,0,0,0,0,0,0,0,0,0,0,0,0,0,33,0,0,
0,0,0,0,0,0,0,0,0,0,0,0,0,0,0,0,0,0,0,0,0,0,0,0,0,33,0,0,
0,0,0,0,0,0,0,0,0,0,0,0,0,0,0,0,0,0,0,0,35,0,0,0,0,33,0,0,
0,0,0,0,0,0,0,0,0,0,0,0,0,0,0,0,0,0,0,0,0,0,0,0,0,33,0,0,
0,0,0,0,0,0,0,0,0,0,0,0,0,0,0,0,0,0,0,0,0,0,0,0,0,33,0,0,
0,0,0,0,0,0,0,0,0,0,0,0,0,0,0,0,0,0,0,0,0,0,0,0,0,33,0,0
</data>
 </layer>
 <layer id="5" name="tiles-deco" width="28" height="18">
  <data encoding="csv">
0,0,0,0,0,0,45,0,0,0,0,26,26,0,0,0,0,0,45,0,0,0,0,0,0,0,41,41,
0,0,0,0,0,0,45,0,0,0,0,26,26,0,0,0,0,0,45,0,0,0,0,0,0,0,41,41,
0,0,0,0,0,0,45,0,0,0,0,26,26,0,32,32,32,32,0,0,0,0,0,0,0,0,37,41,
0,0,0,0,0,0,0,32,32,32,0,26,26,0,0,0,0,0,0,0,0,0,0,0,0,0,37,41,
0,0,0,0,0,0,0,0,0,0,0,26,26,0,0,0,0,0,0,0,0,0,0,0,0,0,41,41,
0,0,0,0,0,0,0,0,0,0,0,26,26,0,0,0,0,0,0,0,0,0,0,0,0,0,0,0,
0,0,0,0,0,0,0,0,0,0,0,26,26,25,25,25,25,25,25,25,25,25,25,25,25,25,25,25,
0,0,0,0,0,0,0,0,0,0,0,26,26,25,25,25,25,25,25,25,25,25,25,25,25,25,25,25,
0,0,0,0,0,0,0,0,0,0,0,0,0,0,0,0,0,0,0,0,0,0,0,0,0,0,0,0,
0,0,0,0,0,0,0,0,0,0,0,0,0,0,0,45,0,0,0,0,45,0,0,0,0,0,37,41,
0,0,0,0,0,0,0,0,0,0,0,0,0,0,0,45,0,0,0,0,45,0,0,0,0,0,41,41,
0,0,0,0,0,0,0,0,0,0,0,0,0,0,0,0,0,0,0,0,45,0,0,0,0,0,41,41,
0,0,0,0,0,0,0,0,0,0,0,0,0,0,0,0,0,0,0,0,45,0,0,0,0,0,41,41,
0,0,0,0,0,0,0,0,0,0,0,0,0,0,0,0,0,0,0,0,45,0,0,0,0,0,41,41,
0,0,0,0,0,0,0,0,0,0,0,0,0,0,0,0,0,0,0,0,0,0,0,0,0,0,41,41,
0,0,0,0,0,0,0,0,0,0,0,0,0,0,0,0,0,0,0,0,0,0,0,0,0,0,41,41,
0,0,0,0,0,0,0,0,0,0,0,0,0,0,0,0,0,0,0,0,0,0,0,0,0,0,41,41,
0,0,0,0,0,0,0,0,0,0,0,0,0,0,0,0,0,0,0,0,0,0,0,0,0,0,41,41
</data>
 </layer>
 <layer id="18" name="tiles-deco2" width="28" height="18">
  <data encoding="csv">
0,0,0,0,0,0,0,0,0,0,0,0,0,0,0,0,0,0,0,0,0,0,0,0,0,0,0,0,
0,0,0,0,0,0,0,0,0,0,0,0,0,0,0,0,0,0,0,0,0,0,0,0,0,0,0,0,
0,0,0,0,0,0,0,0,0,0,0,0,0,0,0,0,0,0,0,0,0,0,0,0,0,0,0,0,
0,0,0,0,0,0,0,0,0,0,0,0,0,0,0,0,0,0,0,0,0,0,0,0,0,0,0,0,
0,0,0,0,0,0,0,0,0,0,0,0,0,0,0,0,0,0,0,0,0,0,0,0,0,0,0,0,
0,0,0,0,0,0,0,0,0,0,0,0,0,0,0,0,0,0,0,0,0,0,0,0,0,0,0,0,
0,0,0,0,0,0,0,0,0,0,0,0,0,0,0,0,0,0,0,0,0,0,0,0,0,0,0,0,
0,0,0,0,0,0,0,0,0,0,0,0,0,0,0,0,0,0,0,0,0,0,0,0,0,0,0,0,
0,0,0,0,0,0,0,0,0,0,0,0,0,0,0,0,0,0,0,0,0,0,0,0,0,0,0,0,
0,0,0,0,0,0,0,0,0,0,0,0,0,0,0,0,0,0,0,0,0,0,0,0,0,0,0,0,
0,0,0,0,0,0,0,0,0,0,0,0,0,0,0,0,0,0,0,0,0,0,0,0,0,0,0,0,
0,0,0,0,0,0,0,0,0,0,0,0,0,0,0,0,0,0,0,0,0,0,0,0,0,0,0,0,
0,0,0,0,0,0,0,0,0,0,0,0,0,0,0,0,0,0,0,0,0,0,0,0,0,0,0,0,
0,0,0,0,0,0,0,0,0,0,0,0,0,0,0,0,0,0,0,0,0,0,0,0,0,0,0,0,
0,0,0,0,0,0,0,0,0,0,0,0,0,0,0,0,0,0,0,0,0,0,0,0,0,0,0,0,
0,0,0,0,0,0,0,0,0,0,0,0,0,0,0,0,0,0,0,0,0,0,0,0,0,0,0,0,
0,0,0,0,0,0,0,0,0,0,0,0,0,0,0,0,0,0,0,0,0,0,0,0,0,0,0,0,
0,0,0,0,0,0,0,0,0,0,0,0,0,0,0,0,0,0,0,0,0,0,0,0,0,0,0,0
</data>
 </layer>
 <objectgroup id="16" name="falling">
  <properties>
   <property name="direction" value="down"/>
  </properties>
 </objectgroup>
 <objectgroup id="13" name="platform"/>
 <objectgroup id="7" name="trampoline"/>
 <objectgroup id="26" name="camera"/>
 <objectgroup id="28" name="solid_block"/>
 <objectgroup id="25" name="slab"/>
 <objectgroup id="19" name="trampoline-mini"/>
 <objectgroup id="30" name="small-spike"/>
 <objectgroup id="9" name="spike-normal"/>
 <objectgroup id="29" name="redCoin"/>
 <objectgroup id="27" name="switch-spike"/>
 <objectgroup id="8" name="save"/>
 <objectgroup id="10" name="laser"/>
 <objectgroup id="11" name="bg">
  <properties>
   <property name="bgName" value="castleBG3"/>
   <property name="bgShader" value="toxic"/>
  </properties>
 </objectgroup>
 <objectgroup id="31" name="shaders">
  <properties>
   <property name="shaderName" value="radioactive"/>
  </properties>
 </objectgroup>
 <objectgroup id="12" name="foregroundEffect">
  <properties>
   <property name="foregroundEffectType" value="toxic"/>
  </properties>
 </objectgroup>
 <objectgroup id="22" name="mapEffect">
  <properties>
   <property name="effectType" value="poison-fog"/>
  </properties>
 </objectgroup>
 <objectgroup id="15" name="music">
  <properties>
   <property name="songName" value="castle_underground"/>
  </properties>
 </objectgroup>
 <objectgroup id="20" name="warps">
  <object id="1828" name="warp" gid="125" x="0" y="450" width="50" height="50">
   <properties>
    <property name="direction" value="left"/>
    <property name="target" value="map36a"/>
   </properties>
  </object>
  <object id="1829" name="warp" gid="125" x="0" y="400" width="50" height="50">
   <properties>
    <property name="direction" value="left"/>
    <property name="target" value="map36a"/>
   </properties>
  </object>
  <object id="1830" name="warp" gid="125" x="0" y="350" width="50" height="50">
   <properties>
    <property name="direction" value="left"/>
    <property name="target" value="map36a"/>
   </properties>
  </object>
  <object id="1832" name="warp" gid="125" x="0" y="300" width="50" height="50">
   <properties>
    <property name="direction" value="left"/>
    <property name="target" value="map36a"/>
   </properties>
  </object>
  <object id="1833" name="warp" gid="125" x="0" y="250" width="50" height="50">
   <properties>
    <property name="direction" value="left"/>
    <property name="target" value="map36a"/>
   </properties>
  </object>
  <object id="1834" name="warp" gid="125" x="0" y="200" width="50" height="50">
   <properties>
    <property name="direction" value="left"/>
    <property name="target" value="map36a"/>
   </properties>
  </object>
  <object id="1835" name="warp" gid="125" x="0" y="150" width="50" height="50">
   <properties>
    <property name="direction" value="left"/>
    <property name="target" value="map36a"/>
   </properties>
  </object>
  <object id="1836" name="warp" gid="125" x="0" y="100" width="50" height="50">
   <properties>
    <property name="direction" value="left"/>
    <property name="target" value="map36a"/>
   </properties>
  </object>
  <object id="1837" name="warp" gid="125" x="0" y="50" width="50" height="50">
   <properties>
    <property name="direction" value="left"/>
    <property name="target" value="map36a"/>
   </properties>
  </object>
  <object id="1841" name="warp" gid="125" x="0" y="900" width="50" height="50">
   <properties>
    <property name="direction" value="left"/>
    <property name="target" value="map36a"/>
   </properties>
  </object>
  <object id="1842" name="warp" gid="125" x="0" y="850" width="50" height="50">
   <properties>
    <property name="direction" value="left"/>
    <property name="target" value="map36a"/>
   </properties>
  </object>
  <object id="1843" name="warp" gid="125" x="0" y="800" width="50" height="50">
   <properties>
    <property name="direction" value="left"/>
    <property name="target" value="map36a"/>
   </properties>
  </object>
  <object id="1844" name="warp" gid="125" x="0" y="750" width="50" height="50">
   <properties>
    <property name="direction" value="left"/>
    <property name="target" value="map36a"/>
   </properties>
  </object>
  <object id="1845" name="warp" gid="125" x="0" y="700" width="50" height="50">
   <properties>
    <property name="direction" value="left"/>
    <property name="target" value="map36a"/>
   </properties>
  </object>
  <object id="1846" name="warp" gid="125" x="0" y="650" width="50" height="50">
   <properties>
    <property name="direction" value="left"/>
    <property name="target" value="map36a"/>
   </properties>
  </object>
  <object id="1847" name="warp" gid="125" x="0" y="600" width="50" height="50">
   <properties>
    <property name="direction" value="left"/>
    <property name="target" value="map36a"/>
   </properties>
  </object>
  <object id="1848" name="warp" gid="125" x="0" y="550" width="50" height="50">
   <properties>
    <property name="direction" value="left"/>
    <property name="target" value="map36a"/>
   </properties>
  </object>
  <object id="1849" name="warp" gid="125" x="0" y="500" width="50" height="50">
   <properties>
    <property name="direction" value="left"/>
    <property name="target" value="map36a"/>
   </properties>
  </object>
  <object id="1850" name="warp" gid="124" x="50" y="900" width="50" height="50">
   <properties>
    <property name="direction" value="down"/>
    <property name="target" value="map37"/>
   </properties>
  </object>
  <object id="1851" name="warp" gid="124" x="100" y="900" width="50" height="50">
   <properties>
    <property name="direction" value="down"/>
    <property name="target" value="map37"/>
   </properties>
  </object>
  <object id="1852" name="warp" gid="124" x="150" y="900" width="50" height="50">
   <properties>
    <property name="direction" value="down"/>
    <property name="target" value="map37"/>
   </properties>
  </object>
  <object id="1853" name="warp" gid="124" x="200" y="900" width="50" height="50">
   <properties>
    <property name="direction" value="down"/>
    <property name="target" value="map37"/>
   </properties>
  </object>
  <object id="1854" name="warp" gid="124" x="250" y="900" width="50" height="50">
   <properties>
    <property name="direction" value="down"/>
    <property name="target" value="map37"/>
   </properties>
  </object>
  <object id="1855" name="warp" gid="124" x="300" y="900" width="50" height="50">
   <properties>
    <property name="direction" value="down"/>
    <property name="target" value="map37"/>
   </properties>
  </object>
  <object id="1856" name="warp" gid="124" x="350" y="900" width="50" height="50">
   <properties>
    <property name="direction" value="down"/>
    <property name="target" value="map37"/>
   </properties>
  </object>
  <object id="1857" name="warp" gid="124" x="400" y="900" width="50" height="50">
   <properties>
    <property name="direction" value="down"/>
    <property name="target" value="map37"/>
   </properties>
  </object>
  <object id="1858" name="warp" gid="124" x="450" y="900" width="50" height="50">
   <properties>
    <property name="direction" value="down"/>
    <property name="target" value="map37"/>
   </properties>
  </object>
  <object id="1859" name="warp" gid="124" x="500" y="900" width="50" height="50">
   <properties>
    <property name="direction" value="down"/>
    <property name="target" value="map37"/>
   </properties>
  </object>
  <object id="1860" name="warp" gid="124" x="550" y="900" width="50" height="50">
   <properties>
    <property name="direction" value="down"/>
    <property name="target" value="map37"/>
   </properties>
  </object>
  <object id="1861" name="warp" gid="124" x="600" y="900" width="50" height="50">
   <properties>
    <property name="direction" value="down"/>
    <property name="target" value="map37"/>
   </properties>
  </object>
  <object id="1862" name="warp" gid="124" x="650" y="900" width="50" height="50">
   <properties>
    <property name="direction" value="down"/>
    <property name="target" value="map37"/>
   </properties>
  </object>
  <object id="1863" name="warp" gid="124" x="700" y="900" width="50" height="50">
   <properties>
    <property name="direction" value="down"/>
    <property name="target" value="map37"/>
   </properties>
  </object>
  <object id="1864" name="warp" gid="124" x="750" y="900" width="50" height="50">
   <properties>
    <property name="direction" value="down"/>
    <property name="target" value="map37"/>
   </properties>
  </object>
  <object id="1865" name="warp" gid="124" x="800" y="900" width="50" height="50">
   <properties>
    <property name="direction" value="down"/>
    <property name="target" value="map37"/>
   </properties>
  </object>
  <object id="1866" name="warp" gid="124" x="850" y="900" width="50" height="50">
   <properties>
    <property name="direction" value="down"/>
    <property name="target" value="map37"/>
   </properties>
  </object>
  <object id="1867" name="warp" gid="124" x="900" y="900" width="50" height="50">
   <properties>
    <property name="direction" value="down"/>
    <property name="target" value="map37"/>
   </properties>
  </object>
  <object id="1868" name="warp" gid="124" x="950" y="900" width="50" height="50">
   <properties>
    <property name="direction" value="down"/>
    <property name="target" value="map37"/>
   </properties>
  </object>
  <object id="1869" name="warp" gid="124" x="1000" y="900" width="50" height="50">
   <properties>
    <property name="direction" value="down"/>
    <property name="target" value="map37"/>
   </properties>
  </object>
  <object id="1870" name="warp" gid="124" x="1050" y="900" width="50" height="50">
   <properties>
    <property name="direction" value="down"/>
    <property name="target" value="map37"/>
   </properties>
  </object>
  <object id="1871" name="warp" gid="124" x="1100" y="900" width="50" height="50">
   <properties>
    <property name="direction" value="down"/>
    <property name="target" value="map37"/>
   </properties>
  </object>
  <object id="1872" name="warp" gid="124" x="1150" y="900" width="50" height="50">
   <properties>
    <property name="direction" value="down"/>
    <property name="target" value="map37"/>
   </properties>
  </object>
  <object id="1873" name="warp" gid="124" x="1200" y="900" width="50" height="50">
   <properties>
    <property name="direction" value="down"/>
    <property name="target" value="map37"/>
   </properties>
  </object>
 </objectgroup>
</map>
