<?xml version="1.0" encoding="UTF-8"?>
<map version="1.10" tiledversion="1.12.1" orientation="orthogonal" renderorder="right-down" width="28" height="18" tilewidth="50" tileheight="50" infinite="0" nextlayerid="22" nextobjectid="1047">
 <properties>
  <property name="songName" value="castle1"/>
 </properties>
 <tileset firstgid="1" source="ch1-tiles.tsx"/>
 <tileset firstgid="81" source="../../textures/trampoline.tsx"/>
 <tileset firstgid="84" source="../../textures/save.tsx"/>
 <tileset firstgid="85" source="../../textures/spike.tsx"/>
 <tileset firstgid="93" source="../../textures/laser.tsx"/>
 <tileset firstgid="111" source="../../textures/light.tsx"/>
 <tileset firstgid="113" source="../../textures/transition-tiles.tsx"/>
 <layer id="1" name="tiles-main" width="28" height="18">
  <data encoding="csv">
0,0,0,0,0,0,0,0,0,0,0,0,0,0,0,0,0,0,0,0,0,0,0,0,0,0,0,0,
0,0,0,0,0,0,0,0,0,0,0,0,0,0,0,0,0,0,0,0,0,0,0,0,0,0,0,0,
1,1,1,1,1,1,1,1,1,1,1,0,0,0,0,0,0,0,0,0,0,0,0,0,1,1,1,1,
0,0,0,0,0,0,0,0,0,0,1,0,0,0,0,0,0,0,0,0,0,0,0,1,1,0,0,0,
0,0,0,0,0,0,0,0,0,0,1,1,0,0,0,0,0,0,0,0,0,0,1,1,0,0,0,0,
0,0,0,0,0,0,0,0,0,0,0,1,1,1,1,1,1,1,1,1,1,1,1,0,0,0,0,0,
0,0,0,0,0,0,0,0,0,0,0,0,0,0,0,0,0,0,0,0,0,0,0,0,0,0,0,0,
1,1,1,1,1,1,1,0,0,0,0,0,0,0,0,0,0,0,0,0,0,0,0,0,0,0,0,0,
0,0,0,0,0,0,1,0,0,0,0,0,0,0,0,0,0,0,0,0,0,0,0,0,0,0,0,0,
0,0,0,0,0,0,1,0,0,0,0,0,0,0,0,0,0,0,0,0,0,0,0,0,0,0,0,0,
1,1,1,0,0,0,1,1,0,0,0,0,0,0,1,1,1,1,1,0,1,0,0,0,0,0,0,0,
0,0,1,1,0,0,0,1,0,0,0,0,0,0,1,0,0,0,9,0,1,0,0,0,0,0,0,0,
0,0,0,1,0,0,0,1,1,1,1,1,1,0,1,0,0,0,9,0,1,1,1,1,1,0,1,1,
0,0,0,1,0,0,0,0,0,0,0,0,9,0,9,0,0,0,9,0,9,0,0,0,9,0,9,0,
0,0,0,1,1,0,0,0,0,0,0,0,9,0,9,0,0,0,9,0,9,0,0,0,9,0,9,0,
0,0,0,0,1,1,1,1,0,0,0,0,9,0,9,0,0,0,9,0,9,0,0,0,9,0,9,0,
0,0,0,0,0,0,0,1,1,1,0,0,9,0,9,0,0,0,9,0,9,0,0,0,9,0,9,0,
0,0,0,0,0,0,0,0,0,1,0,0,9,0,9,0,0,0,9,0,9,0,0,0,9,0,9,0
</data>
 </layer>
 <layer id="5" name="tiles-deco" width="28" height="18">
  <data encoding="csv">
9,9,9,9,9,9,9,9,9,9,9,9,9,9,9,9,9,9,9,9,9,9,9,9,9,9,9,9,
9,9,9,9,9,9,9,9,9,9,9,9,9,9,9,9,9,9,9,9,9,9,9,9,9,9,9,9,
0,0,0,0,0,0,0,0,0,0,0,9,9,9,9,9,9,9,9,9,9,9,9,9,0,0,0,0,
0,0,0,0,0,0,0,0,0,0,0,9,9,9,9,9,9,9,9,9,9,9,9,0,0,0,0,0,
0,0,0,0,0,0,0,0,0,0,0,0,9,9,9,9,9,9,9,9,9,9,0,0,0,0,0,0,
0,0,0,0,0,0,0,0,0,0,0,0,0,0,0,0,0,0,0,0,0,0,1,0,0,0,0,0,
0,0,0,0,0,0,0,0,0,0,0,0,0,0,0,0,0,0,0,0,0,0,0,0,0,0,0,0,
0,0,0,0,0,0,0,0,0,0,0,0,0,0,0,0,0,0,0,0,0,0,0,0,0,0,0,0,
9,9,9,9,9,9,0,0,0,0,0,0,0,0,0,0,0,0,0,0,0,0,0,0,0,0,0,0,
9,9,9,9,9,9,0,0,0,0,0,0,0,0,0,0,0,0,0,0,0,0,0,0,0,0,0,0,
0,0,0,9,9,9,0,0,0,0,0,0,0,0,0,0,0,0,0,9,0,0,0,0,0,0,0,0,
0,0,0,0,9,9,9,0,0,0,0,0,0,0,0,9,9,9,0,9,0,0,0,0,0,0,0,0,
0,0,0,0,9,9,9,0,0,0,0,0,0,9,0,9,9,9,0,9,0,0,0,0,0,9,0,0,
0,0,0,0,9,9,9,9,9,9,9,9,0,9,0,9,9,9,0,9,0,9,9,9,0,9,0,9,
0,0,0,0,0,9,9,9,9,9,9,9,0,9,0,9,9,9,0,9,0,9,9,9,0,9,0,9,
0,0,0,0,0,0,0,0,9,9,9,9,0,9,0,9,9,9,0,9,0,9,9,9,0,9,0,9,
0,0,0,0,0,0,0,0,0,0,9,9,0,9,0,9,9,9,0,9,0,9,9,9,0,9,0,9,
0,0,0,0,0,0,0,0,0,0,9,9,0,9,0,9,9,9,0,9,0,9,9,9,0,9,0,9
</data>
 </layer>
 <layer id="18" name="tiles-deco2" width="28" height="18">
  <data encoding="csv">
0,0,0,0,0,0,0,0,0,0,0,0,0,0,0,0,0,0,0,0,0,0,0,0,0,0,0,0,
0,0,0,0,31,0,0,0,0,0,0,0,0,0,0,0,0,0,0,0,0,0,0,0,0,0,0,0,
0,0,0,0,0,0,0,0,0,0,0,0,0,0,0,0,0,0,0,0,0,0,31,0,0,0,0,0,
0,0,0,0,0,0,0,0,0,0,0,0,31,0,0,0,0,0,0,0,0,0,0,0,0,0,0,0,
0,0,0,0,0,0,0,0,0,0,0,0,0,0,0,0,0,0,0,0,0,0,0,0,0,0,0,0,
0,0,0,0,0,0,0,0,0,0,0,0,0,0,0,0,0,0,0,0,0,0,0,0,0,0,0,0,
0,0,0,0,0,0,0,0,0,0,0,0,0,0,0,0,0,0,0,0,0,0,0,0,0,0,0,0,
0,0,0,0,0,0,0,0,0,0,0,0,0,0,0,0,0,0,0,0,0,0,0,0,0,0,0,0,
0,0,0,0,0,0,0,0,0,0,0,0,0,0,0,0,0,0,0,0,0,0,0,0,0,0,0,0,
0,0,0,0,31,0,0,0,0,0,0,0,0,0,0,0,0,0,0,0,0,0,0,0,0,0,0,0,
0,0,0,0,0,0,0,0,0,0,0,0,0,0,0,0,0,0,0,0,0,0,0,0,0,0,0,0,
0,0,0,0,0,0,0,0,0,0,0,0,0,0,0,0,0,0,0,0,0,0,0,0,0,0,0,0,
0,0,0,0,0,31,0,0,0,0,0,0,0,0,0,0,0,31,0,0,0,0,0,0,0,0,0,0,
0,0,0,0,0,0,0,0,0,0,0,0,0,0,0,0,0,0,0,0,0,0,0,0,0,0,0,0,
0,0,0,0,0,0,0,0,0,0,0,31,0,0,0,0,0,0,0,0,0,0,0,31,0,0,0,0,
0,0,0,0,0,0,0,0,0,0,0,0,0,0,0,0,0,0,0,0,0,0,0,0,0,0,0,0,
0,0,0,0,0,0,0,0,0,0,0,0,0,0,0,0,0,0,0,0,0,0,0,0,0,0,0,0,
0,0,0,0,0,0,0,0,0,0,0,0,0,0,0,0,0,0,0,0,0,0,0,0,0,0,0,0
</data>
 </layer>
 <objectgroup id="16" name="falling">
  <properties>
   <property name="direction" value="down"/>
  </properties>
  <object id="1040" name="falling" gid="16" x="650" y="650" width="50" height="50">
   <properties>
    <property name="direction" value="down"/>
   </properties>
  </object>
  <object id="1041" name="falling" gid="16" x="950" y="550" width="50" height="50">
   <properties>
    <property name="direction" value="down"/>
   </properties>
  </object>
  <object id="1043" name="falling" gid="16" x="1250" y="650" width="50" height="50">
   <properties>
    <property name="direction" value="down"/>
   </properties>
  </object>
 </objectgroup>
 <objectgroup id="13" name="platform"/>
 <objectgroup id="14" name="light" visible="0">
  <object id="1027" name="light" gid="111" x="125.333" y="174.667" width="200" height="200"/>
  <object id="1028" name="light" gid="111" x="524" y="274.667" width="200" height="200"/>
  <object id="1029" name="light" gid="111" x="1025.33" y="226.667" width="200" height="200"/>
  <object id="1030" name="light" gid="111" x="777.333" y="722.667" width="200" height="200"/>
  <object id="1031" name="light" gid="111" x="1073.33" y="824" width="200" height="200"/>
  <object id="1033" name="light" gid="111" x="476" y="824" width="200" height="200"/>
  <object id="1034" name="light" gid="111" x="124" y="573.333" width="200" height="200"/>
  <object id="1035" name="light" gid="111" x="177.333" y="718.667" width="200" height="200"/>
 </objectgroup>
 <objectgroup id="7" name="trampoline">
  <object id="966" name="trampoline" gid="81" x="200" y="350" width="50" height="50"/>
  <object id="967" name="trampoline" gid="81" x="250" y="350" width="50" height="50"/>
  <object id="969" name="trampoline" gid="81" x="350" y="500" width="50" height="50"/>
  <object id="971" name="trampoline" gid="81" x="450" y="600" width="50" height="50"/>
  <object id="972" name="trampoline" gid="81" x="500" y="600" width="50" height="50"/>
  <object id="975" name="trampoline" gid="81" x="750" y="500" width="50" height="50"/>
  <object id="976" name="trampoline" gid="81" x="850" y="500" width="50" height="50"/>
  <object id="977" name="trampoline" gid="81" x="900" y="500" width="50" height="50"/>
  <object id="978" name="trampoline" gid="81" x="1000" y="500" width="50" height="50"/>
  <object id="979" name="trampoline" gid="81" x="1050" y="600" width="50" height="50"/>
  <object id="980" name="trampoline" gid="81" x="1100" y="600" width="50" height="50"/>
  <object id="981" name="trampoline" gid="81" x="1150" y="600" width="50" height="50"/>
  <object id="982" name="trampoline" gid="81" x="1200" y="600" width="50" height="50"/>
  <object id="983" name="trampoline" gid="81" x="550" y="600" width="50" height="50"/>
  <object id="984" name="trampoline" gid="81" x="600" y="600" width="50" height="50"/>
  <object id="1046" name="trampoline" gid="81" x="150" y="350" width="50" height="50"/>
 </objectgroup>
 <objectgroup id="9" name="spike-normal">
  <object id="985" name="spike" gid="87" x="0" y="200" width="50" height="50">
   <properties>
    <property name="id" value="2"/>
   </properties>
  </object>
  <object id="986" name="spike" gid="91" x="50" y="200" width="50" height="50">
   <properties>
    <property name="id" value="6"/>
   </properties>
  </object>
  <object id="987" name="spike" gid="91" x="100" y="200" width="50" height="50">
   <properties>
    <property name="id" value="6"/>
   </properties>
  </object>
  <object id="989" name="spike" gid="87" x="150" y="200" width="50" height="50">
   <properties>
    <property name="id" value="2"/>
   </properties>
  </object>
  <object id="990" name="spike" gid="87" x="300" y="200" width="50" height="50">
   <properties>
    <property name="id" value="2"/>
   </properties>
  </object>
  <object id="992" name="spike" gid="87" x="400" y="200" width="50" height="50">
   <properties>
    <property name="id" value="2"/>
   </properties>
  </object>
  <object id="993" name="spike" gid="87" x="500" y="300" width="50" height="50">
   <properties>
    <property name="id" value="2"/>
   </properties>
  </object>
  <object id="994" name="spike" gid="87" x="550" y="350" width="50" height="50">
   <properties>
    <property name="id" value="2"/>
   </properties>
  </object>
  <object id="995" name="spike" gid="87" x="600" y="350" width="50" height="50">
   <properties>
    <property name="id" value="2"/>
   </properties>
  </object>
  <object id="996" name="spike" gid="87" x="750" y="350" width="50" height="50">
   <properties>
    <property name="id" value="2"/>
   </properties>
  </object>
  <object id="997" name="spike" gid="87" x="900" y="350" width="50" height="50">
   <properties>
    <property name="id" value="2"/>
   </properties>
  </object>
  <object id="998" name="spike" gid="87" x="950" y="350" width="50" height="50">
   <properties>
    <property name="id" value="2"/>
   </properties>
  </object>
  <object id="999" name="spike" gid="87" x="1100" y="350" width="50" height="50">
   <properties>
    <property name="id" value="2"/>
   </properties>
  </object>
  <object id="1000" name="spike" gid="87" x="1150" y="300" width="50" height="50">
   <properties>
    <property name="id" value="2"/>
   </properties>
  </object>
  <object id="1001" name="spike" gid="87" x="1250" y="200" width="50" height="50">
   <properties>
    <property name="id" value="2"/>
   </properties>
  </object>
  <object id="1002" name="spike" gid="91" x="1300" y="200" width="50" height="50">
   <properties>
    <property name="id" value="6"/>
   </properties>
  </object>
  <object id="1003" name="spike" gid="91" x="1350" y="200" width="50" height="50">
   <properties>
    <property name="id" value="6"/>
   </properties>
  </object>
  <object id="1004" name="spike" gid="91" x="1200" y="250" width="50" height="50">
   <properties>
    <property name="id" value="6"/>
   </properties>
  </object>
  <object id="1005" name="spike" gid="91" x="1050" y="350" width="50" height="50">
   <properties>
    <property name="id" value="6"/>
   </properties>
  </object>
  <object id="1006" name="spike" gid="91" x="1000" y="350" width="50" height="50">
   <properties>
    <property name="id" value="6"/>
   </properties>
  </object>
  <object id="1007" name="spike" gid="91" x="800" y="350" width="50" height="50">
   <properties>
    <property name="id" value="6"/>
   </properties>
  </object>
  <object id="1008" name="spike" gid="91" x="850" y="350" width="50" height="50">
   <properties>
    <property name="id" value="6"/>
   </properties>
  </object>
  <object id="1009" name="spike" gid="91" x="700" y="350" width="50" height="50">
   <properties>
    <property name="id" value="6"/>
   </properties>
  </object>
  <object id="1010" name="spike" gid="91" x="650" y="350" width="50" height="50">
   <properties>
    <property name="id" value="6"/>
   </properties>
  </object>
  <object id="1011" name="spike" gid="91" x="450" y="200" width="50" height="50">
   <properties>
    <property name="id" value="6"/>
   </properties>
  </object>
  <object id="1013" name="spike" gid="91" x="200" y="200" width="50" height="50">
   <properties>
    <property name="id" value="6"/>
   </properties>
  </object>
  <object id="1037" name="spike" gid="91" x="250" y="200" width="50" height="50">
   <properties>
    <property name="id" value="6"/>
   </properties>
  </object>
  <object id="1038" name="spike" gid="87" x="350" y="200" width="50" height="50">
   <properties>
    <property name="id" value="2"/>
   </properties>
  </object>
  <object id="1039" name="spike" gid="91" x="650" y="900" width="50" height="50">
   <properties>
    <property name="id" value="6"/>
   </properties>
  </object>
  <object id="1042" name="spike" gid="91" x="950" y="900" width="50" height="50">
   <properties>
    <property name="id" value="6"/>
   </properties>
  </object>
  <object id="1044" name="spike" gid="91" x="1250" y="900" width="50" height="50">
   <properties>
    <property name="id" value="6"/>
   </properties>
  </object>
 </objectgroup>
 <objectgroup id="10" name="laser"/>
 <objectgroup id="11" name="bg">
  <properties>
   <property name="bgName" value="castleBG"/>
  </properties>
 </objectgroup>
 <objectgroup id="12" name="mapEffect">
  <properties>
   <property name="effectType" value="none"/>
  </properties>
 </objectgroup>
 <objectgroup id="21" name="shaders">
  <properties>
   <property name="shaderName" value="castle"/>
  </properties>
 </objectgroup>
 <objectgroup id="15" name="music">
  <properties>
   <property name="songName" value="castle1"/>
  </properties>
 </objectgroup>
 <objectgroup id="19" name="save"/>
 <objectgroup id="20" name="warps">
  <object id="1014" name="warp" gid="116" x="0" y="200" width="50" height="50">
   <properties>
    <property name="direction" value="left"/>
    <property name="target" value="map18"/>
   </properties>
  </object>
  <object id="1015" name="warp" gid="116" x="0" y="250" width="50" height="50">
   <properties>
    <property name="direction" value="left"/>
    <property name="target" value="map18"/>
   </properties>
  </object>
  <object id="1016" name="warp" gid="116" x="0" y="250" width="50" height="50">
   <properties>
    <property name="direction" value="left"/>
    <property name="target" value="map18"/>
   </properties>
  </object>
  <object id="1017" name="warp" gid="116" x="0" y="300" width="50" height="50">
   <properties>
    <property name="direction" value="left"/>
    <property name="target" value="map18"/>
   </properties>
  </object>
  <object id="1018" name="warp" gid="114" x="1350" y="600" width="50" height="50">
   <properties>
    <property name="direction" value="right"/>
    <property name="target" value="map20"/>
   </properties>
  </object>
  <object id="1019" name="warp" gid="114" x="1350" y="550" width="50" height="50">
   <properties>
    <property name="direction" value="right"/>
    <property name="target" value="map20"/>
   </properties>
  </object>
  <object id="1020" name="warp" gid="114" x="1350" y="500" width="50" height="50">
   <properties>
    <property name="direction" value="right"/>
    <property name="target" value="map20"/>
   </properties>
  </object>
  <object id="1021" name="warp" gid="114" x="1350" y="450" width="50" height="50">
   <properties>
    <property name="direction" value="right"/>
    <property name="target" value="map20"/>
   </properties>
  </object>
  <object id="1022" name="warp" gid="114" x="1350" y="400" width="50" height="50">
   <properties>
    <property name="direction" value="right"/>
    <property name="target" value="map20"/>
   </properties>
  </object>
  <object id="1023" name="warp" gid="114" x="1350" y="350" width="50" height="50">
   <properties>
    <property name="direction" value="right"/>
    <property name="target" value="map20"/>
   </properties>
  </object>
  <object id="1024" name="warp" gid="114" x="1350" y="300" width="50" height="50">
   <properties>
    <property name="direction" value="right"/>
    <property name="target" value="map20"/>
   </properties>
  </object>
  <object id="1025" name="warp" gid="114" x="1350" y="250" width="50" height="50">
   <properties>
    <property name="direction" value="right"/>
    <property name="target" value="map20"/>
   </properties>
  </object>
  <object id="1026" name="warp" gid="114" x="1350" y="200" width="50" height="50">
   <properties>
    <property name="direction" value="right"/>
    <property name="target" value="map20"/>
   </properties>
  </object>
  <object id="1045" name="warp" gid="116" x="0" y="350" width="50" height="50">
   <properties>
    <property name="direction" value="left"/>
    <property name="target" value="map18"/>
   </properties>
  </object>
 </objectgroup>
</map>
