<?xml version="1.0" encoding="UTF-8"?>
<map version="1.10" tiledversion="1.12.1" orientation="orthogonal" renderorder="right-down" width="28" height="18" tilewidth="50" tileheight="50" infinite="0" nextlayerid="32" nextobjectid="1862">
 <properties>
  <property name="songName" value="rain"/>
 </properties>
 <tileset firstgid="1" source="ch1-tiles.tsx"/>
 <tileset firstgid="81" source="../../textures/trampoline.tsx"/>
 <tileset firstgid="84" source="../../textures/save.tsx"/>
 <tileset firstgid="85" source="../../textures/spike.tsx"/>
 <tileset firstgid="93" source="../../textures/laser.tsx"/>
 <tileset firstgid="111" source="../../textures/light.tsx"/>
 <tileset firstgid="113" source="../../textures/trampoline-mini.tsx"/>
 <tileset firstgid="122" source="../../textures/transition-tiles.tsx"/>
 <tileset firstgid="127" source="../../textures/small-spike.tsx"/>
 <tileset firstgid="131" source="../../textures/coins.tsx"/>
 <layer id="1" name="tiles-main" width="28" height="18">
  <data encoding="csv">
0,0,0,0,0,0,0,0,0,0,0,0,0,0,0,0,0,0,0,0,0,0,0,0,0,33,0,0,
0,0,0,0,0,0,0,0,0,0,0,0,0,0,0,0,0,0,0,0,0,0,0,0,0,33,0,0,
0,0,0,0,0,0,0,0,0,0,0,0,0,0,0,0,0,0,0,0,0,0,0,0,0,35,36,36,
0,0,0,0,0,0,35,0,0,0,35,0,0,0,0,0,35,36,36,36,36,36,35,0,0,0,0,0,
0,0,0,0,0,0,0,0,0,0,33,0,0,0,0,0,33,0,0,0,0,0,33,0,0,0,0,0,
0,0,0,0,35,0,0,0,0,0,33,36,36,36,36,36,33,0,0,0,0,0,33,0,0,0,0,0,
0,0,0,0,0,0,0,0,0,0,33,0,0,0,0,0,35,36,36,36,36,36,35,0,0,35,36,36,
0,0,0,0,0,0,0,0,0,0,33,0,0,0,0,0,33,0,0,0,0,0,0,0,0,33,0,0,
0,0,0,0,0,0,0,0,0,0,35,36,36,36,36,36,35,0,0,0,0,0,0,0,0,33,0,0,
36,36,36,36,36,35,0,0,0,0,0,0,0,0,0,0,0,0,0,35,36,35,0,0,0,33,0,0,
0,0,0,0,0,33,0,0,0,0,0,0,0,0,0,0,0,0,0,33,0,33,0,0,0,33,0,0,
0,0,0,0,0,33,0,0,0,0,0,0,0,0,0,0,0,0,0,33,0,35,36,36,36,33,0,0,
0,0,0,0,0,33,0,0,0,0,0,0,0,0,0,0,0,0,0,33,0,0,0,0,0,33,0,0,
0,0,0,0,0,33,0,0,0,0,35,36,36,0,36,36,36,36,36,35,0,0,0,0,0,33,0,0,
0,0,0,0,0,33,0,0,0,0,33,0,41,0,41,0,0,0,0,0,0,0,0,0,0,33,0,0,
0,0,0,0,0,33,0,0,0,0,33,0,37,0,41,0,0,0,0,0,0,0,0,0,0,33,0,0,
0,0,0,0,0,33,0,0,0,0,33,0,41,0,37,0,0,0,0,0,0,0,0,0,0,33,0,0,
0,0,0,0,0,33,0,0,0,0,33,0,41,0,41,0,0,0,0,0,0,0,0,0,0,33,0,0
</data>
 </layer>
 <layer id="5" name="tiles-deco" width="28" height="18">
  <data encoding="csv">
0,0,0,0,0,0,0,0,0,0,45,0,0,0,0,0,0,0,0,0,0,45,0,0,0,0,41,41,
0,0,0,0,0,0,0,0,0,0,45,0,0,0,0,0,0,0,0,0,0,45,0,0,0,0,41,41,
0,0,0,0,0,0,0,0,0,0,45,0,0,0,0,0,0,0,0,0,0,45,0,0,0,0,0,0,
0,0,0,0,0,0,0,32,32,32,0,0,0,0,0,0,0,0,0,0,0,0,0,0,0,0,0,0,
0,0,0,0,0,0,0,0,0,0,0,0,0,0,0,0,0,41,37,41,41,41,0,0,0,0,0,0,
0,0,0,0,0,32,32,32,32,32,0,0,0,0,0,0,0,41,41,37,41,41,0,0,0,0,0,0,
0,0,0,0,0,0,0,0,0,0,0,41,37,41,41,41,0,0,0,0,0,0,0,0,0,0,0,0,
0,0,0,0,0,0,0,0,0,0,0,41,41,37,37,41,0,0,0,0,0,0,0,0,0,0,41,41,
0,0,0,0,0,0,0,0,0,0,0,0,0,0,0,0,0,0,0,0,0,0,0,0,0,0,41,41,
0,0,0,0,0,0,0,0,0,0,0,0,0,0,0,0,0,0,0,0,0,0,0,0,0,0,41,41,
41,37,41,41,41,0,0,0,0,0,0,0,0,0,0,0,0,0,0,0,41,0,0,0,0,0,37,41,
41,41,41,37,41,0,0,0,0,0,0,0,0,0,0,0,0,0,0,0,41,0,0,0,0,0,41,41,
41,41,41,37,41,0,0,0,0,0,0,0,0,0,0,0,0,0,0,0,41,37,41,41,41,0,41,41,
41,41,41,37,41,0,0,0,0,0,0,0,0,55,0,0,0,0,0,0,41,41,37,41,41,0,41,41,
37,41,41,41,41,0,0,0,0,0,0,41,0,41,0,41,37,37,41,41,41,41,37,37,41,0,41,37,
41,41,41,41,41,0,0,0,0,0,0,41,0,41,0,41,41,41,41,41,41,41,41,41,41,0,41,41,
41,37,37,41,41,0,0,0,0,0,0,41,0,41,0,41,41,41,37,41,41,37,41,37,41,0,41,41,
41,41,41,37,41,0,0,0,0,0,0,37,0,41,0,41,41,41,41,41,41,41,41,41,41,0,37,41
</data>
 </layer>
 <layer id="18" name="tiles-deco2" width="28" height="18">
  <data encoding="csv">
0,0,0,0,0,0,0,0,0,0,0,0,0,0,0,0,0,0,0,0,0,0,0,0,0,0,0,0,
0,0,0,0,0,0,0,0,0,0,0,0,0,0,0,0,0,0,0,0,0,0,0,0,0,0,0,0,
0,0,0,0,0,0,0,0,0,0,0,0,0,0,0,0,0,0,0,0,0,0,0,0,0,0,0,0,
0,0,0,0,0,0,0,0,0,0,0,0,0,0,0,0,0,0,0,0,0,0,0,0,0,0,0,0,
0,0,0,0,0,0,0,0,0,0,0,0,0,0,0,0,0,0,0,0,0,0,0,0,0,0,0,0,
0,0,0,0,0,0,0,0,0,0,0,0,0,0,0,0,0,0,0,0,0,0,0,0,0,0,0,0,
0,0,0,0,0,0,0,0,0,0,0,0,0,0,0,0,0,0,0,0,0,0,0,0,0,0,0,0,
0,0,0,0,0,0,0,0,0,0,0,0,0,0,0,0,0,0,0,0,0,0,0,0,0,0,0,0,
0,0,0,0,0,0,0,0,0,0,0,0,0,0,0,0,0,0,0,0,0,0,0,0,0,0,0,0,
0,0,0,0,0,0,0,0,0,0,0,0,0,0,0,0,0,0,0,0,0,0,0,0,0,0,0,0,
0,0,0,0,0,0,0,0,0,0,0,0,0,0,0,0,0,0,0,0,0,0,0,0,0,0,0,0,
0,0,0,0,0,0,0,0,0,0,0,0,0,0,0,0,0,0,0,0,0,0,0,0,0,0,0,0,
0,0,0,0,0,0,0,0,0,0,0,0,0,0,0,0,0,0,0,0,0,0,0,0,0,0,0,0,
0,0,0,0,0,0,0,0,0,0,0,0,0,0,0,0,0,0,0,0,0,0,0,0,0,0,0,0,
0,0,0,0,0,0,0,0,0,0,0,0,0,0,0,0,0,0,0,0,0,0,0,0,0,0,0,0,
0,0,0,0,0,0,0,0,0,0,0,0,0,0,0,0,0,0,0,0,0,0,0,0,0,0,0,0,
0,0,0,0,0,0,0,0,0,0,0,0,0,0,0,0,0,0,0,0,0,0,0,0,0,0,0,0,
0,0,0,0,0,0,0,0,0,0,0,0,0,0,0,0,0,0,0,0,0,0,0,0,0,0,0,0
</data>
 </layer>
 <objectgroup id="16" name="falling">
  <properties>
   <property name="direction" value="down"/>
  </properties>
  <object id="1823" name="falling" gid="36" x="650" y="700" width="50" height="50">
   <properties>
    <property name="direction" value="down"/>
   </properties>
  </object>
 </objectgroup>
 <objectgroup id="13" name="platform"/>
 <objectgroup id="7" name="trampoline">
  <object id="1776" name="trampoline" gid="81" x="900" y="650" width="50" height="50"/>
 </objectgroup>
 <objectgroup id="26" name="camera"/>
 <objectgroup id="28" name="solid_block">
  <object id="1769" name="solid_block" gid="35" x="200" y="300" width="50" height="50"/>
  <object id="1770" name="solid_block" gid="35" x="300" y="200" width="50" height="50"/>
 </objectgroup>
 <objectgroup id="25" name="slab"/>
 <objectgroup id="19" name="trampoline-mini">
  <object id="1771" name="trampoline-mini" gid="113" x="700" y="650" width="50" height="50">
   <properties>
    <property name="direction" value="up"/>
   </properties>
  </object>
  <object id="1772" name="trampoline-mini" gid="113" x="500" y="650" width="50" height="50">
   <properties>
    <property name="direction" value="up"/>
   </properties>
  </object>
  <object id="1773" name="trampoline-mini" gid="113" x="550" y="650" width="50" height="50">
   <properties>
    <property name="direction" value="up"/>
   </properties>
  </object>
  <object id="1774" name="trampoline-mini" gid="113" x="750" y="650" width="50" height="50">
   <properties>
    <property name="direction" value="up"/>
   </properties>
  </object>
  <object id="1828" name="trampoline-mini" gid="113" x="600" y="650" width="50" height="50">
   <properties>
    <property name="direction" value="up"/>
   </properties>
  </object>
  <object id="1829" name="switch-spike" gid="85" x="300" y="150" width="50" height="50">
   <properties>
    <property name="id" value="0"/>
    <property name="status" value="active"/>
   </properties>
  </object>
  <object id="1830" name="switch-spike" gid="85" x="200" y="250" width="50" height="50">
   <properties>
    <property name="id" value="0"/>
    <property name="status" value="disabled"/>
   </properties>
  </object>
  <object id="1846" name="warp" gid="122" x="650" y="50" width="50" height="50">
   <properties>
    <property name="direction" value="up"/>
    <property name="target" value="map37a"/>
   </properties>
  </object>
  <object id="1847" name="warp" gid="122" x="700" y="50" width="50" height="50">
   <properties>
    <property name="direction" value="up"/>
    <property name="target" value="map37a"/>
   </properties>
  </object>
  <object id="1848" name="warp" gid="122" x="800" y="50" width="50" height="50">
   <properties>
    <property name="direction" value="up"/>
    <property name="target" value="map37a"/>
   </properties>
  </object>
  <object id="1849" name="warp" gid="122" x="800" y="50" width="50" height="50">
   <properties>
    <property name="direction" value="up"/>
    <property name="target" value="map37a"/>
   </properties>
  </object>
  <object id="1850" name="warp" gid="122" x="750" y="50" width="50" height="50">
   <properties>
    <property name="direction" value="up"/>
    <property name="target" value="map37a"/>
   </properties>
  </object>
  <object id="1851" name="warp" gid="122" x="850" y="50" width="50" height="50">
   <properties>
    <property name="direction" value="up"/>
    <property name="target" value="map37a"/>
   </properties>
  </object>
  <object id="1852" name="warp" gid="122" x="900" y="50" width="50" height="50">
   <properties>
    <property name="direction" value="up"/>
    <property name="target" value="map37a"/>
   </properties>
  </object>
  <object id="1853" name="warp" gid="122" x="1000" y="50" width="50" height="50">
   <properties>
    <property name="direction" value="up"/>
    <property name="target" value="map37a"/>
   </properties>
  </object>
  <object id="1854" name="warp" gid="122" x="1000" y="50" width="50" height="50">
   <properties>
    <property name="direction" value="up"/>
    <property name="target" value="map37a"/>
   </properties>
  </object>
  <object id="1855" name="warp" gid="122" x="950" y="50" width="50" height="50">
   <properties>
    <property name="direction" value="up"/>
    <property name="target" value="map37a"/>
   </properties>
  </object>
  <object id="1856" name="warp" gid="122" x="1050" y="50" width="50" height="50">
   <properties>
    <property name="direction" value="up"/>
    <property name="target" value="map37a"/>
   </properties>
  </object>
  <object id="1857" name="warp" gid="122" x="1100" y="50" width="50" height="50">
   <properties>
    <property name="direction" value="up"/>
    <property name="target" value="map37a"/>
   </properties>
  </object>
  <object id="1858" name="warp" gid="122" x="1200" y="50" width="50" height="50">
   <properties>
    <property name="direction" value="up"/>
    <property name="target" value="map37a"/>
   </properties>
  </object>
  <object id="1859" name="warp" gid="122" x="1200" y="50" width="50" height="50">
   <properties>
    <property name="direction" value="up"/>
    <property name="target" value="map37a"/>
   </properties>
  </object>
  <object id="1860" name="warp" gid="122" x="1150" y="50" width="50" height="50">
   <properties>
    <property name="direction" value="up"/>
    <property name="target" value="map37a"/>
   </properties>
  </object>
 </objectgroup>
 <objectgroup id="30" name="small-spike">
  <object id="1766" name="switch-spike" gid="87" x="200" y="350" width="50" height="50">
   <properties>
    <property name="id" value="2"/>
    <property name="status" value="active"/>
   </properties>
  </object>
  <object id="1767" name="switch-spike" gid="87" x="300" y="250" width="50" height="50">
   <properties>
    <property name="id" value="2"/>
    <property name="status" value="disabled"/>
   </properties>
  </object>
  <object id="1777" name="small-spike" gid="129" x="500" y="475" width="25" height="25">
   <properties>
    <property name="id" value="2"/>
   </properties>
  </object>
  <object id="1778" name="small-spike" gid="129" x="550" y="475" width="25" height="25">
   <properties>
    <property name="id" value="2"/>
   </properties>
  </object>
  <object id="1779" name="small-spike" gid="129" x="600" y="475" width="25" height="25">
   <properties>
    <property name="id" value="2"/>
   </properties>
  </object>
  <object id="1780" name="small-spike" gid="129" x="650" y="475" width="25" height="25">
   <properties>
    <property name="id" value="2"/>
   </properties>
  </object>
  <object id="1781" name="small-spike" gid="129" x="700" y="475" width="25" height="25">
   <properties>
    <property name="id" value="2"/>
   </properties>
  </object>
  <object id="1782" name="small-spike" gid="129" x="750" y="475" width="25" height="25">
   <properties>
    <property name="id" value="2"/>
   </properties>
  </object>
  <object id="1783" name="small-spike" gid="129" x="800" y="475" width="25" height="25">
   <properties>
    <property name="id" value="2"/>
   </properties>
  </object>
  <object id="1784" name="small-spike" gid="129" x="850" y="375" width="25" height="25">
   <properties>
    <property name="id" value="2"/>
   </properties>
  </object>
  <object id="1786" name="small-spike" gid="129" x="950" y="375" width="25" height="25">
   <properties>
    <property name="id" value="2"/>
   </properties>
  </object>
  <object id="1787" name="small-spike" gid="129" x="1000" y="375" width="25" height="25">
   <properties>
    <property name="id" value="2"/>
   </properties>
  </object>
  <object id="1788" name="small-spike" gid="129" x="1050" y="375" width="25" height="25">
   <properties>
    <property name="id" value="2"/>
   </properties>
  </object>
  <object id="1790" name="small-spike" gid="129" x="525" y="475" width="25" height="25">
   <properties>
    <property name="id" value="2"/>
   </properties>
  </object>
  <object id="1791" name="small-spike" gid="129" x="575" y="475" width="25" height="25">
   <properties>
    <property name="id" value="2"/>
   </properties>
  </object>
  <object id="1792" name="small-spike" gid="129" x="625" y="475" width="25" height="25">
   <properties>
    <property name="id" value="2"/>
   </properties>
  </object>
  <object id="1793" name="small-spike" gid="129" x="675" y="475" width="25" height="25">
   <properties>
    <property name="id" value="2"/>
   </properties>
  </object>
  <object id="1794" name="small-spike" gid="129" x="725" y="475" width="25" height="25">
   <properties>
    <property name="id" value="2"/>
   </properties>
  </object>
  <object id="1795" name="small-spike" gid="129" x="775" y="475" width="25" height="25">
   <properties>
    <property name="id" value="2"/>
   </properties>
  </object>
  <object id="1796" name="small-spike" gid="129" x="825" y="475" width="25" height="25">
   <properties>
    <property name="id" value="2"/>
   </properties>
  </object>
  <object id="1797" name="small-spike" gid="129" x="875" y="375" width="25" height="25">
   <properties>
    <property name="id" value="2"/>
   </properties>
  </object>
  <object id="1798" name="small-spike" gid="129" x="975" y="375" width="25" height="25">
   <properties>
    <property name="id" value="2"/>
   </properties>
  </object>
  <object id="1799" name="small-spike" gid="129" x="1025" y="375" width="25" height="25">
   <properties>
    <property name="id" value="2"/>
   </properties>
  </object>
  <object id="1800" name="small-spike" gid="129" x="1075" y="375" width="25" height="25">
   <properties>
    <property name="id" value="2"/>
   </properties>
  </object>
  <object id="1803" name="small-spike" gid="127" x="550" y="250" width="25" height="25">
   <properties>
    <property name="id" value="0"/>
   </properties>
  </object>
  <object id="1804" name="small-spike" gid="127" x="575" y="250" width="25" height="25">
   <properties>
    <property name="id" value="0"/>
   </properties>
  </object>
  <object id="1805" name="small-spike" gid="127" x="750" y="250" width="25" height="25">
   <properties>
    <property name="id" value="0"/>
   </properties>
  </object>
  <object id="1806" name="small-spike" gid="127" x="775" y="250" width="25" height="25">
   <properties>
    <property name="id" value="0"/>
   </properties>
  </object>
 </objectgroup>
 <objectgroup id="9" name="spike-normal">
  <object id="1820" name="spike" gid="86" x="300" y="600" width="50" height="50">
   <properties>
    <property name="id" value="1"/>
   </properties>
  </object>
  <object id="1822" name="spike" gid="90" x="300" y="650" width="50" height="50">
   <properties>
    <property name="id" value="5"/>
   </properties>
  </object>
 </objectgroup>
 <objectgroup id="29" name="redCoin"/>
 <objectgroup id="27" name="switch-spike"/>
 <objectgroup id="8" name="save">
  <object id="1802" name="save" gid="84" x="650" y="150" width="50" height="50"/>
 </objectgroup>
 <objectgroup id="21" name="acidlayer"/>
 <objectgroup id="31" name="shaders">
  <properties>
   <property name="shaderName" value="radioactive"/>
  </properties>
 </objectgroup>
 <objectgroup id="10" name="laser">
  <object id="1816" name="laser" gid="93" x="300" y="700" width="50" height="50">
   <properties>
    <property name="direction" value="h"/>
   </properties>
  </object>
  <object id="1817" name="laser" gid="93" x="350" y="700" width="50" height="50">
   <properties>
    <property name="direction" value="h"/>
   </properties>
  </object>
  <object id="1818" name="laser" gid="93" x="400" y="700" width="50" height="50">
   <properties>
    <property name="direction" value="h"/>
   </properties>
  </object>
  <object id="1819" name="laser" gid="93" x="450" y="700" width="50" height="50">
   <properties>
    <property name="direction" value="h"/>
   </properties>
  </object>
 </objectgroup>
 <objectgroup id="11" name="bg">
  <properties>
   <property name="bgName" value="castleBG3"/>
   <property name="bgShader" value="toxic"/>
  </properties>
 </objectgroup>
 <objectgroup id="12" name="foregroundEffect">
  <properties>
   <property name="foregroundEffectType" value="toxic"/>
  </properties>
 </objectgroup>
 <objectgroup id="22" name="mapEffect">
  <properties>
   <property name="effectType" value="poison-fog"/>
  </properties>
 </objectgroup>
 <objectgroup id="15" name="music">
  <properties>
   <property name="songName" value="castle_underground"/>
  </properties>
 </objectgroup>
 <objectgroup id="20" name="warps">
  <object id="1807" name="warp" gid="125" x="0" y="450" width="50" height="50">
   <properties>
    <property name="direction" value="left"/>
    <property name="target" value="map36"/>
   </properties>
  </object>
  <object id="1808" name="warp" gid="125" x="0" y="400" width="50" height="50">
   <properties>
    <property name="direction" value="left"/>
    <property name="target" value="map36"/>
   </properties>
  </object>
  <object id="1809" name="warp" gid="125" x="0" y="350" width="50" height="50">
   <properties>
    <property name="direction" value="left"/>
    <property name="target" value="map36"/>
   </properties>
  </object>
  <object id="1810" name="warp" gid="125" x="0" y="300" width="50" height="50">
   <properties>
    <property name="direction" value="left"/>
    <property name="target" value="map36"/>
   </properties>
  </object>
  <object id="1811" name="warp" gid="125" x="0" y="250" width="50" height="50">
   <properties>
    <property name="direction" value="left"/>
    <property name="target" value="map36"/>
   </properties>
  </object>
  <object id="1812" name="warp" gid="125" x="0" y="200" width="50" height="50">
   <properties>
    <property name="direction" value="left"/>
    <property name="target" value="map36"/>
   </properties>
  </object>
  <object id="1813" name="warp" gid="125" x="0" y="150" width="50" height="50">
   <properties>
    <property name="direction" value="left"/>
    <property name="target" value="map36"/>
   </properties>
  </object>
  <object id="1814" name="warp" gid="125" x="0" y="100" width="50" height="50">
   <properties>
    <property name="direction" value="left"/>
    <property name="target" value="map36"/>
   </properties>
  </object>
  <object id="1815" name="warp" gid="125" x="0" y="50" width="50" height="50">
   <properties>
    <property name="direction" value="left"/>
    <property name="target" value="map36"/>
   </properties>
  </object>
  <object id="1825" name="warp" gid="123" x="1350" y="300" width="50" height="50">
   <properties>
    <property name="direction" value="right"/>
    <property name="target" value="map38"/>
   </properties>
  </object>
  <object id="1826" name="warp" gid="123" x="1350" y="250" width="50" height="50">
   <properties>
    <property name="direction" value="right"/>
    <property name="target" value="map38"/>
   </properties>
  </object>
  <object id="1827" name="warp" gid="123" x="1350" y="200" width="50" height="50">
   <properties>
    <property name="direction" value="right"/>
    <property name="target" value="map38"/>
   </properties>
  </object>
 </objectgroup>
</map>
