<?xml version="1.0" encoding="UTF-8"?>
<map version="1.10" tiledversion="1.12.1" orientation="orthogonal" renderorder="right-down" width="52" height="18" tilewidth="50" tileheight="50" infinite="0" nextlayerid="22" nextobjectid="180">
 <tileset firstgid="1" source="ch1-tiles.tsx"/>
 <tileset firstgid="89" source="../../textures/save.tsx"/>
 <tileset firstgid="90" source="../../textures/transition-tiles.tsx"/>
 <tileset firstgid="95" source="../../textures/small-spike.tsx"/>
 <tileset firstgid="99" source="../../textures/spike.tsx"/>
 <tileset firstgid="107" source="../../textures/light.tsx"/>
 <layer id="1" name="tiles-main" width="52" height="18">
  <data encoding="csv">
0,0,0,0,0,0,0,0,0,0,0,0,0,0,0,0,0,0,0,0,0,0,0,0,0,0,0,0,0,0,60,0,0,0,0,0,0,0,0,0,0,0,0,0,0,0,61,0,60,0,0,0,
0,0,0,0,0,0,0,0,0,0,0,0,0,0,0,0,0,0,0,0,0,0,0,0,0,0,0,0,0,0,60,0,0,0,0,0,0,0,0,0,0,0,0,0,0,0,61,0,60,0,0,0,
0,0,0,0,0,0,0,0,0,0,0,0,0,0,0,0,0,0,0,0,0,0,0,0,0,0,0,0,0,0,60,0,0,0,0,0,0,0,0,0,0,0,0,0,0,0,61,0,60,0,0,0,
0,0,0,0,0,0,0,0,0,68,67,67,67,67,67,67,67,67,66,0,0,0,0,0,0,0,0,0,0,0,60,0,0,0,0,0,0,0,0,0,0,0,0,0,0,0,61,0,60,0,0,0,
0,0,0,0,0,0,0,68,67,69,0,0,0,0,0,0,0,0,63,67,66,0,0,0,0,0,0,0,0,0,60,0,0,0,0,0,0,0,0,0,0,0,0,0,0,0,61,0,60,0,0,0,
0,0,0,0,0,68,67,69,0,0,0,0,0,0,0,0,0,0,0,0,63,67,66,0,0,0,0,0,0,0,60,0,0,0,0,0,0,0,0,0,0,0,0,0,0,0,61,0,60,0,0,0,
67,67,67,67,67,69,0,0,0,0,0,0,0,0,0,0,0,0,0,0,0,0,63,67,67,67,67,67,67,67,69,0,0,0,0,0,0,0,65,0,0,0,0,0,0,0,63,67,69,0,0,0,
0,0,0,0,0,0,0,0,0,0,0,0,0,0,0,0,0,0,0,0,0,0,0,0,0,0,0,0,0,0,0,0,0,0,0,0,0,0,72,0,0,0,0,0,0,0,0,0,0,0,0,0,
0,0,0,0,0,0,0,0,0,0,0,0,0,0,0,0,0,0,0,0,0,0,0,0,0,0,0,0,0,0,0,0,0,0,57,59,0,0,0,0,0,0,0,0,0,0,0,0,0,0,0,0,
0,0,0,0,0,0,0,0,0,0,0,0,0,0,0,0,0,0,0,0,0,0,0,0,0,0,0,0,0,0,0,0,0,0,61,60,0,0,0,0,0,0,0,0,0,0,0,0,0,65,0,0,
0,0,0,0,0,0,0,0,0,0,7,5,5,5,5,5,5,7,0,0,0,0,0,0,0,0,0,0,0,0,0,0,0,0,61,60,0,0,0,0,57,58,58,58,58,58,58,58,58,59,0,0,
58,58,58,58,58,58,58,58,58,58,58,58,58,58,58,58,58,58,58,58,58,58,58,58,58,58,58,58,58,58,58,59,0,0,61,60,0,0,0,0,61,0,0,0,0,0,0,0,0,60,0,0,
0,0,0,0,0,0,0,0,0,0,0,0,0,0,0,0,0,0,0,0,0,0,0,0,0,0,0,0,0,0,0,60,0,0,61,60,0,0,0,0,61,0,0,0,0,0,0,0,0,60,0,0,
0,0,0,0,0,0,0,0,0,0,0,0,0,0,0,0,0,0,0,0,0,0,0,0,0,0,0,0,0,0,0,60,0,0,61,60,0,0,0,0,61,0,0,0,0,0,0,0,0,60,0,0,
0,0,0,0,0,0,0,0,0,0,0,0,0,0,0,0,0,0,0,0,0,0,0,0,0,0,0,0,0,0,0,60,0,0,61,60,0,0,0,0,61,0,0,0,0,0,0,0,0,60,0,0,
0,0,0,0,0,0,0,0,0,0,0,0,0,0,0,0,0,0,0,0,0,0,0,0,0,0,0,0,0,0,0,60,0,0,61,60,0,0,0,0,61,0,0,0,0,0,0,0,0,60,0,0,
0,0,0,0,0,0,0,0,0,0,0,0,0,0,0,0,0,0,0,0,0,0,0,0,0,0,0,0,0,0,0,60,0,0,61,60,0,0,0,0,61,0,0,0,0,0,0,0,0,60,0,0,
0,0,0,0,0,0,0,0,0,0,0,0,0,0,0,0,0,0,0,0,0,0,0,0,0,0,0,0,0,0,0,60,0,0,61,60,0,0,0,0,61,0,0,0,0,0,0,0,0,60,0,0
</data>
 </layer>
 <layer id="11" name="tiles-deco" width="52" height="18">
  <data encoding="csv">
62,62,62,62,62,62,62,62,62,62,62,62,62,62,62,62,62,62,62,62,62,62,62,62,62,62,62,62,62,62,0,0,0,0,0,0,0,0,0,0,0,0,0,0,0,0,0,62,0,0,0,0,
62,62,62,62,62,62,62,62,62,62,62,62,62,62,62,62,62,62,62,62,62,62,62,62,62,62,62,62,62,62,0,0,0,0,0,0,0,0,0,0,0,0,0,0,0,0,0,62,0,0,0,0,
62,62,62,62,62,62,62,62,62,62,62,62,62,62,62,62,62,62,62,62,62,62,62,62,62,62,62,62,62,62,0,0,0,0,0,0,0,0,0,0,0,0,0,0,0,0,0,62,0,0,0,0,
62,62,62,62,62,62,62,62,62,0,0,0,0,0,0,0,0,0,0,62,62,62,62,62,62,62,62,62,62,62,0,0,0,0,0,0,0,0,0,0,0,0,0,0,0,0,0,62,0,0,0,0,
62,62,62,62,62,62,62,62,0,0,0,0,0,0,0,0,0,0,0,0,0,62,62,62,62,62,62,62,62,62,0,0,0,0,0,0,0,0,0,0,0,0,0,0,0,0,0,62,0,0,0,0,
62,62,62,62,62,0,0,0,0,0,0,0,0,0,0,0,0,0,0,0,0,0,0,62,62,62,62,62,62,62,0,0,0,0,0,0,0,0,0,0,0,0,0,0,0,0,0,62,0,0,0,0,
0,0,0,0,0,0,0,0,0,0,0,0,0,0,0,0,0,0,0,0,0,0,0,0,0,0,0,0,0,0,0,0,0,0,0,0,0,0,0,0,0,0,0,0,0,0,0,0,0,0,0,0,
0,0,0,0,0,0,0,0,0,0,0,0,0,0,0,0,0,0,0,0,0,0,0,0,0,0,0,0,0,0,0,0,0,0,0,0,0,0,0,0,0,0,0,0,0,0,0,0,0,0,0,0,
0,0,0,0,0,0,0,0,0,0,0,0,0,0,0,0,0,0,0,0,0,0,0,0,0,0,0,0,0,0,0,0,0,0,0,0,0,0,0,0,0,0,0,0,0,0,0,0,0,0,0,0,
0,0,0,0,0,0,0,0,0,0,0,0,0,0,0,0,0,0,0,0,0,0,0,0,0,0,0,0,0,0,0,0,0,0,0,0,0,0,0,0,0,0,0,0,0,0,0,0,0,0,0,0,
0,0,0,0,0,0,0,0,0,0,0,0,0,0,0,0,0,0,0,0,0,0,0,0,0,0,0,0,0,0,0,0,0,0,0,0,0,0,0,0,0,0,0,0,0,0,0,0,0,0,0,0,
0,0,0,0,0,0,0,0,0,0,0,0,0,0,0,0,0,0,0,0,0,0,0,0,0,0,0,0,0,0,0,0,0,0,0,0,0,0,0,0,0,62,62,62,62,62,62,62,62,0,0,0,
62,62,62,62,62,62,62,62,62,62,62,62,62,62,62,62,62,62,62,62,62,62,62,62,62,62,62,62,62,62,62,0,0,0,0,0,0,0,0,0,0,62,62,62,62,62,62,62,62,0,0,0,
62,62,62,62,62,62,62,62,62,62,62,62,62,62,62,62,62,62,62,62,62,62,62,62,62,62,62,62,62,62,62,0,0,0,0,0,0,0,0,0,0,62,62,62,62,62,62,62,62,0,0,0,
62,62,62,62,62,62,62,62,62,62,62,62,62,62,62,62,62,62,62,62,62,62,62,62,62,62,62,62,62,62,62,0,0,0,0,0,0,0,0,0,0,62,62,62,62,62,62,62,62,0,0,0,
62,62,62,62,62,62,62,62,62,62,62,62,62,62,62,62,62,62,62,62,62,62,62,62,62,62,62,62,62,62,62,0,0,0,0,0,0,0,0,0,0,62,62,62,62,62,62,62,62,0,0,0,
62,62,62,62,62,62,62,62,62,62,62,62,62,62,62,62,62,62,62,62,62,62,62,62,62,62,62,62,62,62,62,0,0,0,0,0,0,0,0,0,0,62,62,62,62,62,62,62,62,0,0,0,
62,62,62,62,62,62,62,62,62,62,62,62,62,62,62,62,62,62,62,62,62,62,62,62,62,62,62,62,62,62,62,0,0,0,0,0,0,0,0,0,0,62,62,62,62,62,62,62,62,0,0,0
</data>
 </layer>
 <layer id="17" name="tiles-deco2" width="52" height="18">
  <data encoding="csv">
0,0,0,0,0,0,0,0,0,0,0,0,0,0,0,0,0,0,0,0,0,0,0,0,0,0,0,0,0,0,0,0,0,0,0,0,0,0,0,0,0,0,0,0,0,0,0,0,0,0,0,0,
0,0,0,0,0,0,0,0,0,0,0,0,0,0,0,0,0,0,0,0,0,0,0,0,0,0,0,0,0,0,0,0,0,0,0,0,0,0,0,0,0,0,0,0,0,0,0,0,0,0,0,0,
0,0,0,0,0,0,0,0,0,0,0,0,0,0,0,0,0,0,0,0,0,0,0,0,0,0,0,0,0,0,0,0,0,0,0,0,0,0,0,0,0,0,0,0,0,0,0,0,0,0,0,0,
0,0,0,0,0,0,0,0,56,0,0,0,0,0,0,0,0,0,0,56,0,0,0,0,0,0,0,0,0,0,0,0,0,0,0,0,0,0,0,0,0,0,0,0,0,0,0,0,0,0,0,0,
0,0,0,0,0,0,0,0,0,0,78,78,78,78,78,78,78,78,0,0,0,0,0,0,0,0,0,0,0,0,0,0,0,0,0,0,0,0,0,0,0,0,0,0,0,0,0,56,0,0,0,0,
0,0,0,0,56,0,0,0,78,78,78,78,78,78,78,78,78,78,78,78,0,0,0,56,0,0,0,0,0,0,0,0,0,0,0,0,0,0,0,0,0,0,0,0,0,0,0,0,0,0,0,0,
0,0,0,0,0,0,78,78,78,78,78,78,78,78,78,78,78,78,78,78,78,78,0,0,0,0,0,0,0,0,0,0,0,0,0,0,0,0,56,0,0,0,0,0,0,0,0,0,0,0,0,0,
0,0,0,0,0,80,78,78,78,78,78,78,78,78,78,78,78,78,78,78,78,79,0,0,0,0,0,0,0,0,0,0,0,0,0,0,0,0,0,0,0,0,0,0,0,0,0,0,0,0,0,0,
0,0,0,0,0,0,80,78,78,78,78,78,78,78,78,78,78,78,78,78,78,86,0,0,0,0,0,0,0,0,0,0,0,0,0,0,0,0,0,0,0,0,0,0,0,0,0,0,0,0,0,0,
0,0,0,0,0,0,87,78,78,78,78,78,78,78,78,78,78,78,78,78,79,0,0,0,0,0,0,0,0,0,0,0,0,0,0,0,0,0,0,0,0,0,0,0,0,0,0,0,0,0,0,0,
0,0,0,0,0,0,87,78,78,78,72,72,72,72,72,72,72,72,78,79,0,0,0,0,0,0,0,0,0,0,0,0,0,0,0,0,0,0,0,0,0,0,0,0,0,0,0,0,0,0,0,0,
0,0,0,0,0,0,0,0,0,0,0,0,0,0,0,0,0,0,0,0,0,0,0,0,0,0,0,0,0,0,0,0,0,0,0,0,0,0,0,0,0,56,0,0,0,0,0,0,56,0,0,0,
0,0,0,0,0,0,0,0,56,0,0,0,0,0,0,0,0,0,0,56,0,0,0,0,0,0,0,0,0,0,0,0,0,0,0,0,0,0,0,0,0,0,0,0,0,0,0,0,0,0,0,0,
0,0,0,0,0,0,0,0,0,0,0,0,0,0,0,0,0,0,0,0,0,0,0,0,0,0,0,0,0,0,0,0,0,0,0,0,0,0,0,0,0,0,0,0,0,0,0,0,0,0,0,0,
0,0,0,0,0,0,0,0,0,0,0,0,0,0,0,0,0,0,0,0,0,0,0,0,0,0,0,0,0,0,0,0,0,0,0,0,0,0,0,0,0,0,0,0,0,0,0,0,0,0,0,0,
0,0,0,0,0,0,0,0,0,0,0,0,0,0,0,0,0,0,0,0,0,0,0,0,0,0,0,0,0,0,0,0,0,0,0,0,0,0,0,0,0,0,0,0,0,0,0,0,0,0,0,0,
0,0,0,0,0,0,0,0,0,0,0,0,0,0,0,0,0,0,0,0,0,0,0,0,0,0,0,0,0,0,0,0,0,0,0,0,0,0,0,0,0,0,0,0,0,0,0,0,0,0,0,0,
0,0,0,0,0,0,0,0,0,0,0,0,0,0,0,0,0,0,0,0,0,0,0,0,0,0,0,0,0,0,0,0,0,0,0,0,0,0,0,0,0,0,0,0,0,0,0,0,0,0,0,0
</data>
 </layer>
 <objectgroup id="2" name="music">
  <properties>
   <property name="pitch" value="0.95"/>
   <property name="songName" value="circus"/>
  </properties>
 </objectgroup>
 <objectgroup id="12" name="camera">
  <properties>
   <property name="cameraType" value="unlockX"/>
  </properties>
 </objectgroup>
 <objectgroup id="3" name="bg">
  <properties>
   <property name="bgName" value="none"/>
   <property name="bgShader" value="circus"/>
  </properties>
 </objectgroup>
 <objectgroup id="16" name="solid_block"/>
 <objectgroup id="18" name="light">
  <object id="167" name="light" gid="108" x="124" y="370.667" width="200" height="200">
   <properties>
    <property name="color" value="blue"/>
   </properties>
  </object>
  <object id="169" name="light" gid="108" x="324" y="270.667" width="200" height="200">
   <properties>
    <property name="color" value="blue"/>
   </properties>
  </object>
  <object id="171" name="light" gid="108" x="324" y="720.667" width="200" height="200">
   <properties>
    <property name="color" value="blue"/>
   </properties>
  </object>
  <object id="172" name="light" gid="108" x="874" y="720.667" width="200" height="200">
   <properties>
    <property name="color" value="blue"/>
   </properties>
  </object>
  <object id="173" name="light" gid="108" x="874" y="270.667" width="200" height="200">
   <properties>
    <property name="color" value="blue"/>
   </properties>
  </object>
  <object id="175" name="light" gid="108" x="1074" y="370.667" width="200" height="200">
   <properties>
    <property name="color" value="blue"/>
   </properties>
  </object>
  <object id="176" name="light" gid="108" x="1974" y="670.667" width="200" height="200">
   <properties>
    <property name="color" value="blue"/>
   </properties>
  </object>
  <object id="177" name="light" gid="108" x="2324" y="670.667" width="200" height="200">
   <properties>
    <property name="color" value="blue"/>
   </properties>
  </object>
  <object id="178" name="light" gid="108" x="2274" y="320.667" width="200" height="200">
   <properties>
    <property name="color" value="blue"/>
   </properties>
  </object>
  <object id="179" name="light" gid="108" x="1824" y="420.667" width="200" height="200">
   <properties>
    <property name="color" value="blue"/>
   </properties>
  </object>
 </objectgroup>
 <objectgroup id="14" name="small-spike"/>
 <objectgroup id="15" name="switch-spike"/>
 <objectgroup id="21" name="spike-normal">
  <object id="154" name="spike" gid="99" x="2250" y="350" width="50" height="50">
   <properties>
    <property name="id" value="0"/>
   </properties>
  </object>
  <object id="155" name="spike" gid="101" x="2390" y="400" width="50" height="50">
   <properties>
    <property name="id" value="2"/>
   </properties>
  </object>
  <object id="157" name="spike" gid="101" x="1900" y="421" width="50" height="50">
   <properties>
    <property name="id" value="2"/>
   </properties>
  </object>
  <object id="158" name="spike" gid="99" x="1900" y="300" width="50" height="50">
   <properties>
    <property name="id" value="0"/>
   </properties>
  </object>
  <object id="159" name="spike" gid="99" x="2000" y="500" width="50" height="50">
   <properties>
    <property name="id" value="0"/>
   </properties>
  </object>
  <object id="160" name="spike" gid="100" x="1800" y="450" width="50" height="50">
   <properties>
    <property name="id" value="1"/>
   </properties>
  </object>
 </objectgroup>
 <objectgroup id="13" name="slab"/>
 <objectgroup id="19" name="images">
  <object id="153" name="image" gid="8" x="675" y="470" width="50" height="50">
   <properties>
    <property name="imageName" value="jevil_door"/>
   </properties>
  </object>
 </objectgroup>
 <objectgroup id="20" name="mapDecoEffect">
  <properties>
   <property name="backDecoEffectType" value="none"/>
  </properties>
 </objectgroup>
 <objectgroup id="6" name="doubleEffect">
  <properties>
   <property name="doubleEffectType" value="none"/>
  </properties>
 </objectgroup>
 <objectgroup id="7" name="mapEffect">
  <properties>
   <property name="effectType" value="none"/>
  </properties>
 </objectgroup>
 <objectgroup id="8" name="save">
  <object id="161" name="save" gid="89" x="2100" y="400" width="50" height="50"/>
 </objectgroup>
 <objectgroup id="5" name="topEffect">
  <properties>
   <property name="topEffectType" value="none"/>
  </properties>
 </objectgroup>
 <objectgroup id="9" name="warp">
  <object id="162" name="warp" gid="91" x="2550" y="250" width="50" height="50">
   <properties>
    <property name="direction" value="right"/>
    <property name="target" value="boss-jevil02"/>
   </properties>
  </object>
  <object id="163" name="warp" gid="91" x="2550" y="350" width="50" height="50">
   <properties>
    <property name="direction" value="right"/>
    <property name="target" value="boss-jevil02"/>
   </properties>
  </object>
  <object id="164" name="warp" gid="91" x="2550" y="450" width="50" height="50">
   <properties>
    <property name="direction" value="right"/>
    <property name="target" value="boss-jevil02"/>
   </properties>
  </object>
  <object id="165" name="warp" gid="91" x="2550" y="550" width="50" height="50">
   <properties>
    <property name="direction" value="right"/>
    <property name="target" value="boss-jevil02"/>
   </properties>
  </object>
 </objectgroup>
</map>
