<?xml version="1.0" encoding="UTF-8"?>
<map version="1.10" tiledversion="1.12.1" orientation="orthogonal" renderorder="right-down" width="28" height="18" tilewidth="50" tileheight="50" infinite="0" nextlayerid="36" nextobjectid="79">
 <properties>
  <property name="doubleEffectType" value="dark-cloud"/>
 </properties>
 <tileset firstgid="1" source="ch1-tiles.tsx"/>
 <tileset firstgid="89" source="../../textures/light.tsx"/>
 <tileset firstgid="91" source="../../textures/spike.tsx"/>
 <tileset firstgid="99" source="../../textures/transition-tiles.tsx"/>
 <tileset firstgid="104" source="../../textures/double_jump.tsx"/>
 <tileset firstgid="105" source="../../textures/misc/portal.tsx"/>
 <tileset firstgid="106" source="../../textures/flip.tsx"/>
 <tileset firstgid="107" source="../../textures/small-spike.tsx"/>
 <tileset firstgid="111" source="../../textures/coins.tsx"/>
 <tileset firstgid="119" source="../../textures/save.tsx"/>
 <layer id="1" name="tiles-main" width="28" height="18">
  <data encoding="csv">
0,0,0,0,0,0,0,0,0,0,0,0,2,0,0,0,0,2,0,0,0,0,0,0,0,0,0,0,
0,0,0,0,0,0,0,0,0,0,0,0,2,0,0,0,0,2,2,2,2,0,0,0,0,0,0,0,
0,0,0,0,0,0,0,2,2,2,2,2,2,0,0,0,0,0,0,0,2,2,2,0,2,2,2,2,
0,0,0,0,0,2,2,2,0,0,0,0,0,0,0,0,0,0,0,0,0,0,2,2,2,0,0,0,
0,0,0,0,0,2,0,0,0,0,0,0,0,0,0,0,0,0,0,0,0,0,0,0,0,0,0,0,
2,2,2,2,2,2,0,0,0,0,0,0,0,0,0,0,0,0,0,0,0,0,0,0,0,0,0,0,
0,0,0,0,0,0,0,0,0,0,0,0,0,0,0,0,0,0,0,0,0,0,0,0,0,0,0,0,
0,0,0,82,0,0,0,0,0,0,0,0,0,2,2,2,0,0,0,0,2,2,2,2,2,2,2,2,
0,0,0,82,0,0,0,0,0,0,0,0,82,2,0,2,0,0,0,0,2,0,0,0,0,0,0,0,
0,0,82,82,0,0,0,0,0,0,0,2,2,2,0,2,0,0,0,2,2,0,0,0,0,0,0,0,
0,0,82,82,0,0,0,0,0,0,0,2,0,0,0,2,0,0,0,2,0,0,0,0,0,0,0,0,
2,2,2,2,2,2,2,2,2,2,2,2,0,0,0,2,0,0,0,2,0,0,0,0,0,0,0,0,
0,0,0,0,0,0,0,0,0,0,0,0,0,0,0,2,2,2,2,2,0,0,0,0,0,0,0,0,
0,0,0,0,0,0,0,0,0,0,0,0,0,0,0,0,0,0,0,0,0,0,0,0,0,0,0,0,
0,0,0,0,0,0,0,0,0,0,0,0,0,0,0,0,0,0,0,0,0,0,0,0,0,0,0,0,
0,0,0,0,0,0,0,0,0,0,0,0,0,0,0,0,0,0,0,0,0,0,0,0,0,0,0,0,
0,0,0,0,0,0,0,0,0,0,0,0,0,0,0,0,0,0,0,0,0,0,0,0,0,0,0,0,
0,0,0,0,0,0,0,0,0,0,0,0,0,0,0,0,0,0,0,0,0,0,0,0,0,0,0,0
</data>
 </layer>
 <layer id="8" name="tiles-deco" width="28" height="18">
  <data encoding="csv">
10,3,3,10,3,3,10,10,3,3,10,10,0,0,0,0,0,0,10,10,10,10,10,3,3,10,10,10,
10,3,10,10,3,10,10,10,10,10,10,10,0,0,0,0,0,0,0,0,0,10,10,10,10,10,10,10,
10,3,10,3,10,10,10,0,0,0,0,0,0,0,0,0,0,0,0,0,0,0,0,10,0,0,0,0,
3,10,3,10,10,0,0,0,0,0,0,0,0,0,0,0,0,0,0,0,0,0,0,0,0,0,0,0,
10,10,10,10,10,0,0,0,0,0,0,0,0,0,0,0,0,0,0,0,0,0,0,0,0,0,0,0,
0,0,0,0,0,0,0,0,0,0,0,0,0,0,0,0,0,0,0,0,0,0,0,0,0,0,0,0,
0,0,0,0,0,0,0,0,0,0,0,0,0,0,0,0,0,0,0,0,0,0,0,0,0,0,0,0,
0,0,0,0,0,0,0,0,0,0,0,0,0,0,0,0,0,0,0,0,0,0,0,0,0,0,0,0,
0,0,0,0,0,0,0,0,0,0,0,0,0,0,10,0,0,0,0,84,0,10,10,10,10,10,10,10,
0,0,0,0,84,0,0,0,0,0,0,0,0,0,10,0,0,0,0,0,0,10,10,3,3,10,10,10,
0,0,0,0,84,84,0,0,0,0,0,0,10,10,10,0,84,0,0,0,10,10,3,10,10,3,3,3,
0,0,0,0,0,0,0,0,0,0,0,0,10,3,10,0,84,84,0,0,10,3,10,3,10,10,3,3,
10,10,10,10,10,10,10,10,10,10,10,10,3,3,10,0,0,0,0,0,10,10,10,10,3,10,10,3,
10,10,3,10,3,3,10,10,3,10,10,10,10,3,10,10,10,10,10,10,10,10,3,10,3,10,10,10,
10,3,10,3,10,10,10,3,10,10,10,10,3,10,10,10,10,3,3,10,10,10,3,10,3,3,10,3,
3,10,10,3,3,3,3,10,10,3,10,10,3,10,3,3,3,10,10,10,10,10,3,10,10,10,10,10,
10,3,10,10,3,3,3,3,3,10,10,10,3,3,3,10,3,3,10,3,10,10,3,3,10,3,3,10,
10,3,10,3,10,10,3,3,10,10,10,10,10,3,10,10,10,3,10,3,3,10,3,3,3,10,10,10
</data>
 </layer>
 <objectgroup id="9" name="bg">
  <properties>
   <property name="bgName" value="bgMountains"/>
  </properties>
 </objectgroup>
 <objectgroup id="10" name="mapEffect">
  <properties>
   <property name="effectType" value="fog"/>
  </properties>
 </objectgroup>
 <objectgroup id="32" name="redCoin">
  <properties>
   <property name="id" value="test"/>
  </properties>
 </objectgroup>
 <objectgroup id="25" name="foregroundEffect">
  <properties>
   <property name="foregroundEffectType" value="rain"/>
  </properties>
 </objectgroup>
 <objectgroup id="26" name="topEffect">
  <properties>
   <property name="topEffectType" value="wind"/>
  </properties>
 </objectgroup>
 <objectgroup id="27" name="slab"/>
 <objectgroup id="28" name="doubleEffect">
  <properties>
   <property name="doubleEffectType" value="redMist"/>
  </properties>
 </objectgroup>
 <objectgroup id="33" name="save"/>
 <objectgroup id="29" name="flip"/>
 <objectgroup id="30" name="small-spike"/>
 <objectgroup id="7" name="spike-normal"/>
 <objectgroup id="11" name="music">
  <properties>
   <property name="songName" value="rain"/>
  </properties>
 </objectgroup>
 <objectgroup id="34" name="images"/>
 <objectgroup id="21" name="portal"/>
 <objectgroup id="35" name="shaders">
  <properties>
   <property name="shaderName" value="rain"/>
  </properties>
 </objectgroup>
 <objectgroup id="17" name="warps">
  <properties>
   <property name="direction" value="right"/>
   <property name="target" value="map02"/>
  </properties>
  <object id="15" name="warp" gid="100" x="1350" y="200" width="50" height="50">
   <properties>
    <property name="direction" value="right"/>
    <property name="target" value="map02"/>
   </properties>
  </object>
  <object id="16" name="warp" gid="100" x="1350" y="250" width="50" height="50">
   <properties>
    <property name="direction" value="right"/>
    <property name="target" value="map02"/>
   </properties>
  </object>
  <object id="17" name="warp" gid="100" x="1350" y="250" width="50" height="50">
   <properties>
    <property name="direction" value="right"/>
    <property name="target" value="map02"/>
   </properties>
  </object>
  <object id="18" name="warp" gid="100" x="1350" y="300" width="50" height="50">
   <properties>
    <property name="direction" value="right"/>
    <property name="target" value="map02"/>
   </properties>
  </object>
  <object id="19" name="warp" gid="100" x="1350" y="350" width="50" height="50">
   <properties>
    <property name="direction" value="right"/>
    <property name="target" value="map02"/>
   </properties>
  </object>
  <object id="72" name="warp" gid="102" x="0" y="350" width="50" height="50">
   <properties>
    <property name="direction" value="left"/>
    <property name="target" value="map00"/>
   </properties>
  </object>
  <object id="73" name="warp" gid="102" x="0" y="400" width="50" height="50">
   <properties>
    <property name="direction" value="left"/>
    <property name="target" value="map00"/>
   </properties>
  </object>
  <object id="74" name="warp" gid="102" x="0" y="450" width="50" height="50">
   <properties>
    <property name="direction" value="left"/>
    <property name="target" value="map00"/>
   </properties>
  </object>
  <object id="75" name="warp" gid="102" x="0" y="500" width="50" height="50">
   <properties>
    <property name="direction" value="left"/>
    <property name="target" value="map00"/>
   </properties>
  </object>
  <object id="78" name="warp" gid="102" x="0" y="550" width="50" height="50">
   <properties>
    <property name="direction" value="left"/>
    <property name="target" value="map00"/>
   </properties>
  </object>
 </objectgroup>
</map>
