<?xml version="1.0" encoding="UTF-8"?>
<map version="1.10" tiledversion="1.12.1" orientation="orthogonal" renderorder="right-down" width="28" height="18" tilewidth="50" tileheight="50" infinite="0" nextlayerid="21" nextobjectid="365">
 <properties>
  <property name="songName" value="castle1"/>
 </properties>
 <tileset firstgid="1" source="ch1-tiles.tsx"/>
 <tileset firstgid="89" source="../../textures/trampoline.tsx"/>
 <tileset firstgid="92" source="../../textures/save.tsx"/>
 <tileset firstgid="93" source="../../textures/spike.tsx"/>
 <tileset firstgid="101" source="../../textures/laser.tsx"/>
 <tileset firstgid="119" source="../../textures/light.tsx"/>
 <tileset firstgid="121" source="../../textures/transition-tiles.tsx"/>
 <layer id="1" name="tiles-main" width="28" height="18">
  <data encoding="csv">
0,0,0,0,0,1,0,0,0,0,0,0,0,0,0,0,0,4,26,4,0,0,0,0,1,0,0,0,
0,0,0,0,0,1,0,0,0,0,0,0,0,0,0,0,0,4,26,4,0,0,0,0,1,0,0,0,
0,0,0,0,0,1,0,0,0,0,0,0,0,0,0,0,0,4,26,4,0,0,0,0,1,0,0,0,
0,0,0,0,0,1,0,0,0,0,0,0,0,0,0,0,0,4,26,4,0,0,0,0,1,0,0,0,
1,1,1,1,1,1,0,1,0,0,0,0,0,0,0,0,0,4,26,7,0,0,0,0,7,0,0,0,
0,0,0,0,0,0,0,0,0,0,0,0,0,0,0,0,0,4,26,4,0,0,0,0,1,0,0,0,
0,0,0,0,0,0,0,0,0,0,0,0,0,0,0,1,0,4,26,4,0,0,0,0,1,0,0,0,
0,0,0,0,0,0,0,0,0,0,0,0,0,0,0,0,0,4,26,4,0,0,0,0,1,0,0,0,
1,1,1,1,1,0,0,0,0,0,0,0,0,0,0,0,0,4,26,4,0,0,0,0,1,0,0,0,
0,0,0,0,1,0,0,0,0,0,0,0,0,0,0,0,0,4,26,4,0,0,0,0,7,1,1,1,
0,0,0,0,1,0,0,0,0,0,0,0,0,0,0,0,0,4,26,4,0,0,0,0,0,0,0,0,
0,0,0,0,1,0,0,0,0,0,0,0,0,0,0,0,0,4,26,4,0,0,0,0,0,0,0,0,
0,0,0,0,1,0,0,0,0,0,0,0,0,0,0,0,0,4,26,4,0,0,0,0,0,0,0,0,
0,0,0,0,1,0,0,0,0,0,0,0,0,0,0,0,0,4,26,4,0,0,0,0,0,0,0,0,
0,0,0,0,1,0,0,0,0,0,0,0,0,0,0,0,0,4,26,4,0,0,0,0,7,1,1,1,
0,0,0,0,1,0,0,0,0,0,0,0,0,0,0,0,0,4,26,4,0,0,0,0,1,0,0,0,
0,0,0,0,1,0,0,0,0,0,0,0,0,0,0,0,0,4,26,4,0,0,0,0,1,0,0,0,
0,0,0,0,1,0,0,0,0,0,0,0,0,0,0,0,0,4,26,4,0,0,0,0,1,0,0,0
</data>
 </layer>
 <layer id="5" name="tiles-deco" width="28" height="18">
  <data encoding="csv">
9,9,9,9,9,0,0,0,0,0,0,0,0,0,0,0,0,0,0,0,0,0,0,0,0,9,9,9,
9,9,9,9,9,0,0,0,0,0,0,0,0,0,0,0,0,0,0,0,0,0,0,0,0,9,9,9,
9,9,9,9,9,0,0,0,0,0,0,0,0,0,0,0,0,0,0,0,0,0,0,0,0,9,9,9,
9,9,9,9,9,0,0,0,0,0,0,0,9,0,0,0,0,0,0,0,0,0,0,0,0,9,9,9,
0,0,0,0,0,0,0,0,0,0,0,0,12,0,0,0,0,0,0,0,0,0,0,0,0,9,9,9,
0,0,0,0,0,0,0,12,0,0,0,0,12,0,0,0,0,0,0,0,0,0,0,0,0,9,9,9,
0,0,0,0,0,0,0,12,0,0,0,0,12,0,0,0,0,0,0,0,0,0,0,0,0,9,9,9,
0,0,0,0,0,0,0,12,0,0,0,0,12,0,0,12,0,0,0,0,0,0,0,0,0,9,9,9,
0,0,0,0,0,0,0,12,0,0,0,0,12,0,0,12,0,0,0,0,0,0,0,0,0,9,9,9,
9,9,9,9,0,0,0,12,0,9,0,0,12,0,0,12,0,0,0,0,0,0,0,0,0,0,0,0,
9,9,9,9,0,0,0,12,0,12,0,0,12,0,0,12,0,0,0,0,0,0,0,0,0,0,0,0,
9,9,9,9,0,0,0,12,0,12,0,0,12,0,0,12,0,0,0,0,0,0,0,0,0,0,0,0,
9,9,9,9,0,0,0,12,0,12,0,0,12,0,0,12,0,0,0,0,0,0,0,0,0,0,0,0,
9,9,9,9,0,0,0,12,0,12,0,0,12,0,0,12,0,0,0,0,0,0,0,0,0,0,0,0,
9,9,9,9,0,0,0,12,0,12,0,0,12,0,0,12,0,0,0,0,0,0,0,0,0,0,0,0,
9,9,9,9,0,0,0,12,0,12,0,0,12,0,0,12,0,0,0,0,0,0,0,0,0,9,9,9,
9,9,9,9,0,0,0,12,0,12,0,0,12,0,0,12,0,0,0,0,0,0,0,0,0,9,9,9,
9,9,9,9,0,0,0,0,0,12,0,0,12,0,0,12,0,0,0,0,0,0,0,0,0,9,9,9
</data>
 </layer>
 <layer id="18" name="tiles-deco2" width="28" height="18">
  <data encoding="csv">
0,0,0,0,0,0,0,0,0,0,0,0,0,0,0,0,0,0,0,0,0,0,0,0,0,0,0,0,
0,0,0,0,0,0,0,0,0,0,0,0,0,0,0,0,0,0,0,0,0,0,0,0,0,0,0,0,
0,0,0,0,0,0,0,0,0,0,0,0,0,0,0,0,0,0,31,0,0,0,0,0,0,0,0,0,
0,0,0,0,31,0,0,0,0,0,0,0,0,0,0,0,0,0,0,0,0,0,0,0,0,0,0,0,
0,0,0,0,0,0,0,0,0,0,0,0,0,0,0,0,0,0,0,0,0,0,0,0,0,0,0,0,
0,0,0,0,0,0,0,0,0,0,0,0,31,0,0,0,0,0,0,0,0,0,0,0,0,0,0,0,
0,0,0,0,0,0,0,31,0,0,0,0,0,0,0,0,0,0,0,0,0,0,0,0,0,0,0,0,
0,0,0,0,0,0,0,0,0,0,0,0,0,0,0,0,0,0,0,0,0,0,0,0,0,0,0,0,
0,0,0,0,0,0,0,0,0,0,0,0,0,0,0,31,0,0,31,0,0,0,0,0,0,31,0,0,
0,0,0,31,0,0,0,0,0,0,0,0,0,0,0,0,0,0,0,0,0,0,0,0,0,0,0,0,
0,0,0,0,0,0,0,0,0,0,0,0,0,0,0,0,0,0,0,0,0,0,0,0,0,0,0,0,
0,0,0,0,0,0,0,0,0,31,0,0,0,0,0,0,0,0,0,0,0,0,0,0,0,0,0,0,
0,0,0,0,0,0,0,0,0,0,0,0,0,0,0,0,0,0,0,0,0,0,0,0,0,0,0,0,
0,0,0,0,0,0,0,0,0,0,0,0,0,0,0,0,0,0,0,0,0,0,0,0,0,0,0,0,
0,0,0,0,0,0,0,0,0,0,0,0,0,0,0,0,0,0,31,0,0,0,0,0,0,0,0,0,
0,0,0,0,0,0,0,0,0,0,0,0,0,0,0,0,0,0,0,0,0,0,0,0,0,0,0,0,
0,0,0,0,0,0,0,0,0,0,0,0,0,0,0,0,0,0,0,0,0,0,0,0,0,0,0,0,
0,0,0,0,0,0,0,0,0,0,0,0,0,0,0,0,0,0,0,0,0,0,0,0,0,0,0,0
</data>
 </layer>
 <objectgroup id="16" name="falling">
  <properties>
   <property name="direction" value="down"/>
  </properties>
  <object id="311" name="falling" gid="16" x="450" y="500" width="50" height="50">
   <properties>
    <property name="direction" value="down"/>
   </properties>
  </object>
  <object id="312" name="falling" gid="16" x="600" y="200" width="50" height="50">
   <properties>
    <property name="direction" value="down"/>
   </properties>
  </object>
 </objectgroup>
 <objectgroup id="13" name="platform"/>
 <objectgroup id="14" name="light">
  <object id="288" name="light" gid="119" x="1174.67" y="526.667" width="200" height="200"/>
  <object id="296" name="light" gid="119" x="124" y="273.333" width="200" height="200"/>
  <object id="297" name="light" gid="119" x="73.3333" y="569.333" width="200" height="200"/>
  <object id="301" name="light" gid="119" x="821.333" y="824" width="200" height="200"/>
  <object id="302" name="light" gid="119" x="821.333" y="522.667" width="200" height="200"/>
  <object id="303" name="light" gid="119" x="828" y="225.333" width="200" height="200"/>
  <object id="308" name="light" gid="119" x="524" y="378" width="200" height="200"/>
  <object id="309" name="light" gid="119" x="675" y="523" width="200" height="200"/>
  <object id="310" name="light" gid="119" x="374" y="674" width="200" height="200"/>
  <object id="358" name="light" gid="119" x="274" y="426.667" width="200" height="200"/>
 </objectgroup>
 <objectgroup id="7" name="trampoline">
  <object id="357" name="trampoline" gid="89" x="350" y="200" width="50" height="50"/>
 </objectgroup>
 <objectgroup id="9" name="spike-normal"/>
 <objectgroup id="8" name="save"/>
 <objectgroup id="10" name="laser">
  <object id="276" name="laser" gid="101" x="1100" y="250" width="50" height="50">
   <properties>
    <property name="direction" value="h"/>
   </properties>
  </object>
  <object id="277" name="laser" gid="101" x="1150" y="250" width="50" height="50">
   <properties>
    <property name="direction" value="h"/>
   </properties>
  </object>
  <object id="278" name="laser" gid="107" x="1200" y="550" width="50" height="50">
   <properties>
    <property name="direction" value="v"/>
   </properties>
  </object>
  <object id="282" name="laser" gid="107" x="1200" y="600" width="50" height="50">
   <properties>
    <property name="direction" value="v"/>
   </properties>
  </object>
  <object id="284" name="laser" gid="113" x="1200" y="650" width="50" height="50">
   <properties>
    <property name="direction" value="voff"/>
   </properties>
  </object>
  <object id="285" name="laser" gid="113" x="1200" y="700" width="50" height="50">
   <properties>
    <property name="direction" value="voff"/>
   </properties>
  </object>
  <object id="286" name="laser" gid="115" x="1000" y="250" width="50" height="50">
   <properties>
    <property name="direction" value="hoff"/>
   </properties>
  </object>
  <object id="287" name="laser" gid="115" x="1050" y="250" width="50" height="50">
   <properties>
    <property name="direction" value="hoff"/>
   </properties>
  </object>
 </objectgroup>
 <objectgroup id="11" name="bg">
  <properties>
   <property name="bgName" value="castleBG"/>
  </properties>
 </objectgroup>
 <objectgroup id="20" name="shaders">
  <properties>
   <property name="shaderName" value="castle"/>
  </properties>
 </objectgroup>
 <objectgroup id="12" name="mapEffect">
  <properties>
   <property name="effectType" value="none"/>
  </properties>
 </objectgroup>
 <objectgroup id="15" name="music">
  <properties>
   <property name="songName" value="castle1"/>
  </properties>
 </objectgroup>
 <objectgroup id="19" name="warps">
  <object id="314" name="warp" gid="124" x="0" y="300" width="50" height="50">
   <properties>
    <property name="direction" value="left"/>
    <property name="target" value="map13"/>
   </properties>
  </object>
  <object id="315" name="warp" gid="124" x="0" y="350" width="50" height="50">
   <properties>
    <property name="direction" value="left"/>
    <property name="target" value="map13"/>
   </properties>
  </object>
  <object id="316" name="warp" gid="124" x="0" y="400" width="50" height="50">
   <properties>
    <property name="direction" value="left"/>
    <property name="target" value="map13"/>
   </properties>
  </object>
  <object id="317" name="warp" gid="121" x="300" y="50" width="50" height="50">
   <properties>
    <property name="direction" value="up"/>
    <property name="target" value="map14a"/>
   </properties>
  </object>
  <object id="318" name="warp" gid="121" x="350" y="50" width="50" height="50">
   <properties>
    <property name="direction" value="up"/>
    <property name="target" value="map14a"/>
   </properties>
  </object>
  <object id="319" name="warp" gid="121" x="400" y="50" width="50" height="50">
   <properties>
    <property name="direction" value="up"/>
    <property name="target" value="map14a"/>
   </properties>
  </object>
  <object id="320" name="warp" gid="121" x="450" y="50" width="50" height="50">
   <properties>
    <property name="direction" value="up"/>
    <property name="target" value="map14a"/>
   </properties>
  </object>
  <object id="321" name="warp" gid="121" x="500" y="50" width="50" height="50">
   <properties>
    <property name="direction" value="up"/>
    <property name="target" value="map14a"/>
   </properties>
  </object>
  <object id="322" name="warp" gid="121" x="550" y="50" width="50" height="50">
   <properties>
    <property name="direction" value="up"/>
    <property name="target" value="map14a"/>
   </properties>
  </object>
  <object id="323" name="warp" gid="121" x="650" y="50" width="50" height="50">
   <properties>
    <property name="direction" value="up"/>
    <property name="target" value="map14a"/>
   </properties>
  </object>
  <object id="324" name="warp" gid="121" x="700" y="50" width="50" height="50">
   <properties>
    <property name="direction" value="up"/>
    <property name="target" value="map14a"/>
   </properties>
  </object>
  <object id="325" name="warp" gid="121" x="600" y="50" width="50" height="50">
   <properties>
    <property name="direction" value="up"/>
    <property name="target" value="map14a"/>
   </properties>
  </object>
  <object id="326" name="warp" gid="121" x="750" y="50" width="50" height="50">
   <properties>
    <property name="direction" value="up"/>
    <property name="target" value="map14a"/>
   </properties>
  </object>
  <object id="327" name="warp" gid="121" x="800" y="50" width="50" height="50">
   <properties>
    <property name="direction" value="up"/>
    <property name="target" value="map14a"/>
   </properties>
  </object>
  <object id="328" name="warp" gid="121" x="1000" y="50" width="50" height="50">
   <properties>
    <property name="direction" value="up"/>
    <property name="target" value="map14a"/>
   </properties>
  </object>
  <object id="329" name="warp" gid="121" x="1050" y="50" width="50" height="50">
   <properties>
    <property name="direction" value="up"/>
    <property name="target" value="map14a"/>
   </properties>
  </object>
  <object id="330" name="warp" gid="121" x="1150" y="50" width="50" height="50">
   <properties>
    <property name="direction" value="up"/>
    <property name="target" value="map14a"/>
   </properties>
  </object>
  <object id="331" name="warp" gid="121" x="1150" y="50" width="50" height="50">
   <properties>
    <property name="direction" value="up"/>
    <property name="target" value="map14a"/>
   </properties>
  </object>
  <object id="332" name="warp" gid="121" x="1100" y="50" width="50" height="50">
   <properties>
    <property name="direction" value="up"/>
    <property name="target" value="map14a"/>
   </properties>
  </object>
  <object id="335" name="warp" gid="123" x="250" y="900" width="50" height="50">
   <properties>
    <property name="direction" value="down"/>
    <property name="target" value="map14b"/>
   </properties>
  </object>
  <object id="336" name="warp" gid="123" x="300" y="900" width="50" height="50">
   <properties>
    <property name="direction" value="down"/>
    <property name="target" value="map14b"/>
   </properties>
  </object>
  <object id="337" name="warp" gid="123" x="350" y="900" width="50" height="50">
   <properties>
    <property name="direction" value="down"/>
    <property name="target" value="map14b"/>
   </properties>
  </object>
  <object id="338" name="warp" gid="123" x="400" y="900" width="50" height="50">
   <properties>
    <property name="direction" value="down"/>
    <property name="target" value="map14b"/>
   </properties>
  </object>
  <object id="339" name="warp" gid="123" x="400" y="900" width="50" height="50">
   <properties>
    <property name="direction" value="down"/>
    <property name="target" value="map14b"/>
   </properties>
  </object>
  <object id="340" name="warp" gid="123" x="450" y="900" width="50" height="50">
   <properties>
    <property name="direction" value="down"/>
    <property name="target" value="map14b"/>
   </properties>
  </object>
  <object id="341" name="warp" gid="123" x="500" y="900" width="50" height="50">
   <properties>
    <property name="direction" value="down"/>
    <property name="target" value="map14b"/>
   </properties>
  </object>
  <object id="342" name="warp" gid="123" x="550" y="900" width="50" height="50">
   <properties>
    <property name="direction" value="down"/>
    <property name="target" value="map14b"/>
   </properties>
  </object>
  <object id="343" name="warp" gid="123" x="600" y="900" width="50" height="50">
   <properties>
    <property name="direction" value="down"/>
    <property name="target" value="map14b"/>
   </properties>
  </object>
  <object id="344" name="warp" gid="123" x="650" y="900" width="50" height="50">
   <properties>
    <property name="direction" value="down"/>
    <property name="target" value="map14b"/>
   </properties>
  </object>
  <object id="345" name="warp" gid="123" x="750" y="900" width="50" height="50">
   <properties>
    <property name="direction" value="down"/>
    <property name="target" value="map14b"/>
   </properties>
  </object>
  <object id="346" name="warp" gid="123" x="750" y="900" width="50" height="50">
   <properties>
    <property name="direction" value="down"/>
    <property name="target" value="map14b"/>
   </properties>
  </object>
  <object id="347" name="warp" gid="123" x="750" y="900" width="50" height="50">
   <properties>
    <property name="direction" value="down"/>
    <property name="target" value="map14b"/>
   </properties>
  </object>
  <object id="348" name="warp" gid="123" x="700" y="900" width="50" height="50">
   <properties>
    <property name="direction" value="down"/>
    <property name="target" value="map14b"/>
   </properties>
  </object>
  <object id="349" name="warp" gid="123" x="800" y="900" width="50" height="50">
   <properties>
    <property name="direction" value="down"/>
    <property name="target" value="map14b"/>
   </properties>
  </object>
  <object id="350" name="warp" gid="122" x="1350" y="550" width="50" height="50">
   <properties>
    <property name="direction" value="right"/>
    <property name="target" value="map15"/>
   </properties>
  </object>
  <object id="351" name="warp" gid="122" x="1350" y="600" width="50" height="50">
   <properties>
    <property name="direction" value="right"/>
    <property name="target" value="map15"/>
   </properties>
  </object>
  <object id="352" name="warp" gid="122" x="1350" y="650" width="50" height="50">
   <properties>
    <property name="direction" value="right"/>
    <property name="target" value="map15"/>
   </properties>
  </object>
  <object id="353" name="warp" gid="122" x="1350" y="700" width="50" height="50">
   <properties>
    <property name="direction" value="right"/>
    <property name="target" value="map15"/>
   </properties>
  </object>
  <object id="359" name="warp" gid="123" x="1000" y="900" width="50" height="50">
   <properties>
    <property name="direction" value="down"/>
    <property name="target" value="map14b"/>
   </properties>
  </object>
  <object id="360" name="warp" gid="123" x="1100" y="900" width="50" height="50">
   <properties>
    <property name="direction" value="down"/>
    <property name="target" value="map14b"/>
   </properties>
  </object>
  <object id="361" name="warp" gid="123" x="1100" y="900" width="50" height="50">
   <properties>
    <property name="direction" value="down"/>
    <property name="target" value="map14b"/>
   </properties>
  </object>
  <object id="362" name="warp" gid="123" x="1100" y="900" width="50" height="50">
   <properties>
    <property name="direction" value="down"/>
    <property name="target" value="map14b"/>
   </properties>
  </object>
  <object id="363" name="warp" gid="123" x="1050" y="900" width="50" height="50">
   <properties>
    <property name="direction" value="down"/>
    <property name="target" value="map14b"/>
   </properties>
  </object>
  <object id="364" name="warp" gid="123" x="1150" y="900" width="50" height="50">
   <properties>
    <property name="direction" value="down"/>
    <property name="target" value="map14b"/>
   </properties>
  </object>
 </objectgroup>
</map>
