<?xml version="1.0" encoding="UTF-8"?>
<map version="1.10" tiledversion="1.12.1" orientation="orthogonal" renderorder="right-down" width="28" height="18" tilewidth="50" tileheight="50" infinite="0" nextlayerid="21" nextobjectid="385">
 <properties>
  <property name="songName" value="castle1"/>
 </properties>
 <tileset firstgid="1" source="ch1-tiles.tsx"/>
 <tileset firstgid="89" source="../../textures/trampoline.tsx"/>
 <tileset firstgid="92" source="../../textures/save.tsx"/>
 <tileset firstgid="93" source="../../textures/spike.tsx"/>
 <tileset firstgid="101" source="../../textures/laser.tsx"/>
 <tileset firstgid="119" source="../../textures/light.tsx"/>
 <tileset firstgid="121" source="../../textures/transition-tiles.tsx"/>
 <layer id="1" name="tiles-main" width="28" height="18">
  <data encoding="csv">
0,0,0,0,0,0,0,0,0,0,0,0,0,0,0,0,0,0,0,0,0,0,0,0,0,0,0,0,
0,0,0,0,0,0,0,0,0,0,0,0,0,0,0,0,0,0,0,0,0,0,0,0,0,0,0,0,
0,0,0,0,0,1,1,1,1,1,1,1,0,1,1,1,1,1,1,1,1,1,0,0,0,0,0,0,
0,0,0,0,0,1,7,0,0,0,0,7,1,1,0,0,0,0,0,0,0,1,0,0,0,0,0,0,
0,0,0,0,0,1,0,0,0,0,0,0,0,0,0,0,0,0,0,0,0,1,0,0,0,0,0,0,
0,0,0,0,0,1,0,0,0,0,0,0,0,0,1,0,1,7,0,0,0,7,0,0,0,0,0,0,
0,0,0,0,0,1,0,0,0,0,0,0,0,0,1,0,9,1,0,0,0,1,0,0,0,0,0,0,
0,0,0,0,0,1,0,0,0,0,0,7,0,1,1,0,9,1,0,0,0,1,0,0,0,0,0,0,
0,0,0,0,0,1,0,0,0,0,0,1,0,9,9,0,9,1,0,0,0,1,0,0,0,0,0,0,
1,1,1,1,1,1,7,0,0,0,0,1,0,9,9,0,9,7,0,0,0,7,1,1,1,1,1,1,
0,0,0,0,0,0,0,0,0,0,0,1,0,9,9,0,9,1,0,0,0,0,0,0,0,0,0,0,
0,0,0,0,0,0,0,0,0,0,0,1,0,9,9,0,9,1,0,0,0,0,0,0,0,0,0,0,
0,0,0,0,0,0,0,0,0,0,0,1,0,9,9,0,9,1,0,0,0,0,0,0,0,0,0,0,
0,0,0,0,0,0,0,0,0,0,0,1,0,9,9,0,9,1,0,0,0,0,0,0,0,0,0,0,
1,1,1,1,1,1,7,1,1,1,1,1,0,9,9,0,9,7,0,0,0,0,7,1,1,1,1,1,
0,0,0,0,0,0,0,0,0,0,0,9,0,9,9,0,9,1,1,1,1,1,1,0,0,0,0,0,
0,0,0,0,0,0,0,0,0,0,0,9,0,9,9,0,9,0,0,0,0,0,0,0,0,0,0,0,
0,0,0,0,0,0,0,0,0,0,0,9,0,9,9,0,9,0,0,0,0,0,0,0,0,0,0,0
</data>
 </layer>
 <layer id="5" name="tiles-deco" width="28" height="18">
  <data encoding="csv">
9,9,9,9,9,9,9,9,9,9,9,9,9,9,9,9,9,9,9,9,9,9,9,9,9,9,9,9,
9,9,9,9,9,9,9,9,9,9,9,9,9,9,9,9,9,9,9,9,9,9,9,9,9,9,9,9,
9,9,9,9,9,0,0,0,0,0,0,0,9,0,0,0,0,0,0,0,0,0,9,9,9,9,9,9,
9,9,9,9,9,0,0,0,0,0,0,0,0,0,83,0,0,0,0,0,0,0,9,9,9,9,9,9,
9,9,9,9,9,0,0,0,0,0,0,0,0,0,83,0,83,0,0,0,0,0,9,9,9,9,9,9,
9,9,9,9,9,0,0,0,0,0,0,0,0,0,0,9,0,0,0,0,0,0,9,9,9,9,9,9,
9,9,9,9,9,0,0,0,0,0,0,0,0,0,0,9,0,0,0,0,0,0,9,9,9,9,9,9,
9,9,9,9,9,0,0,0,0,0,0,0,9,0,0,9,0,0,0,0,0,0,9,9,9,9,9,9,
9,9,9,9,9,0,0,0,0,0,0,0,9,0,0,9,0,0,0,0,0,0,9,9,9,9,9,9,
0,0,0,0,0,0,0,0,0,0,0,0,9,0,0,9,0,0,0,0,0,0,0,0,0,0,0,0,
0,0,0,0,0,0,0,0,0,0,0,0,9,0,0,9,0,0,0,0,0,0,0,0,0,0,0,0,
0,0,0,0,0,0,0,0,0,0,0,0,9,0,0,9,0,0,0,0,0,0,0,0,0,0,0,0,
0,0,0,0,0,0,0,0,0,0,83,0,9,0,0,9,0,0,0,0,0,0,0,0,0,0,0,0,
0,0,0,0,0,0,0,0,0,83,83,0,9,0,0,9,0,0,83,0,0,0,0,0,0,0,0,0,
0,0,0,0,0,0,0,0,0,0,0,0,9,0,0,9,0,0,83,83,0,0,0,0,0,0,0,0,
9,9,9,9,9,9,9,9,9,9,9,0,9,0,0,9,0,0,0,0,0,0,0,9,9,9,9,9,
9,9,9,9,9,9,9,9,9,9,9,0,9,0,0,9,9,9,9,9,9,9,9,9,9,9,9,9,
9,9,9,9,9,9,9,9,9,9,9,0,9,0,9,9,9,9,9,9,9,9,9,9,9,9,9,9
</data>
 </layer>
 <layer id="18" name="tiles-deco2" width="28" height="18">
  <data encoding="csv">
0,0,0,0,0,0,0,0,0,0,0,0,0,0,0,0,0,0,0,0,0,0,0,0,0,0,0,0,
0,0,0,0,0,0,0,0,0,0,0,0,0,0,0,0,0,0,0,0,0,0,31,0,0,0,0,0,
0,0,0,0,0,0,0,0,0,0,0,0,31,0,0,0,0,0,0,0,0,0,0,0,0,0,0,0,
0,0,0,0,0,0,0,0,0,0,0,0,0,0,0,0,0,0,0,0,0,0,0,0,0,0,0,0,
0,0,0,0,0,0,0,0,0,0,0,0,0,0,0,0,0,0,0,0,0,0,0,0,0,0,0,0,
0,0,0,0,0,0,0,0,0,0,0,0,0,0,0,0,0,0,0,0,0,0,0,0,0,0,0,0,
0,0,0,0,0,0,0,0,0,0,0,0,0,0,0,0,0,0,0,0,0,0,0,0,0,0,0,0,
0,0,0,0,0,0,0,0,0,0,0,0,0,0,0,0,0,0,0,0,0,0,0,0,0,0,0,0,
0,0,0,0,31,0,0,0,0,0,0,0,0,0,0,0,0,0,0,0,0,0,31,0,0,0,0,0,
0,0,0,0,0,0,0,0,0,0,0,0,0,0,31,0,0,0,0,0,0,0,0,0,0,0,0,0,
0,0,0,0,0,0,0,0,0,0,0,0,0,0,0,0,0,0,0,0,0,0,0,0,0,0,0,0,
0,0,0,0,0,0,0,0,0,0,0,0,0,0,0,0,0,0,0,0,0,0,0,0,0,0,0,0,
0,0,0,0,0,0,0,0,0,0,0,0,0,0,0,0,0,0,0,0,0,0,0,0,0,0,0,0,
0,0,0,0,0,0,0,0,0,0,0,0,0,0,31,0,0,0,0,0,0,0,0,0,0,0,0,0,
0,0,0,0,0,0,0,0,0,0,0,0,0,0,0,0,0,0,0,0,0,0,0,0,0,0,0,0,
0,0,0,0,0,0,31,0,0,0,0,0,0,0,0,0,0,0,0,0,0,0,0,31,0,0,0,0,
0,0,0,0,0,0,0,0,0,0,0,0,0,0,0,0,0,0,0,0,0,0,0,0,0,0,0,0,
0,0,0,0,0,0,0,0,0,0,0,0,0,0,0,0,0,0,0,0,0,0,0,0,0,0,0,0
</data>
 </layer>
 <objectgroup id="16" name="falling">
  <properties>
   <property name="direction" value="down"/>
  </properties>
  <object id="369" name="falling" gid="16" x="600" y="400" width="50" height="50">
   <properties>
    <property name="direction" value="down"/>
   </properties>
  </object>
  <object id="372" name="falling" gid="16" x="750" y="300" width="50" height="50">
   <properties>
    <property name="direction" value="down"/>
   </properties>
  </object>
 </objectgroup>
 <objectgroup id="13" name="platform">
  <object id="314" name="platform" gid="27" x="400" y="650" width="50" height="50">
   <properties>
    <property name="direction" value="up"/>
   </properties>
  </object>
  <object id="315" name="platform" gid="29" x="950" y="300" width="50" height="50">
   <properties>
    <property name="direction" value="down"/>
   </properties>
  </object>
 </objectgroup>
 <objectgroup id="14" name="light">
  <object id="358" name="light" gid="119" x="228" y="872" width="200" height="200"/>
  <object id="359" name="light" gid="119" x="125.333" y="528" width="200" height="200"/>
  <object id="360" name="light" gid="119" x="1022.67" y="173.333" width="200" height="200"/>
  <object id="361" name="light" gid="119" x="624" y="570.667" width="200" height="200"/>
  <object id="362" name="light" gid="119" x="1026.67" y="528" width="200" height="200"/>
  <object id="363" name="light" gid="119" x="626.667" y="774.667" width="200" height="200"/>
  <object id="364" name="light" gid="119" x="1076" y="873.333" width="200" height="200"/>
  <object id="384" name="light" gid="119" x="525" y="221" width="200" height="200"/>
 </objectgroup>
 <objectgroup id="7" name="trampoline"/>
 <objectgroup id="9" name="spike-normal">
  <object id="357" name="spike" gid="93" x="850" y="250" width="50" height="50">
   <properties>
    <property name="id" value="0"/>
   </properties>
  </object>
  <object id="370" name="spike" gid="99" x="600" y="840" width="50" height="50">
   <properties>
    <property name="id" value="6"/>
   </properties>
  </object>
  <object id="371" name="spike" gid="99" x="750" y="840" width="50" height="50">
   <properties>
    <property name="id" value="6"/>
   </properties>
  </object>
 </objectgroup>
 <objectgroup id="8" name="save">
  <object id="365" name="save" gid="92" x="200" y="600" width="50" height="50"/>
 </objectgroup>
 <objectgroup id="10" name="laser">
  <object id="316" name="laser" gid="101" x="350" y="200" width="50" height="50">
   <properties>
    <property name="direction" value="h"/>
   </properties>
  </object>
  <object id="317" name="laser" gid="101" x="400" y="200" width="50" height="50">
   <properties>
    <property name="direction" value="h"/>
   </properties>
  </object>
  <object id="318" name="laser" gid="101" x="500" y="200" width="50" height="50">
   <properties>
    <property name="direction" value="h"/>
   </properties>
  </object>
  <object id="319" name="laser" gid="101" x="450" y="200" width="50" height="50">
   <properties>
    <property name="direction" value="h"/>
   </properties>
  </object>
  <object id="320" name="laser" gid="107" x="550" y="350" width="50" height="50">
   <properties>
    <property name="direction" value="v"/>
   </properties>
  </object>
  <object id="322" name="laser" gid="101" x="900" y="300" width="50" height="50">
   <properties>
    <property name="direction" value="h"/>
   </properties>
  </object>
  <object id="323" name="laser" gid="101" x="1000" y="300" width="50" height="50">
   <properties>
    <property name="direction" value="h"/>
   </properties>
  </object>
  <object id="324" name="laser" gid="115" x="950" y="300" width="50" height="50">
   <properties>
    <property name="direction" value="hoff"/>
   </properties>
  </object>
  <object id="325" name="laser" gid="101" x="950" y="500" width="50" height="50">
   <properties>
    <property name="direction" value="h"/>
   </properties>
  </object>
  <object id="326" name="laser" gid="115" x="900" y="500" width="50" height="50">
   <properties>
    <property name="direction" value="hoff"/>
   </properties>
  </object>
  <object id="327" name="laser" gid="115" x="1000" y="500" width="50" height="50">
   <properties>
    <property name="direction" value="hoff"/>
   </properties>
  </object>
  <object id="328" name="laser" gid="101" x="900" y="750" width="50" height="50">
   <properties>
    <property name="direction" value="h"/>
   </properties>
  </object>
  <object id="329" name="laser" gid="101" x="950" y="750" width="50" height="50">
   <properties>
    <property name="direction" value="h"/>
   </properties>
  </object>
  <object id="330" name="laser" gid="101" x="1000" y="750" width="50" height="50">
   <properties>
    <property name="direction" value="h"/>
   </properties>
  </object>
  <object id="331" name="laser" gid="101" x="1050" y="750" width="50" height="50">
   <properties>
    <property name="direction" value="h"/>
   </properties>
  </object>
  <object id="336" name="laser" gid="113" x="550" y="300" width="50" height="50">
   <properties>
    <property name="direction" value="voff"/>
   </properties>
  </object>
  <object id="337" name="laser" gid="113" x="550" y="250" width="50" height="50">
   <properties>
    <property name="direction" value="voff"/>
   </properties>
  </object>
  <object id="338" name="laser" gid="107" x="300" y="450" width="50" height="50">
   <properties>
    <property name="direction" value="v"/>
   </properties>
  </object>
  <object id="339" name="laser" gid="107" x="300" y="400" width="50" height="50">
   <properties>
    <property name="direction" value="v"/>
   </properties>
  </object>
  <object id="340" name="laser" gid="107" x="300" y="350" width="50" height="50">
   <properties>
    <property name="direction" value="v"/>
   </properties>
  </object>
  <object id="341" name="laser" gid="107" x="300" y="300" width="50" height="50">
   <properties>
    <property name="direction" value="v"/>
   </properties>
  </object>
  <object id="342" name="laser" gid="107" x="300" y="250" width="50" height="50">
   <properties>
    <property name="direction" value="v"/>
   </properties>
  </object>
  <object id="349" name="laser" gid="113" x="300" y="550" width="50" height="50">
   <properties>
    <property name="direction" value="voff"/>
   </properties>
  </object>
  <object id="351" name="laser" gid="113" x="300" y="600" width="50" height="50">
   <properties>
    <property name="direction" value="voff"/>
   </properties>
  </object>
  <object id="367" name="laser" gid="107" x="300" y="700" width="50" height="50">
   <properties>
    <property name="direction" value="v"/>
   </properties>
  </object>
  <object id="368" name="laser" gid="107" x="300" y="650" width="50" height="50">
   <properties>
    <property name="direction" value="v"/>
   </properties>
  </object>
 </objectgroup>
 <objectgroup id="20" name="shaders">
  <properties>
   <property name="shaderName" value="castle"/>
  </properties>
 </objectgroup>
 <objectgroup id="11" name="bg">
  <properties>
   <property name="bgName" value="castleBG"/>
  </properties>
 </objectgroup>
 <objectgroup id="12" name="mapEffect">
  <properties>
   <property name="effectType" value="none"/>
  </properties>
 </objectgroup>
 <objectgroup id="15" name="music">
  <properties>
   <property name="songName" value="castle1"/>
  </properties>
 </objectgroup>
 <objectgroup id="19" name="warps">
  <object id="375" name="warp" gid="124" x="0" y="550" width="50" height="50">
   <properties>
    <property name="direction" value="left"/>
    <property name="target" value="map14"/>
   </properties>
  </object>
  <object id="376" name="warp" gid="124" x="0" y="600" width="50" height="50">
   <properties>
    <property name="direction" value="left"/>
    <property name="target" value="map14"/>
   </properties>
  </object>
  <object id="377" name="warp" gid="124" x="0" y="700" width="50" height="50">
   <properties>
    <property name="direction" value="left"/>
    <property name="target" value="map14"/>
   </properties>
  </object>
  <object id="378" name="warp" gid="124" x="0" y="700" width="50" height="50">
   <properties>
    <property name="direction" value="left"/>
    <property name="target" value="map14"/>
   </properties>
  </object>
  <object id="379" name="warp" gid="124" x="0" y="650" width="50" height="50">
   <properties>
    <property name="direction" value="left"/>
    <property name="target" value="map14"/>
   </properties>
  </object>
  <object id="380" name="warp" gid="122" x="1350" y="550" width="50" height="50">
   <properties>
    <property name="direction" value="right"/>
    <property name="target" value="map16"/>
   </properties>
  </object>
  <object id="381" name="warp" gid="122" x="1350" y="600" width="50" height="50">
   <properties>
    <property name="direction" value="right"/>
    <property name="target" value="map16"/>
   </properties>
  </object>
  <object id="382" name="warp" gid="122" x="1350" y="650" width="50" height="50">
   <properties>
    <property name="direction" value="right"/>
    <property name="target" value="map16"/>
   </properties>
  </object>
  <object id="383" name="warp" gid="122" x="1350" y="700" width="50" height="50">
   <properties>
    <property name="direction" value="right"/>
    <property name="target" value="map16"/>
   </properties>
  </object>
 </objectgroup>
</map>
