<?xml version="1.0" encoding="UTF-8"?>
<map version="1.10" tiledversion="1.12.1" orientation="orthogonal" renderorder="right-down" width="60" height="18" tilewidth="50" tileheight="50" infinite="0" nextlayerid="27" nextobjectid="623">
 <properties>
  <property name="songName" value="castle1"/>
 </properties>
 <tileset firstgid="1" source="ch1-tiles.tsx"/>
 <tileset firstgid="89" source="../../textures/trampoline.tsx"/>
 <tileset firstgid="92" source="../../textures/save.tsx"/>
 <tileset firstgid="93" source="../../textures/spike.tsx"/>
 <tileset firstgid="101" source="../../textures/laser.tsx"/>
 <tileset firstgid="119" source="../../textures/light.tsx"/>
 <tileset firstgid="121" source="../../textures/transition-tiles.tsx"/>
 <layer id="1" name="tiles-main" width="60" height="18">
  <data encoding="csv">
1,0,0,0,0,0,0,0,0,0,0,0,0,0,0,0,0,0,0,0,0,0,0,0,0,0,0,0,0,0,0,0,0,0,0,0,0,0,0,0,0,0,0,0,0,0,0,0,0,0,0,0,0,0,0,0,0,0,0,0,
1,0,0,0,0,0,0,0,0,0,0,0,0,0,0,0,0,0,0,0,0,0,0,0,0,0,0,0,0,0,0,0,0,0,0,0,0,0,0,0,0,0,0,0,0,0,0,0,0,0,0,0,0,0,0,0,0,0,0,0,
1,0,0,0,0,0,0,0,0,0,0,0,0,0,0,0,0,0,0,0,0,0,0,0,0,0,0,0,0,0,0,0,0,0,0,0,0,0,0,0,0,0,0,0,0,0,0,0,0,0,0,0,0,0,0,0,0,0,0,0,
1,0,0,0,0,0,0,0,0,0,0,0,0,0,0,0,0,0,0,0,0,0,0,0,0,0,0,0,0,0,0,0,0,0,0,0,0,0,0,0,0,0,0,0,0,0,0,0,0,0,0,0,0,0,0,0,0,0,0,0,
1,0,0,0,0,0,0,0,0,0,0,0,0,0,0,0,0,0,0,0,0,0,0,0,0,0,0,0,0,0,0,0,0,0,0,0,0,0,0,0,0,0,0,0,0,0,0,0,0,0,0,0,0,0,0,0,0,0,0,0,
1,0,0,0,0,0,0,0,0,0,0,0,0,0,0,0,0,0,0,0,0,0,0,0,0,0,0,0,0,0,0,0,0,0,0,0,0,0,0,0,0,0,0,0,0,0,0,0,0,0,0,0,0,0,0,0,0,0,0,0,
1,0,0,0,0,0,0,0,0,0,0,0,0,0,0,0,0,0,0,0,0,0,0,0,0,0,0,0,0,0,0,0,0,0,0,0,0,0,0,0,0,0,0,0,0,0,0,0,0,0,0,0,0,0,0,0,0,0,0,0,
1,0,0,0,0,0,0,0,0,0,0,0,0,0,0,0,0,0,0,0,0,0,0,0,0,0,0,0,0,0,0,0,0,0,0,0,0,0,0,0,0,0,0,0,0,0,0,0,0,0,0,0,0,0,0,0,0,0,0,0,
1,0,0,0,0,0,0,0,0,0,0,0,0,0,0,0,0,0,0,0,0,0,0,0,0,0,0,0,0,0,0,0,0,0,0,0,0,0,0,0,0,0,0,0,0,0,0,0,0,0,0,0,0,0,0,0,0,0,0,0,
1,0,0,0,0,0,0,0,0,0,0,0,0,0,0,0,0,0,0,0,0,0,0,0,0,0,0,0,0,0,0,0,0,0,0,0,0,0,0,0,0,0,0,81,0,0,0,0,0,0,0,0,0,0,0,0,0,0,0,0,
1,0,0,0,0,0,0,0,81,0,0,0,1,1,1,1,1,1,1,81,0,0,0,0,0,0,0,0,0,0,0,0,0,0,0,0,0,0,0,0,0,0,0,1,1,1,1,1,1,1,1,1,1,1,1,1,1,1,1,1,
1,0,0,0,0,0,0,0,81,81,0,0,1,0,0,0,0,0,1,81,81,0,0,0,0,0,0,0,0,0,0,0,0,0,0,0,0,81,81,1,1,1,1,1,0,0,0,0,0,0,0,0,0,0,0,0,0,0,0,0,
1,1,1,1,1,1,1,1,1,1,1,1,1,0,0,0,0,0,1,1,1,1,1,1,1,1,1,0,0,0,0,0,1,1,1,1,1,1,1,1,0,0,0,0,0,0,0,0,0,0,0,0,0,0,0,0,0,0,0,0,
0,0,0,0,0,0,0,0,0,0,0,0,0,0,0,0,0,0,0,0,0,0,0,0,0,0,1,0,0,0,0,0,1,0,0,0,0,0,0,0,0,0,0,0,0,0,0,0,0,0,0,0,0,0,0,0,0,0,0,0,
0,0,0,0,0,0,0,0,0,0,0,0,0,0,0,0,0,0,0,0,0,0,0,0,0,0,1,0,0,0,0,0,1,0,0,0,0,0,0,0,0,0,0,0,0,0,0,0,0,0,0,0,0,0,0,0,0,0,0,0,
0,0,0,0,0,0,0,0,0,0,0,0,0,0,0,0,0,0,0,0,0,0,0,0,0,0,1,0,0,0,0,0,1,0,0,0,0,0,0,0,0,0,0,0,0,0,0,0,0,0,0,0,0,0,0,0,0,0,0,0,
0,0,0,0,0,0,0,0,0,0,0,0,0,0,0,0,0,0,0,0,0,0,0,0,0,0,1,0,0,0,0,0,1,0,0,0,0,0,0,0,0,0,0,0,0,0,0,0,0,0,0,0,0,0,0,0,0,0,0,0,
0,0,0,0,0,0,0,0,0,0,0,0,0,0,0,0,0,0,0,0,0,0,0,0,0,0,1,0,0,0,0,0,1,0,0,0,0,0,0,0,0,0,0,0,0,0,0,0,0,0,0,0,0,0,0,0,0,0,0,0
</data>
 </layer>
 <layer id="5" name="tiles-deco" width="60" height="18">
  <data encoding="csv">
0,78,78,78,78,78,78,78,78,78,78,78,78,78,78,78,78,78,78,78,78,78,78,78,78,78,78,78,78,78,86,0,87,78,78,78,78,78,78,78,78,78,78,78,78,78,78,78,78,78,78,78,78,78,78,78,78,78,78,78,
0,78,78,78,78,78,78,78,78,78,78,78,78,78,78,78,78,78,78,78,78,78,78,78,78,78,78,78,78,78,86,0,87,78,78,78,78,78,78,78,78,78,78,78,78,78,78,78,78,78,78,78,78,78,78,78,78,78,78,78,
0,78,78,78,78,78,78,78,78,78,78,78,78,0,0,0,0,0,78,78,78,78,78,78,78,78,78,78,78,79,0,0,87,78,78,78,78,78,78,78,78,78,78,78,78,78,78,78,78,78,0,0,0,0,0,78,78,78,78,78,
0,78,78,78,78,78,78,78,78,78,78,78,78,0,0,0,0,0,78,78,78,78,78,78,78,78,78,78,79,0,0,0,0,80,78,78,78,78,78,78,78,78,78,78,78,78,78,78,78,78,0,0,0,0,0,78,78,78,78,78,
0,78,78,78,78,78,78,78,78,78,78,78,78,0,0,0,0,0,78,78,78,78,78,78,78,78,78,78,86,0,0,0,0,0,80,78,78,78,78,78,78,78,78,78,78,78,78,78,78,78,0,0,0,0,0,78,78,78,78,78,
0,78,78,78,78,78,78,78,78,78,78,78,78,0,0,0,0,0,78,78,78,78,78,78,78,78,78,79,0,0,0,0,0,0,0,80,78,78,78,78,78,78,78,78,78,78,78,78,78,78,0,0,0,0,0,78,78,78,78,78,
0,78,78,78,78,78,78,78,78,78,78,78,78,0,0,0,0,0,78,78,78,78,78,78,78,78,78,0,0,0,0,0,0,0,0,87,78,78,78,78,78,78,78,78,78,78,78,78,78,78,0,0,0,0,0,78,78,78,78,78,
0,78,78,78,78,78,78,78,78,78,78,78,78,0,0,0,0,0,78,78,78,78,78,78,78,78,79,0,0,0,0,0,0,0,0,0,80,78,78,78,78,78,78,78,78,78,78,78,78,78,0,0,0,0,0,78,78,78,78,78,
0,78,78,78,78,78,78,78,78,78,78,78,78,78,78,78,78,78,78,78,78,78,78,78,78,78,86,0,0,0,0,0,0,0,0,0,0,80,78,78,78,78,78,83,78,78,78,78,78,78,78,78,78,78,78,78,78,78,78,78,
0,78,78,78,78,78,78,78,78,78,78,78,78,78,78,78,78,78,78,78,78,78,78,78,78,78,86,0,0,0,0,0,0,0,0,0,0,87,78,78,78,78,83,0,83,78,78,78,78,78,78,78,78,78,78,78,78,78,78,78,
0,78,78,78,78,78,78,78,0,78,78,78,0,0,0,0,0,0,0,0,78,78,78,78,78,79,0,0,0,0,0,0,0,0,0,0,0,0,80,78,78,83,83,0,0,0,0,0,0,0,0,0,0,0,0,0,0,0,0,0,
0,78,78,78,78,78,83,83,0,0,78,78,0,9,9,9,9,9,0,0,0,83,78,78,79,0,0,0,0,0,0,0,0,0,0,0,0,0,0,0,0,0,0,0,9,9,9,9,9,9,9,9,9,9,9,9,9,9,9,9,
0,0,0,0,0,0,0,0,0,0,0,0,0,9,9,9,9,9,0,0,0,0,0,0,0,0,0,0,0,0,0,0,0,0,0,0,0,0,0,0,9,9,9,9,9,9,9,9,9,9,9,9,9,9,9,9,9,9,9,9,
9,9,9,9,9,9,9,9,9,9,9,9,9,9,9,9,9,9,9,9,9,9,9,9,9,9,0,0,0,0,0,0,0,9,9,9,9,9,9,9,9,9,9,9,9,9,9,9,9,9,9,9,9,9,9,9,9,9,9,9,
9,9,9,9,9,9,9,9,9,9,9,9,9,9,9,9,9,9,9,9,9,9,9,9,9,9,0,0,0,0,0,0,0,9,9,9,9,9,9,9,9,9,9,9,9,9,9,9,9,9,9,9,9,9,9,9,9,9,9,9,
9,9,9,9,9,9,9,9,9,9,9,9,9,9,9,9,9,9,9,9,9,9,9,9,9,9,0,0,0,0,0,0,0,9,9,9,9,9,9,9,9,9,9,9,9,9,9,9,9,9,9,9,9,9,9,9,9,9,9,9,
9,9,9,9,9,9,9,9,9,9,9,9,9,9,9,9,9,9,9,9,9,9,9,9,9,9,0,0,0,0,0,0,0,9,9,9,9,9,9,9,9,9,9,9,9,9,9,9,9,9,9,9,9,9,9,9,9,9,9,9,
9,9,9,9,9,9,9,9,9,9,9,9,9,9,9,9,9,9,9,9,9,9,9,9,9,9,0,0,0,0,0,0,0,9,9,9,9,9,9,9,9,9,9,9,9,9,9,9,9,9,9,9,9,9,9,9,9,9,9,9
</data>
 </layer>
 <layer id="18" name="tiles-deco2" width="60" height="18">
  <data encoding="csv">
0,0,0,0,0,0,0,0,0,0,0,0,0,0,0,0,0,0,0,0,0,0,0,0,0,0,0,0,0,0,0,0,0,0,0,0,0,0,0,0,0,0,0,0,0,0,0,0,0,0,0,0,0,0,0,0,0,0,0,0,
0,0,0,0,0,0,0,0,0,0,0,0,31,0,0,0,0,0,31,0,0,0,0,0,0,0,0,0,0,0,0,0,0,0,0,0,0,0,0,0,0,0,0,0,0,0,0,0,0,31,0,0,0,0,0,31,0,0,0,0,
0,0,0,0,0,0,0,0,0,0,0,0,0,0,0,0,0,0,0,0,0,0,0,0,0,0,0,0,0,0,0,0,0,0,0,0,0,0,0,0,0,0,0,0,0,0,0,0,0,0,0,0,0,0,0,0,0,0,0,0,
0,0,0,0,0,0,0,0,0,0,0,0,0,0,0,0,0,0,0,0,0,0,0,0,0,0,0,0,0,0,0,0,0,0,0,0,0,0,0,0,0,0,0,0,0,0,0,0,0,0,0,0,0,0,0,0,0,0,0,0,
0,0,0,0,0,0,0,0,0,0,0,0,0,0,0,0,0,0,0,0,0,0,0,0,0,0,0,0,0,0,0,0,0,0,0,0,0,0,0,0,0,0,0,0,0,0,0,0,0,0,0,0,0,0,0,0,0,0,0,0,
0,0,0,0,0,0,0,0,0,0,0,0,0,0,0,0,0,0,0,0,0,0,0,0,0,0,0,0,0,0,0,0,0,0,0,0,0,0,0,0,0,0,0,0,0,0,0,0,0,0,0,0,0,0,0,0,0,0,0,0,
0,0,0,0,0,0,0,0,0,0,0,0,0,0,0,0,0,0,0,0,0,0,0,0,0,0,0,0,0,0,0,0,0,0,0,0,0,0,0,0,0,0,0,0,0,0,0,0,0,0,0,0,0,0,0,0,0,0,0,0,
0,0,0,0,0,0,0,0,0,0,0,0,0,0,0,0,0,0,0,0,0,0,0,0,0,0,0,0,0,0,0,0,0,0,0,0,0,0,0,0,0,0,0,0,0,0,0,0,0,0,0,0,0,0,0,0,0,0,0,0,
0,0,0,0,0,0,0,0,0,0,0,0,31,0,0,0,0,0,31,0,0,0,0,0,0,0,0,0,0,0,0,0,0,0,0,0,0,0,0,0,0,0,0,0,0,0,0,0,0,31,0,0,0,0,0,31,0,0,0,0,
0,0,0,0,0,0,0,0,0,0,0,0,0,0,0,0,0,0,0,0,0,0,0,0,0,0,0,0,0,0,0,0,0,0,0,0,0,0,0,0,0,0,0,0,0,0,0,0,0,0,0,0,0,0,0,0,0,0,0,0,
0,0,0,0,0,0,0,0,0,0,0,0,0,0,0,0,0,0,0,0,0,0,0,0,0,0,0,0,0,0,0,0,0,0,0,0,0,0,0,0,0,0,0,0,0,0,0,0,0,0,0,0,0,0,0,0,0,0,0,0,
0,0,0,0,0,0,0,0,0,0,0,0,0,0,0,0,0,0,0,0,0,0,0,0,0,0,0,0,0,0,0,0,0,0,0,0,0,0,0,0,0,0,0,0,0,0,0,0,0,0,0,0,0,0,0,0,0,0,0,0,
0,0,0,0,0,0,0,0,0,0,0,0,0,0,0,0,0,0,0,0,0,0,0,0,0,0,0,0,0,0,0,0,0,0,0,0,0,0,0,0,0,0,0,0,0,0,0,0,0,0,0,0,0,0,0,0,0,0,0,0,
0,0,0,0,0,0,0,0,0,0,0,0,0,0,0,0,0,0,0,0,0,0,0,0,0,0,0,0,0,0,0,0,0,0,0,0,0,0,0,0,0,0,0,0,0,0,0,0,0,0,0,0,0,0,0,0,0,0,0,0,
0,0,0,0,0,0,0,0,0,0,0,0,0,0,0,0,0,0,0,0,0,0,0,0,0,0,0,0,0,0,0,0,0,0,0,0,0,0,0,0,0,0,0,0,0,0,0,0,0,0,0,0,0,0,0,0,0,0,0,0,
0,0,0,0,0,0,0,0,0,0,0,0,0,0,0,0,0,0,0,0,0,0,0,0,0,0,0,0,0,0,0,0,0,0,0,0,0,0,0,0,0,0,0,0,0,0,0,0,0,0,0,0,0,0,0,0,0,0,0,0,
0,0,0,0,0,0,0,0,0,0,0,0,0,0,0,0,0,0,0,0,0,0,0,0,0,0,0,0,0,0,0,0,0,0,0,0,0,0,0,0,0,0,0,0,0,0,0,0,0,0,0,0,0,0,0,0,0,0,0,0,
0,0,0,0,0,0,0,0,0,0,0,0,0,0,0,0,0,0,0,0,0,0,0,0,0,0,0,0,0,0,0,0,0,0,0,0,0,0,0,0,0,0,0,0,0,0,0,0,0,0,0,0,0,0,0,0,0,0,0,0
</data>
 </layer>
 <objectgroup id="16" name="falling">
  <properties>
   <property name="direction" value="down"/>
  </properties>
 </objectgroup>
 <objectgroup id="13" name="platform"/>
 <objectgroup id="22" name="images">
  <object id="583" name="image" gid="8" x="750" y="275" width="50" height="50">
   <properties>
    <property name="imageName" value="castle_window"/>
   </properties>
  </object>
  <object id="588" name="image" gid="8" x="2600" y="275" width="50" height="50">
   <properties>
    <property name="imageName" value="castle_window"/>
   </properties>
  </object>
 </objectgroup>
 <objectgroup id="21" name="camera">
  <properties>
   <property name="cameraType" value="unlockX"/>
  </properties>
 </objectgroup>
 <objectgroup id="14" name="light">
  <object id="584" name="light" gid="119" x="523.34" y="175.667" width="200" height="200"/>
  <object id="585" name="light" gid="119" x="822.34" y="177.667" width="200" height="200"/>
  <object id="586" name="light" gid="119" x="522.34" y="521.667" width="200" height="200"/>
  <object id="587" name="light" gid="119" x="821.34" y="523.667" width="200" height="200"/>
  <object id="589" name="light" gid="119" x="2373.34" y="175.667" width="200" height="200"/>
  <object id="590" name="light" gid="119" x="2672.34" y="177.667" width="200" height="200"/>
  <object id="591" name="light" gid="119" x="2372.34" y="521.667" width="200" height="200"/>
  <object id="592" name="light" gid="119" x="2671.34" y="523.667" width="200" height="200"/>
 </objectgroup>
 <objectgroup id="7" name="trampoline"/>
 <objectgroup id="9" name="spike-normal">
  <object id="593" name="spike" gid="94" x="1350" y="650" width="50" height="50">
   <properties>
    <property name="id" value="1"/>
   </properties>
  </object>
  <object id="594" name="spike" gid="96" x="1550" y="650" width="50" height="50">
   <properties>
    <property name="id" value="3"/>
   </properties>
  </object>
 </objectgroup>
 <objectgroup id="23" name="slab"/>
 <objectgroup id="8" name="save">
  <object id="582" name="save" gid="92" x="750" y="350" width="50" height="50"/>
 </objectgroup>
 <objectgroup id="10" name="laser"/>
 <objectgroup id="24" name="mapDecoEffect">
  <properties>
   <property name="backDecoEffectType" value="clouds"/>
  </properties>
 </objectgroup>
 <objectgroup id="11" name="bg">
  <properties>
   <property name="bgName" value="bgMountainsDay"/>
  </properties>
 </objectgroup>
 <objectgroup id="12" name="mapEffect">
  <properties>
   <property name="effectType" value="none"/>
  </properties>
 </objectgroup>
 <objectgroup id="20" name="shaders">
  <properties>
   <property name="shaderName" value="castleRays"/>
  </properties>
 </objectgroup>
 <objectgroup id="19" name="warps">
  <object id="613" name="warp" gid="122" x="2950" y="50" width="50" height="50">
   <properties>
    <property name="direction" value="right"/>
    <property name="target" value="map45"/>
   </properties>
  </object>
  <object id="614" name="warp" gid="122" x="2950" y="100" width="50" height="50">
   <properties>
    <property name="direction" value="right"/>
    <property name="target" value="map45"/>
   </properties>
  </object>
  <object id="615" name="warp" gid="122" x="2950" y="150" width="50" height="50">
   <properties>
    <property name="direction" value="right"/>
    <property name="target" value="map45"/>
   </properties>
  </object>
  <object id="616" name="warp" gid="122" x="2950" y="200" width="50" height="50">
   <properties>
    <property name="direction" value="right"/>
    <property name="target" value="map45"/>
   </properties>
  </object>
  <object id="617" name="warp" gid="122" x="2950" y="250" width="50" height="50">
   <properties>
    <property name="direction" value="right"/>
    <property name="target" value="map45"/>
   </properties>
  </object>
  <object id="618" name="warp" gid="122" x="2950" y="300" width="50" height="50">
   <properties>
    <property name="direction" value="right"/>
    <property name="target" value="map45"/>
   </properties>
  </object>
  <object id="619" name="warp" gid="122" x="2950" y="350" width="50" height="50">
   <properties>
    <property name="direction" value="right"/>
    <property name="target" value="map45"/>
   </properties>
  </object>
  <object id="620" name="warp" gid="122" x="2950" y="400" width="50" height="50">
   <properties>
    <property name="direction" value="right"/>
    <property name="target" value="map45"/>
   </properties>
  </object>
  <object id="621" name="warp" gid="122" x="2950" y="450" width="50" height="50">
   <properties>
    <property name="direction" value="right"/>
    <property name="target" value="map45"/>
   </properties>
  </object>
  <object id="622" name="warp" gid="122" x="2950" y="500" width="50" height="50">
   <properties>
    <property name="direction" value="right"/>
    <property name="target" value="map45"/>
   </properties>
  </object>
 </objectgroup>
 <objectgroup id="15" name="music">
  <properties>
   <property name="songName" value="castle_morning"/>
  </properties>
 </objectgroup>
</map>
