<?xml version="1.0" encoding="UTF-8"?>
<map version="1.10" tiledversion="1.12.1" orientation="orthogonal" renderorder="right-down" width="28" height="18" tilewidth="50" tileheight="50" infinite="0" nextlayerid="33" nextobjectid="2246">
 <properties>
  <property name="songName" value="rain"/>
 </properties>
 <tileset firstgid="1" source="ch1-tiles.tsx"/>
 <tileset firstgid="81" source="../../textures/trampoline.tsx"/>
 <tileset firstgid="84" source="../../textures/save.tsx"/>
 <tileset firstgid="85" source="../../textures/spike.tsx"/>
 <tileset firstgid="93" source="../../textures/laser.tsx"/>
 <tileset firstgid="111" source="../../textures/light.tsx"/>
 <tileset firstgid="113" source="../../textures/trampoline-mini.tsx"/>
 <tileset firstgid="122" source="../../textures/transition-tiles.tsx"/>
 <tileset firstgid="127" source="../../textures/small-spike.tsx"/>
 <tileset firstgid="131" source="../../textures/coins.tsx"/>
 <layer id="1" name="tiles-main" width="28" height="18">
  <data encoding="csv">
0,0,0,0,0,0,0,0,0,0,0,0,0,0,33,0,0,0,0,0,0,0,0,0,0,0,0,0,
0,0,0,0,0,0,0,0,0,0,0,0,0,0,33,0,0,0,0,0,0,0,0,0,0,0,0,0,
0,0,0,0,0,0,0,0,0,0,0,0,0,0,33,0,0,0,0,0,0,0,0,0,0,0,0,0,
0,0,0,0,0,0,0,0,0,0,0,0,0,0,33,0,0,0,0,0,0,0,0,0,0,0,0,0,
36,36,36,36,36,36,36,36,36,36,36,36,36,36,33,0,0,0,0,0,0,0,0,0,0,0,0,0,
0,0,0,0,0,0,0,0,0,0,0,0,0,0,33,0,0,0,0,0,0,0,0,0,0,0,0,0,
0,0,0,0,0,0,0,0,0,0,0,0,0,0,33,0,0,0,0,0,0,0,0,0,0,0,0,0,
0,0,0,0,0,0,0,0,0,0,0,0,0,0,33,0,0,0,0,0,0,0,0,0,0,0,0,0,
36,36,36,36,36,36,36,35,0,0,0,0,0,0,33,0,0,0,0,0,0,0,0,0,0,0,0,0,
0,0,0,0,0,0,0,33,0,0,0,0,0,0,33,0,0,0,0,0,0,0,0,0,0,0,0,0,
0,0,0,0,0,0,0,33,0,0,0,0,0,0,33,0,0,0,0,0,0,0,0,0,0,0,0,0,
0,0,0,0,0,0,0,35,36,36,36,36,36,36,33,0,0,0,0,0,0,0,0,0,0,0,0,0,
0,0,0,0,0,0,0,0,0,0,0,0,0,0,33,0,0,0,0,0,0,0,0,0,0,0,0,0,
0,0,0,0,0,0,0,0,0,0,0,0,0,0,33,0,0,0,0,0,0,0,0,0,0,0,0,0,
0,0,0,0,0,0,0,0,0,0,0,0,0,0,33,0,0,0,0,0,0,0,0,0,0,0,0,0,
0,0,0,0,0,0,0,0,0,0,0,0,0,0,33,0,0,0,0,0,0,0,0,0,0,0,0,0,
0,0,0,0,0,0,0,0,0,0,0,0,0,0,33,0,0,0,0,0,0,0,0,0,0,0,0,0,
0,0,0,0,0,0,0,0,0,0,0,0,0,0,33,0,0,0,0,0,0,0,0,0,0,0,0,0
</data>
 </layer>
 <layer id="5" name="tiles-deco" width="28" height="18">
  <data encoding="csv">
41,41,37,41,41,41,41,41,41,41,37,41,41,41,0,41,41,37,41,41,41,41,41,41,41,41,41,41,
41,37,41,41,37,41,41,37,37,41,41,41,37,41,0,41,41,41,41,41,41,37,41,37,41,41,41,41,
41,41,41,41,41,37,37,41,41,41,37,41,41,37,0,41,37,41,41,41,37,41,41,41,37,41,41,41,
41,37,41,41,41,41,41,41,41,37,41,41,41,41,0,41,41,37,41,37,41,41,41,41,37,41,41,41,
0,0,0,0,0,0,0,0,0,0,0,0,0,0,0,41,37,41,41,41,41,41,37,41,41,41,41,41,
0,0,0,0,0,0,0,0,0,0,0,0,0,0,0,41,41,41,41,37,41,37,37,41,41,37,41,41,
0,0,0,0,0,0,0,0,0,0,0,0,0,0,0,41,37,41,37,37,41,37,41,41,37,41,41,41,
0,0,0,0,0,0,0,0,0,0,0,0,0,0,0,41,41,41,37,41,37,41,41,41,37,41,41,41,
0,0,0,0,0,0,0,0,0,0,0,0,0,0,0,41,41,37,41,37,41,41,41,41,37,41,41,41,
37,41,37,41,41,41,41,0,0,0,0,0,0,0,0,41,41,37,41,41,41,41,41,41,41,41,37,41,
41,41,41,41,37,41,41,0,0,0,0,0,0,0,0,41,37,41,41,37,37,41,37,41,41,37,41,41,
41,41,37,37,41,41,37,0,0,0,0,0,0,0,0,41,37,41,41,41,41,41,41,41,41,37,41,41,
41,37,41,41,37,41,41,41,41,41,41,41,41,41,0,41,37,41,41,41,41,41,37,37,41,37,41,41,
41,37,41,41,41,41,37,41,41,41,37,37,37,41,0,41,41,37,41,37,41,37,37,41,41,41,41,41,
41,41,37,41,41,37,41,41,37,41,41,41,37,41,0,41,41,41,41,37,41,41,41,37,41,41,37,41,
41,41,41,37,41,37,41,41,37,41,41,41,41,41,0,41,37,41,41,37,41,37,37,41,41,41,41,41,
41,41,37,41,37,41,41,41,41,37,37,41,37,41,0,41,41,37,41,41,41,41,41,41,37,37,37,41,
41,41,41,41,41,41,41,41,41,41,41,41,41,41,0,41,41,41,41,41,41,37,41,41,41,41,41,41
</data>
 </layer>
 <layer id="18" name="tiles-deco2" width="28" height="18">
  <data encoding="csv">
0,0,0,0,0,0,0,0,0,0,0,0,0,0,0,0,0,0,0,0,0,0,0,0,0,0,0,0,
0,0,0,0,0,0,0,0,0,0,0,0,0,0,0,0,0,0,0,0,0,0,0,0,0,0,0,0,
0,0,0,0,0,0,0,0,0,0,0,0,0,0,0,0,0,0,0,0,0,0,0,0,0,0,0,0,
0,0,0,0,0,0,0,0,0,0,0,0,0,0,0,0,0,0,0,0,0,0,0,0,0,0,0,0,
0,0,0,0,0,0,0,0,0,0,0,0,0,0,0,0,0,0,0,0,0,0,0,0,0,0,0,0,
0,0,0,0,0,0,0,0,0,0,0,0,0,0,0,0,0,0,0,0,0,0,0,0,0,0,0,0,
0,0,0,0,0,0,0,0,0,0,0,0,0,0,0,0,0,0,0,0,0,0,0,0,0,0,0,0,
0,0,0,0,0,0,0,0,0,0,0,0,0,0,0,0,0,0,0,0,0,0,0,0,0,0,0,0,
0,0,0,0,0,0,0,0,0,0,0,0,0,0,0,0,0,0,0,0,0,0,0,0,0,0,0,0,
0,0,0,0,0,0,0,0,0,0,0,0,0,0,0,0,0,0,0,0,0,0,0,0,0,0,0,0,
0,0,0,0,0,0,0,0,0,0,0,0,0,0,0,0,0,0,0,0,0,0,0,0,0,0,0,0,
0,0,0,0,0,0,0,0,0,0,0,0,0,0,0,0,0,0,0,0,0,0,0,0,0,0,0,0,
0,0,0,0,0,0,0,0,0,0,0,0,0,0,0,0,0,0,0,0,0,0,0,0,0,0,0,0,
0,0,0,0,0,0,0,0,0,0,0,0,0,0,0,0,0,0,0,0,0,0,0,0,0,0,0,0,
0,0,0,0,0,0,0,0,0,0,0,0,0,0,0,0,0,0,0,0,0,0,0,0,0,0,0,0,
0,0,0,0,0,0,0,0,0,0,0,0,0,0,0,0,0,0,0,0,0,0,0,0,0,0,0,0,
0,0,0,0,0,0,0,0,0,0,0,0,0,0,0,0,0,0,0,0,0,0,0,0,0,0,0,0,
0,0,0,0,0,0,0,0,0,0,0,0,0,0,0,0,0,0,0,0,0,0,0,0,0,0,0,0
</data>
 </layer>
 <objectgroup id="16" name="falling">
  <properties>
   <property name="direction" value="down"/>
  </properties>
 </objectgroup>
 <objectgroup id="13" name="platform"/>
 <objectgroup id="7" name="trampoline"/>
 <objectgroup id="26" name="camera"/>
 <objectgroup id="28" name="solid_block"/>
 <objectgroup id="25" name="slab"/>
 <objectgroup id="19" name="trampoline-mini"/>
 <objectgroup id="31" name="trampoline"/>
 <objectgroup id="30" name="small-spike"/>
 <objectgroup id="9" name="spike-normal"/>
 <objectgroup id="29" name="redCoin"/>
 <objectgroup id="27" name="switch-spike" opacity="0.55"/>
 <objectgroup id="8" name="save">
  <object id="2244" name="save" gid="84" x="525" y="425" width="50" height="50"/>
 </objectgroup>
 <objectgroup id="21" name="acidlayer"/>
 <objectgroup id="10" name="laser"/>
 <objectgroup id="11" name="bg">
  <properties>
   <property name="bgName" value="castleBG3"/>
   <property name="bgShader" value="toxic"/>
  </properties>
 </objectgroup>
 <objectgroup id="32" name="shaders">
  <properties>
   <property name="shaderName" value="radioactive"/>
  </properties>
 </objectgroup>
 <objectgroup id="12" name="foregroundEffect">
  <properties>
   <property name="foregroundEffectType" value="toxic"/>
  </properties>
 </objectgroup>
 <objectgroup id="22" name="mapEffect">
  <properties>
   <property name="effectType" value="poison-fog"/>
  </properties>
 </objectgroup>
 <objectgroup id="15" name="music">
  <properties>
   <property name="songName" value="none"/>
  </properties>
 </objectgroup>
 <objectgroup id="20" name="warps">
  <object id="2241" name="warp" gid="125" x="0" y="400" width="50" height="50">
   <properties>
    <property name="direction" value="left"/>
    <property name="target" value="map41"/>
   </properties>
  </object>
  <object id="2242" name="warp" gid="125" x="0" y="350" width="50" height="50">
   <properties>
    <property name="direction" value="left"/>
    <property name="target" value="map41"/>
   </properties>
  </object>
  <object id="2243" name="warp" gid="125" x="0" y="300" width="50" height="50">
   <properties>
    <property name="direction" value="left"/>
    <property name="target" value="map41"/>
   </properties>
  </object>
 </objectgroup>
</map>
