<?xml version="1.0" encoding="UTF-8"?>
<map version="1.10" tiledversion="1.12.1" orientation="orthogonal" renderorder="right-down" width="28" height="240" tilewidth="50" tileheight="50" infinite="0" nextlayerid="38" nextobjectid="3054">
 <properties>
  <property name="songName" value="rain"/>
 </properties>
 <tileset firstgid="1" source="ch1-tiles.tsx"/>
 <tileset firstgid="89" source="../../textures/trampoline.tsx"/>
 <tileset firstgid="92" source="../../textures/save.tsx"/>
 <tileset firstgid="93" source="../../textures/spike.tsx"/>
 <tileset firstgid="101" source="../../textures/laser.tsx"/>
 <tileset firstgid="119" source="../../textures/light.tsx"/>
 <tileset firstgid="121" source="../../textures/trampoline-mini.tsx"/>
 <tileset firstgid="130" source="../../textures/transition-tiles.tsx"/>
 <tileset firstgid="135" source="../../textures/small-spike.tsx"/>
 <tileset firstgid="139" source="../../textures/coins.tsx"/>
 <layer id="1" name="tiles-main" width="28" height="240">
  <data encoding="csv">
0,0,0,0,0,0,0,0,0,0,0,0,74,0,0,0,0,74,0,0,0,0,0,0,0,0,0,0,
0,0,0,0,0,0,0,0,0,0,0,0,74,0,0,0,0,74,0,0,0,0,0,0,0,0,0,0,
0,0,0,0,0,0,0,0,0,0,0,0,74,0,0,0,0,74,0,0,0,0,0,0,0,0,0,0,
0,0,0,0,0,0,0,0,0,0,0,0,74,0,0,0,0,74,0,0,0,0,0,0,0,0,0,0,
0,0,0,0,0,0,0,0,0,0,0,0,74,0,0,0,0,74,0,0,0,0,0,0,0,0,0,0,
0,0,0,0,0,0,0,0,0,0,0,0,74,0,0,0,0,74,0,0,0,0,0,0,0,0,0,0,
0,0,0,0,0,0,0,0,0,0,0,0,74,0,0,0,0,74,0,0,0,0,0,0,0,0,0,0,
0,0,0,0,0,0,0,0,0,0,0,0,74,0,0,0,0,74,0,0,0,0,0,0,0,0,0,0,
0,0,0,0,0,0,0,0,0,0,0,0,74,0,0,0,0,74,0,0,0,0,0,0,0,0,0,0,
0,0,0,0,0,0,0,0,0,0,0,0,74,0,0,0,0,74,0,0,0,0,0,0,0,0,0,0,
0,0,0,0,0,0,0,0,0,0,0,0,74,0,0,0,0,74,0,0,0,0,0,0,0,0,0,0,
0,0,0,0,0,0,0,0,0,0,0,0,74,0,0,0,0,74,0,0,0,0,0,0,0,0,0,0,
0,0,0,0,0,0,0,0,0,0,0,0,74,0,0,0,0,74,0,0,0,0,0,0,0,0,0,0,
0,0,0,0,0,0,0,0,0,0,0,0,74,0,0,0,0,74,0,0,0,0,0,0,0,0,0,0,
0,0,0,0,0,0,0,0,0,0,0,0,74,0,0,0,0,74,0,0,0,0,0,0,0,0,0,0,
0,0,0,0,0,0,0,0,0,0,0,0,74,0,0,0,0,74,0,0,0,0,0,0,0,0,0,0,
0,0,0,0,0,0,0,0,0,0,0,0,74,0,0,0,0,74,0,0,0,0,0,0,0,0,0,0,
0,0,0,0,0,0,0,0,0,0,0,0,74,0,0,0,0,74,0,0,0,0,0,0,0,0,0,0,
0,0,0,0,0,0,0,0,0,0,0,0,74,0,0,0,0,74,0,0,0,0,0,0,0,0,0,0,
0,0,0,0,0,0,0,0,0,0,0,0,74,0,0,0,0,74,0,0,0,0,0,0,0,0,0,0,
0,0,0,0,0,0,0,0,0,0,0,0,74,0,0,0,0,74,0,0,0,0,0,0,0,0,0,0,
0,0,0,0,0,0,0,0,0,0,0,0,74,0,0,0,0,74,0,0,0,0,0,0,0,0,0,0,
0,0,0,0,0,0,0,0,0,0,0,0,74,0,0,0,0,74,0,0,0,0,0,0,0,0,0,0,
0,0,0,0,0,0,0,0,0,0,0,0,74,0,0,0,0,74,0,0,0,0,0,0,0,0,0,0,
0,0,0,0,0,0,0,0,0,0,0,75,75,0,0,0,0,75,75,0,0,0,0,0,0,0,0,0,
0,0,0,0,0,0,0,0,0,0,0,74,0,0,0,0,0,0,74,0,0,0,0,0,0,0,0,0,
0,0,0,0,0,0,0,0,0,0,0,74,0,0,0,0,0,0,74,0,0,0,0,0,0,0,0,0,
0,0,0,0,0,0,0,0,0,0,0,74,0,0,0,0,0,0,74,0,0,0,0,0,0,0,0,0,
0,0,0,0,0,0,0,0,0,0,0,74,75,0,0,0,0,75,74,0,0,0,0,0,0,0,0,0,
0,0,0,0,0,0,0,0,0,0,75,75,0,0,0,0,0,0,75,75,0,0,0,0,0,0,0,0,
0,0,0,0,0,0,0,0,0,0,74,0,0,0,0,0,0,0,0,74,0,0,0,0,0,0,0,0,
0,0,0,0,0,0,0,0,0,0,74,0,0,0,0,0,0,0,0,74,0,0,0,0,0,0,0,0,
0,0,0,0,0,0,0,0,0,0,74,0,0,0,0,0,0,0,0,74,0,0,0,0,0,0,0,0,
0,0,0,0,0,0,0,0,0,75,75,0,0,0,0,0,0,0,0,75,75,0,0,0,0,0,0,0,
0,0,0,0,0,0,0,0,0,74,0,0,0,0,0,0,0,0,0,0,74,0,0,0,0,0,0,0,
0,0,0,0,0,0,0,0,0,74,75,0,0,0,0,0,0,0,0,75,74,0,0,0,0,0,0,0,
0,0,0,0,0,0,0,0,0,74,0,0,0,0,0,0,0,0,0,0,74,0,0,0,0,0,0,0,
0,0,0,0,0,0,0,0,75,75,0,0,0,0,0,0,0,0,0,0,75,75,0,0,0,0,0,0,
0,0,0,0,0,0,0,0,74,0,0,0,0,0,0,0,0,0,0,0,0,74,0,0,0,0,0,0,
0,0,0,0,0,0,0,0,74,0,0,0,0,0,0,0,0,0,0,0,0,74,0,0,0,0,0,0,
0,0,0,0,0,0,0,0,74,75,0,0,0,0,0,0,0,0,0,0,75,74,0,0,0,0,0,0,
0,0,0,0,0,0,0,0,74,0,0,0,0,0,0,0,0,0,0,0,0,74,0,0,0,0,0,0,
0,0,0,0,0,0,0,75,75,0,0,0,0,0,0,0,0,0,0,0,0,75,75,0,0,0,0,0,
0,0,0,0,0,0,0,74,0,0,0,0,0,0,0,0,0,0,0,0,0,0,74,0,0,0,0,0,
0,0,0,0,0,0,0,74,0,0,0,0,0,0,0,0,0,0,0,0,0,0,74,0,0,0,0,0,
0,0,0,0,0,0,0,74,0,0,0,0,0,0,0,0,0,0,0,0,0,0,74,0,0,0,0,0,
0,0,0,0,0,0,0,74,75,0,0,0,0,0,0,0,0,0,0,0,0,75,74,0,0,0,0,0,
0,0,0,0,0,0,0,74,0,0,0,0,0,0,0,0,0,0,0,0,0,0,74,0,0,0,0,0,
0,0,0,0,0,0,75,75,0,0,0,0,0,0,0,0,0,0,0,0,0,0,75,75,0,0,0,0,
0,0,0,0,0,0,74,0,0,0,0,0,0,0,0,0,0,0,0,0,0,0,0,74,0,0,0,0,
0,0,0,0,0,0,74,0,0,0,0,0,0,0,0,0,0,0,0,0,0,0,0,74,0,0,0,0,
0,0,0,0,0,0,74,0,0,0,0,0,0,0,0,0,0,0,0,0,0,0,0,74,0,0,0,0,
0,0,0,0,0,0,74,0,0,0,0,0,0,0,0,0,0,0,0,0,0,0,0,74,0,0,0,0,
0,0,0,0,0,0,74,0,0,0,0,0,0,0,0,0,0,0,0,0,0,0,0,74,0,0,0,0,
0,0,0,0,0,0,74,75,0,0,0,0,0,0,0,0,0,0,0,0,0,0,75,74,0,0,0,0,
0,0,0,0,0,0,74,0,0,0,0,0,0,0,0,0,0,0,0,0,0,0,0,74,0,0,0,0,
0,0,0,0,0,0,74,0,0,0,0,0,0,0,0,0,0,0,0,0,0,0,0,74,0,0,0,0,
0,0,0,0,0,0,74,0,0,0,0,0,0,0,0,0,0,0,0,0,0,0,0,74,0,0,0,0,
0,0,0,0,0,0,74,0,0,0,0,0,0,0,0,0,0,0,0,0,0,0,0,74,0,0,0,0,
0,0,0,0,0,0,74,75,0,0,0,0,0,0,0,0,0,0,0,0,0,0,75,74,0,0,0,0,
0,0,0,0,0,0,74,0,0,0,0,0,0,0,0,0,0,0,0,0,0,0,0,74,0,0,0,0,
0,0,0,0,0,0,74,0,0,0,0,0,0,0,0,0,0,0,0,0,0,0,0,74,0,0,0,0,
0,0,0,0,0,0,74,0,0,0,0,0,0,0,0,0,0,0,0,0,0,0,0,74,0,0,0,0,
0,0,0,0,0,0,74,0,0,0,0,0,0,0,0,0,0,0,0,0,0,0,0,74,0,0,0,0,
0,0,0,0,0,0,74,0,0,0,0,0,0,0,0,0,0,0,0,0,0,0,0,74,0,0,0,0,
0,0,0,0,0,0,74,0,0,0,0,0,0,0,0,0,0,0,0,0,0,0,0,74,0,0,0,0,
0,0,0,0,0,0,74,0,0,0,0,0,0,0,0,0,0,0,0,0,0,0,0,74,0,0,0,0,
0,0,0,0,0,0,75,75,0,75,76,76,76,75,0,0,0,75,76,75,0,0,75,75,0,0,0,0,
0,0,0,0,0,0,0,74,0,74,0,0,0,74,0,0,0,74,0,74,0,0,74,0,0,0,0,0,
0,0,0,0,0,0,0,74,0,74,0,0,0,74,0,0,0,74,0,74,0,0,74,0,0,0,0,0,
0,0,0,0,0,0,0,74,0,74,0,0,0,74,0,0,0,74,0,74,0,0,74,0,0,0,0,0,
0,0,0,0,0,0,0,74,0,74,0,0,0,74,0,0,0,74,0,74,0,0,74,0,0,0,0,0,
0,0,0,0,0,0,0,74,0,74,0,0,0,74,0,0,0,74,0,75,75,0,74,0,0,0,0,0,
0,0,0,0,0,0,0,74,0,74,0,75,76,75,0,0,0,74,0,0,74,0,74,0,0,0,0,0,
0,0,0,0,0,0,0,74,0,75,76,75,0,0,0,0,0,74,0,0,74,0,74,0,0,0,0,0,
0,0,0,0,0,0,0,74,0,0,0,0,0,0,0,0,0,74,0,0,74,0,74,0,0,0,0,0,
0,0,0,0,0,0,0,75,76,76,76,75,0,0,0,0,0,74,0,0,0,0,74,0,0,0,0,0,
0,0,0,0,0,0,0,0,0,0,0,74,0,0,0,0,0,74,0,0,74,0,74,0,0,0,0,0,
0,0,0,0,0,0,0,0,0,0,0,75,76,75,0,0,0,74,0,0,74,0,74,0,0,0,0,0,
0,0,0,0,0,0,0,0,0,0,0,0,0,74,0,0,0,74,0,0,74,0,74,0,0,0,0,0,
0,0,0,0,0,0,0,0,0,0,0,0,0,74,0,0,0,74,0,0,74,0,74,0,0,0,0,0,
0,0,0,0,0,0,0,0,0,0,0,0,0,74,0,0,0,74,0,0,74,0,0,0,0,0,0,0,
0,0,0,0,0,0,0,0,0,0,0,0,0,74,0,0,0,74,0,0,74,0,74,0,0,0,0,0,
0,0,0,0,0,0,0,75,76,76,76,76,76,75,0,0,0,75,76,76,75,0,74,0,0,0,0,0,
0,0,0,0,75,76,76,75,0,0,0,0,0,74,0,0,0,0,0,0,0,0,74,0,0,0,0,0,
0,0,0,0,74,0,0,0,0,0,0,0,0,75,0,0,0,75,76,76,75,0,74,0,0,0,0,0,
0,0,0,0,74,0,0,0,0,0,0,75,0,0,0,0,0,74,0,0,74,0,74,0,0,0,0,0,
0,0,0,0,74,0,0,0,0,0,0,74,0,0,0,0,0,74,0,0,74,0,74,0,0,0,0,0,
0,0,0,0,74,0,0,0,0,75,76,75,76,75,0,0,0,74,0,0,74,0,74,0,0,0,0,0,
0,0,0,0,74,0,0,0,0,74,0,0,0,74,0,0,0,74,0,0,74,0,74,0,0,0,0,0,
0,0,0,0,74,0,0,0,0,74,0,0,0,74,0,0,0,74,0,0,74,0,74,0,0,0,0,0,
0,0,0,0,74,0,0,0,0,74,0,0,0,74,0,0,0,74,0,0,74,0,74,0,0,0,0,0,
0,0,0,0,74,0,0,0,0,74,0,0,0,74,0,0,0,75,76,76,75,0,74,0,0,0,0,0,
0,0,0,0,74,0,0,0,0,74,0,0,0,74,0,0,0,0,0,0,0,0,74,0,0,0,0,0,
0,0,0,0,74,0,0,0,0,74,0,0,0,74,0,0,0,0,0,0,0,0,74,0,0,0,0,0,
0,0,0,0,74,0,0,0,0,75,76,75,0,74,0,0,0,0,0,0,0,0,75,76,75,0,0,0,
0,0,0,0,74,0,0,0,0,0,0,74,0,74,0,0,0,0,0,0,0,0,0,0,74,0,0,0,
0,0,0,0,74,0,0,0,0,0,0,74,0,74,0,0,0,75,76,76,75,0,0,0,74,0,0,0,
0,0,0,0,74,0,0,0,0,0,0,74,0,74,0,0,0,74,0,0,74,0,0,0,74,0,0,0,
0,0,0,0,74,0,0,0,0,0,0,74,0,74,0,0,0,74,0,0,74,0,0,0,74,0,0,0,
0,0,0,0,74,0,0,0,0,0,0,74,0,74,0,0,0,74,0,0,74,0,0,0,74,0,0,0,
0,0,0,0,74,0,0,0,0,0,0,75,76,75,0,0,0,74,0,0,74,0,0,0,74,0,0,0,
0,0,0,0,74,0,0,0,0,0,0,0,0,0,0,0,0,74,0,0,74,0,0,0,74,0,0,0,
0,0,0,0,74,0,0,0,0,0,0,0,0,0,0,0,0,74,0,0,74,0,75,76,75,0,0,0,
0,0,0,0,74,0,0,0,0,0,0,0,0,0,0,0,0,74,0,0,74,0,74,0,0,0,0,0,
0,0,0,0,75,76,0,0,0,0,0,0,0,0,0,0,0,74,0,0,74,0,74,0,0,0,0,0,
0,0,0,0,0,0,75,76,0,0,0,0,0,0,0,0,0,74,0,0,74,0,74,0,0,0,0,0,
0,0,0,0,0,0,0,0,75,76,0,0,0,0,0,0,0,74,0,0,74,0,74,0,0,0,0,0,
0,0,0,0,0,0,0,0,0,0,75,76,0,0,0,0,0,74,0,0,74,0,74,0,0,0,0,0,
0,0,0,0,0,0,0,0,0,0,0,0,74,0,0,0,0,74,0,0,74,0,74,0,0,0,0,0,
0,0,0,0,0,0,0,0,0,0,0,0,74,0,0,0,0,74,0,0,74,0,74,0,0,0,0,0,
0,0,0,0,0,0,0,0,0,0,0,0,74,0,0,0,0,74,0,0,74,0,74,0,0,0,0,0,
0,0,0,0,0,0,0,0,0,0,0,0,74,0,0,0,0,74,0,0,74,0,74,0,0,0,0,0,
0,0,0,0,0,0,0,0,0,0,0,0,74,0,0,0,0,74,0,0,74,0,74,0,0,0,0,0,
0,0,0,0,0,0,0,0,0,0,0,0,74,0,0,0,0,74,0,0,74,0,74,0,0,0,0,0,
0,0,0,0,0,0,0,0,0,0,0,0,74,0,0,0,0,74,0,0,74,0,74,0,0,0,0,0,
0,0,0,0,0,0,0,0,0,0,0,0,74,0,0,0,0,74,0,0,74,0,74,0,0,0,0,0,
0,0,0,0,0,0,0,0,0,0,0,0,74,0,0,0,0,74,0,0,74,0,74,0,0,0,0,0,
0,0,0,0,0,0,0,0,0,0,0,0,74,0,0,0,0,75,76,76,75,0,74,0,0,0,0,0,
0,0,0,0,0,0,0,0,0,0,0,0,74,0,0,0,0,0,0,0,0,0,74,0,0,0,0,0,
0,0,0,0,0,0,0,0,0,0,0,0,74,0,0,0,0,0,0,0,0,0,74,0,0,0,0,0,
0,0,0,0,0,0,0,0,0,0,0,0,74,0,0,0,0,0,0,0,0,0,74,0,0,0,0,0,
0,0,0,0,0,0,0,0,0,0,0,0,74,0,0,0,0,0,0,0,0,0,74,0,0,0,0,0,
0,0,0,0,0,0,0,0,0,0,0,0,74,0,0,0,0,0,75,76,75,0,74,0,0,0,0,0,
0,0,0,0,0,0,0,0,0,0,0,0,74,0,0,0,0,0,74,0,74,0,74,0,0,0,0,0,
0,0,0,0,0,0,0,0,0,0,75,76,75,0,0,0,0,0,74,0,74,0,74,0,0,0,0,0,
0,0,0,0,0,0,0,0,0,0,74,0,0,0,0,0,75,76,75,0,74,0,74,0,0,0,0,0,
0,0,0,0,0,0,0,75,76,76,75,0,75,0,0,0,74,0,0,0,74,0,74,0,0,0,0,0,
0,0,0,0,0,0,0,74,0,0,0,0,0,0,0,0,74,0,0,0,74,0,74,0,0,0,0,0,
0,0,0,0,75,76,76,75,0,0,75,0,0,0,0,0,74,0,0,0,74,0,74,0,0,0,0,0,
0,0,0,0,74,0,0,0,0,0,0,0,0,0,0,0,74,0,0,0,74,0,74,0,0,0,0,0,
0,0,0,0,74,0,0,0,0,0,0,0,0,0,0,0,74,0,0,0,74,0,74,0,0,0,0,0,
0,0,0,0,74,0,0,0,0,0,0,0,0,0,0,0,74,0,0,0,74,0,74,0,0,0,0,0,
0,0,0,0,74,0,0,0,0,0,0,75,76,75,0,0,75,76,76,76,75,0,74,0,0,0,0,0,
0,0,0,0,74,0,0,0,75,76,76,75,0,0,0,0,0,0,0,0,0,0,74,0,0,0,0,0,
0,0,0,0,74,0,0,0,0,0,0,0,0,0,0,0,0,0,0,0,0,0,74,0,0,0,0,0,
0,0,0,0,74,0,0,0,0,0,0,0,0,0,0,0,0,0,0,0,0,0,74,0,0,0,0,0,
0,0,0,0,75,76,76,75,0,0,0,0,0,0,0,0,0,75,76,75,0,0,74,0,0,0,0,0,
0,0,0,0,0,0,0,75,76,76,75,0,0,0,0,0,0,74,0,74,0,0,74,0,0,0,0,0,
0,0,0,0,0,0,0,0,0,0,75,76,76,75,0,0,0,74,0,74,0,0,74,0,0,0,0,0,
0,0,0,0,0,0,0,0,0,0,0,0,0,74,0,0,0,74,0,74,0,0,74,0,0,0,0,0,
0,0,0,0,0,0,0,0,0,0,0,0,0,74,0,0,0,74,0,74,0,0,74,0,0,0,0,0,
0,0,0,0,0,0,0,0,0,0,0,0,0,74,0,0,0,74,0,74,0,0,74,0,0,0,0,0,
0,0,0,0,0,0,0,0,0,0,0,0,0,74,0,0,0,74,0,74,0,0,74,0,0,0,0,0,
0,0,0,0,0,0,0,0,0,0,0,0,0,74,0,0,0,74,0,74,0,0,74,0,0,0,0,0,
0,0,0,0,0,0,0,0,0,0,0,0,0,74,0,0,0,75,76,75,0,0,74,0,0,0,0,0,
0,0,0,0,0,0,0,0,0,0,0,75,76,75,0,0,0,0,0,0,0,0,74,0,0,0,0,0,
0,0,0,0,0,0,0,0,0,0,0,74,0,0,0,0,0,0,0,0,0,0,74,0,0,0,0,0,
0,0,0,0,0,0,75,76,76,76,76,75,0,0,0,0,0,0,0,0,0,0,74,0,0,0,0,0,
0,0,0,0,0,0,74,0,0,0,0,0,0,0,0,0,75,76,0,76,75,0,74,0,0,0,0,0,
0,0,0,0,0,0,74,0,0,0,0,0,0,0,0,0,74,73,0,73,74,0,74,0,0,0,0,0,
0,0,0,0,75,76,75,0,0,0,0,0,0,0,0,0,74,73,0,73,74,0,74,0,0,0,0,0,
0,0,0,0,74,0,0,0,0,0,0,0,0,0,0,0,74,73,0,73,74,0,74,0,0,0,0,0,
0,0,0,0,74,0,0,0,0,0,0,0,0,0,0,0,74,73,0,73,74,0,74,0,0,0,0,0,
0,0,0,0,74,75,0,75,76,76,76,76,76,75,0,0,74,73,0,73,74,0,74,0,0,0,0,0,
0,0,0,0,74,0,0,74,0,0,0,0,0,74,0,0,74,73,0,73,74,0,74,0,0,0,0,0,
0,0,0,0,74,0,0,74,0,0,0,0,0,74,0,0,74,73,0,73,74,0,74,0,0,0,0,0,
0,0,0,0,74,0,75,74,76,76,76,75,0,74,0,0,74,73,0,73,74,0,74,0,0,0,0,0,
0,0,0,0,74,0,0,74,0,0,0,74,0,74,0,0,74,73,73,73,74,0,74,0,0,0,0,0,
0,0,0,0,74,0,0,0,0,0,0,0,76,75,0,0,75,76,76,76,75,0,75,76,75,0,0,0,
0,0,0,0,74,75,0,0,0,0,0,0,0,0,0,0,0,0,0,0,0,0,0,0,74,0,0,0,
0,0,0,0,74,0,0,0,0,0,0,0,0,0,0,0,0,0,0,0,0,0,0,0,74,0,0,0,
0,0,0,0,74,0,0,0,0,74,0,0,0,0,0,0,75,76,75,0,0,0,0,0,74,0,0,0,
0,0,0,0,75,76,76,76,76,75,76,76,76,75,0,0,74,0,74,0,0,0,0,0,74,0,0,0,
0,0,0,0,0,0,0,0,0,0,0,0,0,74,0,0,74,0,74,0,0,0,0,0,74,0,0,0,
0,0,0,0,0,0,0,0,0,0,0,0,0,74,0,0,74,0,74,0,0,0,0,0,74,0,0,0,
0,0,0,0,0,0,0,0,0,0,0,0,0,74,0,0,74,0,74,0,0,0,0,0,74,0,0,0,
0,0,0,0,0,0,0,0,0,0,0,0,0,74,0,0,74,0,74,0,0,0,0,0,74,0,0,0,
0,0,0,0,0,0,0,0,0,0,0,0,0,74,0,0,74,0,74,0,0,0,0,0,74,0,0,0,
0,0,0,0,0,0,0,0,0,0,0,0,0,74,0,0,74,0,74,0,0,0,0,0,74,0,0,0,
0,0,0,0,0,0,0,0,0,0,0,0,0,74,0,0,74,0,74,0,0,0,0,0,74,0,0,0,
0,0,0,0,0,0,0,0,0,0,0,0,0,74,0,0,74,0,74,0,0,0,0,0,74,0,0,0,
0,0,0,0,0,0,0,0,0,0,0,0,0,74,0,0,74,0,74,0,0,0,0,0,74,0,0,0,
0,0,0,0,0,0,0,0,0,0,0,0,0,74,0,0,74,0,74,0,0,0,0,0,74,0,0,0,
0,0,0,0,0,0,0,0,0,0,0,0,0,74,0,0,74,0,74,0,0,0,0,0,74,0,0,0,
0,0,0,0,0,0,0,0,0,0,0,0,0,74,0,0,74,0,74,0,0,0,0,0,74,0,0,0,
0,0,0,0,0,0,0,0,0,0,0,0,0,74,0,0,74,0,74,0,0,0,0,0,74,0,0,0,
0,0,0,0,75,76,76,76,76,76,76,76,76,75,0,0,75,76,0,0,0,0,0,0,74,0,0,0,
0,0,0,0,74,0,0,0,0,0,0,0,0,0,0,0,0,0,0,0,0,0,0,0,74,0,0,0,
0,0,0,0,74,0,0,0,0,75,76,0,76,75,0,0,75,76,76,75,0,0,0,75,75,0,0,0,
0,0,0,0,74,0,0,0,0,0,0,0,0,74,0,0,74,0,0,74,0,0,0,74,0,0,0,0,
0,0,0,0,74,0,0,0,0,0,0,0,0,74,0,0,74,0,0,74,0,0,0,74,0,0,0,0,
0,0,0,0,75,76,76,0,76,76,0,75,0,74,0,0,75,76,76,75,0,0,0,74,0,0,0,0,
0,0,0,0,74,0,0,0,0,0,0,0,0,74,0,0,0,0,0,0,0,0,0,74,0,0,0,0,
0,0,0,0,74,0,0,0,0,0,0,0,0,74,0,0,0,0,0,0,0,0,0,74,0,0,0,0,
0,0,0,0,0,0,0,75,76,76,0,76,76,75,0,0,0,0,0,0,0,0,0,74,0,0,0,0,
0,0,0,0,74,0,0,0,0,0,0,0,0,0,0,0,75,76,75,0,0,0,0,74,0,0,0,0,
0,0,0,0,75,76,76,76,0,76,76,76,76,75,0,0,74,0,74,0,0,0,0,74,0,0,0,0,
0,0,0,0,0,0,0,0,0,0,0,0,0,74,0,0,74,0,74,0,0,0,0,74,0,0,0,0,
0,0,0,0,0,0,0,0,0,0,0,0,0,74,0,0,74,0,74,0,0,0,0,74,0,0,0,0,
0,0,0,0,0,0,0,0,0,0,0,0,0,74,0,0,74,0,74,0,0,0,0,74,0,0,0,0,
0,0,0,0,0,0,0,0,0,0,0,0,0,74,0,0,74,0,74,0,0,0,0,74,0,0,0,0,
0,0,0,0,0,0,0,0,0,0,0,0,0,74,0,0,74,0,74,0,0,0,0,74,0,0,0,0,
0,0,0,0,0,0,0,0,0,0,0,0,0,74,0,0,74,0,74,0,0,0,0,74,0,0,0,0,
0,0,0,0,0,0,0,0,0,0,0,0,0,74,0,0,74,0,74,0,0,0,0,74,0,0,0,0,
0,0,0,0,0,0,0,0,0,0,0,0,0,74,0,0,74,0,74,0,0,0,0,74,0,0,0,0,
0,0,0,0,0,0,0,75,76,76,76,76,76,75,0,0,74,0,74,0,0,0,0,74,0,0,0,0,
0,0,0,0,0,0,0,74,0,0,0,0,0,0,0,0,74,0,74,0,0,0,0,74,0,0,0,0,
0,0,0,0,75,76,76,75,0,0,0,0,0,0,0,0,75,76,0,0,0,0,0,74,0,0,0,0,
0,0,0,0,74,0,0,0,0,0,0,0,0,0,0,0,0,0,0,0,0,0,0,74,0,0,0,0,
0,0,0,0,74,0,0,0,0,0,0,0,0,0,0,0,0,0,0,0,0,0,0,74,0,0,0,0,
0,0,0,0,74,0,0,0,0,0,0,75,76,75,0,0,75,0,76,76,76,76,76,75,0,0,0,0,
0,0,0,0,74,0,0,0,0,0,0,74,0,74,0,0,74,0,0,0,0,0,0,0,0,0,0,0,
0,0,0,0,74,0,0,0,0,0,0,74,0,74,0,0,74,0,0,0,0,0,0,0,0,0,0,0,
0,0,0,0,74,0,0,0,0,76,76,75,0,74,0,0,74,0,0,0,0,0,0,0,0,0,0,0,
0,0,0,0,74,0,0,0,74,0,0,0,0,74,0,0,74,0,0,0,0,0,0,0,0,0,0,0,
0,0,0,0,74,0,0,0,74,0,0,0,0,74,0,0,74,0,0,0,0,0,0,0,0,0,0,0,
0,0,0,0,74,0,0,0,75,76,76,75,0,74,0,0,74,0,0,0,0,0,0,0,0,0,0,0,
0,0,0,0,74,0,0,0,0,0,0,74,0,74,0,0,74,0,0,0,0,0,0,0,0,0,0,0,
0,0,0,0,74,0,0,0,0,0,0,74,0,74,0,0,74,0,0,0,0,0,0,0,0,0,0,0,
0,0,0,0,74,0,0,0,0,0,0,74,0,74,0,0,74,0,0,0,0,0,0,0,0,0,0,0,
0,0,0,0,74,0,0,0,0,0,0,74,0,74,0,0,74,0,0,0,0,0,0,0,0,0,0,0,
0,0,0,0,74,0,0,0,0,0,0,74,0,74,0,0,74,0,0,0,0,0,0,0,0,0,0,0,
0,0,0,0,74,0,0,0,0,0,0,0,0,74,0,0,74,0,0,0,0,0,0,0,0,0,0,0,
0,0,0,0,74,0,0,0,0,0,0,74,0,74,0,0,74,0,0,0,0,0,0,0,0,0,0,0,
0,0,0,0,74,0,0,0,0,0,0,0,76,75,0,0,75,76,76,75,0,0,0,0,0,0,0,0,
0,0,0,0,74,0,0,0,0,0,0,0,0,0,0,0,0,0,0,74,0,0,0,0,0,0,0,0,
0,0,0,0,74,0,0,0,0,0,0,0,0,0,0,0,0,0,0,74,0,0,0,0,0,0,0,0,
0,0,0,0,75,76,75,0,0,0,0,0,0,0,0,0,0,0,0,74,0,0,0,0,0,0,0,0,
0,0,0,0,0,0,74,0,0,0,0,0,0,0,0,0,0,0,0,74,0,0,0,0,0,0,0,0,
0,0,0,0,0,0,75,76,76,76,0,0,0,0,0,0,0,0,0,74,0,0,0,0,0,0,0,0,
0,0,0,0,0,0,0,0,0,0,74,0,0,0,0,0,0,0,0,74,0,0,0,0,0,0,0,0,
0,0,0,0,0,0,0,0,0,0,74,0,0,0,0,0,0,0,0,74,0,0,0,0,0,0,0,0,
0,0,0,0,0,0,0,0,0,0,74,0,0,0,0,0,0,0,0,74,0,0,0,0,0,0,0,0,
0,0,0,0,0,0,0,0,0,0,74,0,0,0,0,0,0,0,0,74,0,0,0,0,0,0,0,0,
0,0,0,0,0,0,0,0,0,0,74,0,0,0,0,0,0,0,0,74,0,0,0,0,0,0,0,0,
0,0,0,0,0,0,0,0,0,0,74,0,0,0,0,0,0,0,0,74,0,0,0,0,0,0,0,0,
0,0,0,0,0,0,0,0,0,0,74,0,0,0,0,0,0,0,0,74,0,0,0,0,0,0,0,0,
0,0,0,0,0,0,0,0,0,0,74,0,0,0,0,0,0,0,0,74,0,0,0,0,0,0,0,0,
0,0,0,0,0,0,0,0,0,0,74,0,0,0,0,0,0,0,0,74,0,0,0,0,0,0,0,0,
0,0,0,0,0,0,0,0,0,0,74,0,0,0,0,0,0,0,0,74,0,0,0,0,0,0,0,0,
0,0,0,0,0,0,0,0,0,0,74,0,0,0,0,0,0,0,0,74,0,0,0,0,0,0,0,0,
0,0,0,0,0,0,0,0,0,0,74,0,0,0,0,0,0,0,0,74,0,0,0,0,0,0,0,0,
0,0,0,0,0,0,0,0,0,0,74,0,0,0,0,0,0,0,0,74,0,0,0,0,0,0,0,0,
0,0,0,0,0,0,0,0,0,0,74,0,0,0,0,0,0,0,0,74,0,0,0,0,0,0,0,0,
0,0,0,0,0,0,0,0,0,0,74,0,0,0,0,0,0,0,0,74,0,0,0,0,0,0,0,0,
0,0,0,0,0,0,0,0,0,0,74,0,0,0,0,0,0,0,0,74,0,0,0,0,0,0,0,0,
0,0,0,0,0,0,0,0,0,0,74,0,0,0,0,0,0,0,0,74,0,0,0,0,0,0,0,0,
0,0,0,0,0,0,0,0,0,0,74,0,0,0,0,0,0,0,0,74,0,0,0,0,0,0,0,0,
0,0,0,0,0,0,0,0,0,0,74,0,0,0,0,0,0,0,0,74,0,0,0,0,0,0,0,0
</data>
 </layer>
 <layer id="5" name="tiles-deco" width="28" height="240">
  <data encoding="csv">
73,73,73,73,73,73,73,73,73,73,73,73,0,0,0,0,0,0,73,73,73,73,73,73,73,73,73,73,
73,73,73,73,73,73,73,73,73,73,73,73,0,0,0,0,0,0,73,73,73,73,73,73,73,73,73,73,
73,73,73,73,73,73,73,73,73,73,73,73,0,0,0,0,0,0,73,73,73,73,73,73,73,73,73,73,
73,73,73,73,73,73,73,73,73,73,73,73,0,0,0,0,0,0,73,73,73,73,73,73,73,73,73,73,
73,73,73,73,73,73,73,73,73,73,73,73,0,0,0,0,0,0,73,73,73,73,73,73,73,73,73,73,
73,73,73,73,73,73,73,73,73,73,73,73,0,0,0,0,0,0,73,73,73,73,73,73,73,73,73,73,
73,73,73,73,73,73,73,73,73,73,73,73,0,0,0,0,0,0,73,73,73,73,73,73,73,73,73,73,
73,73,73,73,73,73,73,73,73,73,73,73,0,0,0,0,0,0,73,73,73,73,73,73,73,73,73,73,
73,73,73,73,73,73,73,73,73,73,73,73,0,0,0,0,0,0,73,73,73,73,73,73,73,73,73,73,
73,73,73,73,73,73,73,73,73,73,73,73,0,0,0,0,0,0,73,73,73,73,73,73,73,73,73,73,
73,73,73,73,73,73,73,73,73,73,73,73,0,0,0,0,0,0,73,73,73,73,73,73,73,73,73,73,
73,73,73,73,73,73,73,73,73,73,73,73,0,0,0,0,0,0,73,73,73,73,73,73,73,73,73,73,
73,73,73,73,73,73,73,73,73,73,73,73,0,0,0,0,0,0,73,73,73,73,73,73,73,73,73,73,
73,73,73,73,73,73,73,73,73,73,73,73,0,0,0,0,0,0,73,73,73,73,73,73,73,73,73,73,
73,73,73,73,73,73,73,73,73,73,73,73,0,0,0,0,0,0,73,73,73,73,73,73,73,73,73,73,
73,73,73,73,73,73,73,73,73,73,73,73,0,0,0,0,0,0,73,73,73,73,73,73,73,73,73,73,
73,73,73,73,73,73,73,73,73,73,73,73,0,0,0,0,0,0,73,73,73,73,73,73,73,73,73,73,
73,73,73,73,73,73,73,73,73,73,73,73,0,0,0,0,0,0,73,73,73,73,73,73,73,73,73,73,
73,73,73,73,73,73,73,73,73,73,73,73,0,0,0,0,0,0,73,73,73,73,73,73,73,73,73,73,
73,73,73,73,73,73,73,73,73,73,73,73,0,0,0,0,0,0,73,73,73,73,73,73,73,73,73,73,
73,73,73,73,73,73,73,73,73,73,73,73,0,0,0,0,0,0,73,73,73,73,73,73,73,73,73,73,
73,73,73,73,73,73,73,73,73,73,73,73,0,0,0,0,0,0,73,73,73,73,73,73,73,73,73,73,
73,73,73,73,73,73,73,73,73,73,73,73,0,0,0,0,0,0,73,73,73,73,73,73,73,73,73,73,
73,73,73,73,73,73,73,73,73,73,73,73,0,0,0,0,0,0,73,73,73,73,73,73,73,73,73,73,
73,73,73,73,73,73,73,73,73,73,73,0,0,0,0,0,0,0,0,73,73,73,73,73,73,73,73,73,
73,73,73,73,73,73,73,73,73,73,73,0,0,0,0,0,0,0,0,73,73,73,73,73,73,73,73,73,
73,73,73,73,73,73,73,73,73,73,73,0,0,0,0,0,0,0,0,73,73,73,73,73,73,73,73,73,
73,73,73,73,73,73,73,73,73,73,73,0,0,0,0,0,0,0,0,73,73,73,73,73,73,73,73,73,
73,73,73,73,73,73,73,73,73,73,73,0,0,0,0,0,0,0,0,73,73,73,73,73,73,73,73,73,
73,73,73,73,73,73,73,73,73,73,0,0,0,0,0,0,0,0,0,0,73,73,73,73,73,73,73,73,
73,73,73,73,73,73,73,73,73,73,0,0,0,0,0,0,0,0,0,0,73,73,73,73,73,73,73,73,
73,73,73,73,73,73,73,73,73,73,0,0,0,0,0,0,0,0,0,0,73,73,73,73,73,73,73,73,
73,73,73,73,73,73,73,73,73,73,0,0,0,0,0,0,0,0,0,0,73,73,73,73,73,73,73,73,
73,73,73,73,73,73,73,73,73,0,0,0,0,0,0,0,0,0,0,0,0,73,73,73,73,73,73,73,
73,73,73,73,73,73,73,73,73,0,0,0,0,0,0,0,0,0,0,0,0,73,73,73,73,73,73,73,
73,73,73,73,73,73,73,73,73,0,0,0,0,0,0,0,0,0,0,0,0,73,73,73,73,73,73,73,
73,73,73,73,73,73,73,73,73,0,0,0,0,0,0,0,0,0,0,0,0,73,73,73,73,73,73,73,
73,73,73,73,73,73,73,73,0,0,0,0,0,0,0,0,0,0,0,0,0,0,73,73,73,73,73,73,
73,73,73,73,73,73,73,73,0,0,0,0,0,0,0,0,0,0,0,0,0,0,73,73,73,73,73,73,
73,73,73,73,73,73,73,73,0,0,0,0,0,0,0,0,0,0,0,0,0,0,73,73,73,73,73,73,
73,73,73,73,73,73,73,73,0,0,0,0,0,0,0,0,0,0,0,0,0,0,73,73,73,73,73,73,
73,73,73,73,73,73,73,73,0,0,0,0,0,0,0,0,0,0,0,0,0,0,73,73,73,73,73,73,
73,73,73,73,73,73,73,0,0,0,0,0,0,0,0,0,0,0,0,0,0,0,0,73,73,73,73,73,
73,73,73,73,73,73,73,0,0,0,0,0,0,0,0,0,0,0,0,0,0,0,0,73,73,73,73,73,
73,73,73,73,73,73,73,0,0,0,0,0,0,0,0,0,0,0,0,0,0,0,0,73,73,73,73,73,
73,73,73,73,73,73,73,0,0,0,0,0,0,0,0,0,0,0,0,0,0,0,0,73,73,73,73,73,
73,73,73,73,73,73,73,0,0,0,0,0,0,0,0,0,0,0,0,0,0,0,0,73,73,73,73,73,
73,73,73,73,73,73,73,0,0,0,0,0,0,0,0,0,0,0,0,0,0,0,0,73,73,73,73,73,
73,73,73,73,73,73,0,0,0,0,0,0,0,0,0,0,0,0,0,0,0,0,0,0,73,73,73,73,
73,73,73,73,73,73,0,0,0,0,0,0,0,0,0,0,0,0,0,0,0,0,0,0,73,73,73,73,
73,73,73,73,73,73,0,0,0,0,0,0,0,0,0,0,0,0,0,0,0,0,0,0,73,73,73,73,
73,73,73,73,73,73,0,0,0,0,0,0,0,0,0,0,0,0,0,0,0,0,0,0,73,73,73,73,
73,73,73,73,73,73,0,0,0,0,0,0,0,0,0,0,0,0,0,0,0,0,0,0,73,73,73,73,
73,73,73,73,73,73,0,0,0,0,0,0,0,0,0,0,0,0,0,0,0,0,0,0,73,73,73,73,
73,73,73,73,73,73,0,0,0,0,0,0,0,0,0,0,0,0,0,0,0,0,0,0,73,73,73,73,
73,73,73,73,73,73,0,0,0,0,0,0,0,0,0,0,0,0,0,0,0,0,0,0,73,73,73,73,
73,73,73,73,73,73,0,0,0,0,0,0,0,0,0,0,0,0,0,0,0,0,0,0,73,73,73,73,
73,73,73,73,73,73,0,0,0,0,0,0,0,0,0,0,0,0,0,0,0,0,0,0,73,73,73,73,
73,73,73,73,73,73,0,0,0,0,0,0,0,0,0,0,0,0,0,0,0,0,0,0,73,73,73,73,
73,73,73,73,73,73,0,0,0,0,0,0,0,0,0,0,0,0,0,0,0,0,0,0,73,73,73,73,
73,73,73,73,73,73,0,0,0,0,0,0,0,0,0,0,0,0,0,0,0,0,0,0,73,73,73,73,
73,73,73,73,73,73,0,0,0,0,0,0,0,0,0,0,0,0,0,0,0,0,0,0,73,73,73,73,
73,73,73,73,73,73,0,0,0,0,0,0,0,0,0,0,0,0,0,0,0,0,0,0,73,73,73,73,
73,73,73,73,73,73,0,0,0,0,0,0,0,0,0,0,0,0,0,0,0,0,0,0,73,73,73,73,
73,73,73,73,73,73,0,0,0,0,0,0,0,0,0,0,0,0,0,0,0,0,0,0,73,73,73,73,
73,73,73,73,73,73,0,0,0,0,0,0,0,0,0,0,0,0,0,0,0,0,0,0,73,73,73,73,
73,73,73,73,73,73,0,0,0,0,0,0,0,0,0,0,0,0,0,0,0,0,0,0,73,73,73,73,
73,73,73,73,73,73,0,0,0,0,0,0,0,0,0,0,0,0,0,0,0,0,0,0,73,73,73,73,
73,73,73,73,73,73,73,0,0,0,73,73,73,0,0,0,0,0,73,0,0,0,0,73,73,73,73,73,
73,73,73,73,73,73,73,0,0,0,73,73,73,0,0,0,0,0,73,0,0,0,0,73,73,73,73,73,
73,73,73,73,73,73,73,0,0,0,73,73,73,0,0,0,0,0,73,0,0,0,0,73,73,73,73,73,
73,73,73,73,73,73,73,0,0,0,73,73,73,0,0,0,0,0,73,0,0,0,0,73,73,73,73,73,
73,73,73,73,73,73,73,0,0,0,73,73,73,0,0,0,0,0,73,0,0,0,0,73,73,73,73,73,
73,73,73,73,73,73,73,0,0,0,73,0,0,0,0,0,0,0,73,73,0,0,0,73,73,73,73,73,
73,73,73,73,73,73,73,0,0,0,0,0,0,0,0,0,0,0,73,73,0,0,0,73,73,73,73,73,
73,73,73,73,73,73,73,0,0,0,0,0,0,0,0,0,0,0,73,73,0,0,0,73,73,73,73,73,
73,73,73,73,73,73,73,0,0,0,0,0,0,0,0,0,0,0,73,73,0,0,0,73,73,73,73,73,
73,73,73,73,73,73,73,73,73,73,73,0,0,0,0,0,0,0,73,73,0,0,0,73,73,73,73,73,
73,73,73,73,73,73,73,73,73,73,73,0,0,0,0,0,0,0,73,73,0,0,0,73,73,73,73,73,
73,73,73,73,73,73,73,73,73,73,73,73,73,0,0,0,0,0,73,73,0,0,0,73,73,73,73,73,
73,73,73,73,73,73,73,73,73,73,73,73,73,0,0,0,0,0,73,73,0,0,0,73,73,73,73,73,
73,73,73,73,73,73,73,73,73,73,73,73,73,0,0,0,0,0,73,73,0,0,0,73,73,73,73,73,
73,73,73,73,73,73,73,73,73,73,73,73,73,0,0,0,0,0,73,73,0,0,0,73,73,73,73,73,
73,73,73,73,73,73,73,0,0,0,0,0,0,0,0,0,0,0,0,0,0,0,0,73,73,73,73,73,
73,73,73,73,0,0,0,0,0,0,0,0,0,0,0,0,0,0,0,0,0,0,0,73,73,73,73,73,
73,73,73,73,0,0,0,0,0,0,0,0,0,0,0,0,0,0,0,0,0,0,0,73,73,73,73,73,
73,73,73,73,0,0,0,0,0,0,0,0,0,0,0,0,0,0,73,73,0,0,0,73,73,73,73,73,
73,73,73,73,0,0,0,0,0,0,0,0,0,0,0,0,0,0,73,73,0,0,0,73,73,73,73,73,
73,73,73,73,0,0,0,0,0,0,0,0,0,0,0,0,0,0,73,73,0,0,0,73,73,73,73,73,
73,73,73,73,0,0,0,0,0,0,73,73,73,0,0,0,0,0,73,73,0,0,0,73,73,73,73,73,
73,73,73,73,0,0,0,0,0,0,73,73,73,0,0,0,0,0,73,73,0,0,0,73,73,73,73,73,
73,73,73,73,0,0,0,0,0,0,73,73,73,0,0,0,0,0,73,73,0,0,0,73,73,73,73,73,
73,73,73,73,0,0,0,0,0,0,73,73,73,0,0,0,0,0,0,0,0,0,0,73,73,73,73,73,
73,73,73,73,0,0,0,0,0,0,73,73,73,0,0,0,0,0,0,0,0,0,0,73,73,73,73,73,
73,73,73,73,0,0,0,0,0,0,73,73,73,0,0,0,0,0,0,0,0,0,0,73,73,73,73,73,
73,73,73,73,0,0,0,0,0,0,0,0,73,0,0,0,0,0,0,0,0,0,0,0,0,73,73,73,
73,73,73,73,0,0,0,0,0,0,0,0,73,0,0,0,0,0,0,0,0,0,0,0,0,73,73,73,
73,73,73,73,0,0,0,0,0,0,0,0,73,0,0,0,0,0,0,0,0,0,0,0,0,73,73,73,
73,73,73,73,0,0,0,0,0,0,0,0,73,0,0,0,0,0,73,73,0,0,0,0,0,73,73,73,
73,73,73,73,0,0,0,0,0,0,0,0,73,0,0,0,0,0,73,73,0,0,0,0,0,73,73,73,
73,73,73,73,0,0,0,0,0,0,0,0,73,0,0,0,0,0,73,73,0,0,0,0,0,73,73,73,
73,73,73,73,0,0,0,0,0,0,0,0,0,0,0,0,0,0,73,73,0,0,0,0,0,73,73,73,
73,73,73,73,0,0,0,0,0,0,0,0,0,0,0,0,0,0,73,73,0,0,0,0,0,73,73,73,
73,73,73,73,0,0,0,0,0,0,0,0,0,0,0,0,0,0,73,73,0,0,0,0,0,73,73,73,
73,73,73,73,0,0,0,0,0,0,0,0,0,0,0,0,0,0,73,73,0,0,0,73,73,73,73,73,
73,73,73,73,0,0,0,0,0,0,0,0,0,0,0,0,0,0,73,73,0,0,0,73,73,73,73,73,
73,73,73,73,73,73,0,0,0,0,0,0,0,0,0,0,0,0,73,73,0,0,0,73,73,73,73,73,
73,73,73,73,73,73,73,73,0,0,0,0,0,0,0,0,0,0,73,73,0,0,0,73,73,73,73,73,
73,73,73,73,73,73,73,73,73,73,0,0,0,0,0,0,0,0,73,73,0,0,0,73,73,73,73,73,
73,73,73,73,73,73,73,73,73,73,73,73,0,0,0,0,0,0,73,73,0,0,0,73,73,73,73,73,
73,73,73,73,73,73,73,73,73,73,73,73,0,0,0,0,0,0,73,73,0,0,0,73,73,73,73,73,
73,73,73,73,73,73,73,73,73,73,73,73,0,0,0,0,0,0,73,73,0,0,0,73,73,73,73,73,
73,73,73,73,73,73,73,73,73,73,73,73,0,0,0,0,0,0,73,73,0,0,0,73,73,73,73,73,
73,73,73,73,73,73,73,73,73,73,73,73,0,0,0,0,0,0,73,73,0,0,0,73,73,73,73,73,
73,73,73,73,73,73,73,73,73,73,73,73,0,0,0,0,0,0,73,73,0,0,0,73,73,73,73,73,
73,73,73,73,73,73,73,73,73,73,73,73,0,0,0,0,0,0,73,73,0,0,0,73,73,73,73,73,
73,73,73,73,73,73,73,73,73,73,73,73,0,0,0,0,0,0,73,73,0,0,0,73,73,73,73,73,
73,73,73,73,73,73,73,73,73,73,73,73,0,0,0,0,0,0,73,73,0,0,0,73,73,73,73,73,
73,73,73,73,73,73,73,73,73,73,73,73,0,0,0,0,0,0,0,0,0,0,0,73,73,73,73,73,
73,73,73,73,73,73,73,73,73,73,73,73,0,0,0,0,0,0,0,0,0,0,0,73,73,73,73,73,
73,73,73,73,73,73,73,73,73,73,73,73,0,0,0,0,0,0,0,0,0,0,0,73,73,73,73,73,
73,73,73,73,73,73,73,73,73,73,73,73,0,0,0,0,0,0,0,0,0,0,0,73,73,73,73,73,
73,73,73,73,73,73,73,73,73,73,73,73,0,0,0,0,0,0,0,0,0,0,0,73,73,73,73,73,
73,73,73,73,73,73,73,73,73,73,73,73,0,0,0,0,0,0,0,0,0,0,0,73,73,73,73,73,
73,73,73,73,73,73,73,73,73,73,73,73,0,0,0,0,0,0,0,73,0,0,0,73,73,73,73,73,
73,73,73,73,73,73,73,73,73,73,0,0,0,0,0,0,0,0,0,73,0,0,0,73,73,73,73,73,
73,73,73,73,73,73,73,73,73,73,0,0,0,0,0,0,0,0,0,73,0,0,0,73,73,73,73,73,
73,73,73,73,73,73,73,0,0,0,0,0,0,0,0,0,0,73,73,73,0,0,0,73,73,73,73,73,
73,73,73,73,73,73,73,0,0,0,0,0,0,0,0,0,0,73,73,73,0,0,0,73,73,73,73,73,
73,73,73,73,0,0,0,0,0,0,0,0,0,0,0,0,0,73,73,73,0,0,0,73,73,73,73,73,
73,73,73,73,0,0,0,0,0,0,0,0,0,0,0,0,0,73,73,73,0,0,0,73,73,73,73,73,
73,73,73,73,0,0,0,0,0,0,0,0,0,0,0,0,0,73,73,73,0,0,0,73,73,73,73,73,
73,73,73,73,0,0,0,0,0,0,0,0,0,0,0,0,0,73,73,73,0,0,0,73,73,73,73,73,
73,73,73,73,0,0,0,0,0,0,0,0,0,0,0,0,0,0,0,0,0,0,0,73,73,73,73,73,
73,73,73,73,0,0,0,0,0,0,0,0,0,0,0,0,0,0,0,0,0,0,0,73,73,73,73,73,
73,73,73,73,0,0,0,0,0,0,0,0,0,0,0,0,0,0,0,0,0,0,0,73,73,73,73,73,
73,73,73,73,0,0,0,0,0,0,0,0,0,0,0,0,0,0,0,0,0,0,0,73,73,73,73,73,
73,73,73,73,0,0,0,0,0,0,0,0,0,0,0,0,0,0,0,0,0,0,0,73,73,73,73,73,
73,73,73,73,73,73,73,0,0,0,0,0,0,0,0,0,0,0,73,0,0,0,0,73,73,73,73,73,
73,73,73,73,73,73,73,73,73,73,0,0,0,0,0,0,0,0,73,0,0,0,0,73,73,73,73,73,
73,73,73,73,73,73,73,73,73,73,73,73,73,0,0,0,0,0,73,0,0,0,0,73,73,73,73,73,
73,73,73,73,73,73,73,73,73,73,73,73,73,0,0,0,0,0,73,0,0,0,0,73,73,73,73,73,
73,73,73,73,73,73,73,73,73,73,73,73,73,0,0,0,0,0,73,0,0,0,0,73,73,73,73,73,
73,73,73,73,73,73,73,73,73,73,73,73,73,0,0,0,0,0,73,0,0,0,0,73,73,73,73,73,
73,73,73,73,73,73,73,73,73,73,73,73,73,0,0,0,0,0,73,0,0,0,0,73,73,73,73,73,
73,73,73,73,73,73,73,73,73,73,73,73,73,0,0,0,0,0,0,0,0,0,0,73,73,73,73,73,
73,73,73,73,73,73,73,73,73,73,73,0,0,0,0,0,0,0,0,0,0,0,0,73,73,73,73,73,
73,73,73,73,73,73,73,73,73,73,73,0,0,0,0,0,0,0,0,0,0,0,0,73,73,73,73,73,
73,73,73,73,73,73,0,0,0,0,0,0,0,0,0,0,0,0,0,0,0,0,0,73,73,73,73,73,
73,73,73,73,73,73,0,0,0,0,0,0,0,0,0,0,0,0,73,0,0,0,0,73,73,73,73,73,
73,73,73,73,73,73,0,0,0,0,0,0,0,0,0,0,0,0,73,0,0,0,0,73,73,73,73,73,
73,73,73,73,0,0,0,0,0,0,0,0,0,0,0,0,0,0,73,0,0,0,0,73,73,73,73,73,
73,73,73,73,0,0,0,0,0,0,0,0,0,0,0,0,0,0,73,0,0,0,0,73,73,73,73,73,
73,73,73,73,0,0,0,0,0,0,0,0,0,0,0,0,0,0,73,0,0,0,0,73,73,73,73,73,
73,73,73,73,0,0,0,0,0,0,0,0,0,0,0,0,0,0,73,0,0,0,0,73,73,73,73,73,
73,73,73,73,0,0,0,0,73,73,73,73,73,0,0,0,0,0,73,0,0,0,0,73,73,73,73,73,
73,73,73,73,0,0,0,0,73,73,73,73,73,0,0,0,0,0,73,0,0,0,0,73,73,73,73,73,
73,73,73,73,0,0,0,0,0,0,0,0,73,0,0,0,0,0,73,0,0,0,0,73,73,73,73,73,
73,73,73,73,0,0,0,0,0,0,0,0,73,0,0,0,0,0,0,0,0,0,0,73,73,73,73,73,
73,73,73,73,0,0,0,0,0,0,0,0,0,0,0,0,0,0,0,0,0,0,0,0,0,73,73,73,
73,73,73,73,0,0,0,0,0,0,0,0,0,0,0,0,0,0,0,0,0,0,0,0,0,73,73,73,
73,73,73,73,0,0,0,0,0,0,0,0,0,0,0,0,0,0,0,0,0,0,0,0,0,73,73,73,
73,73,73,73,0,0,0,0,0,0,0,0,0,0,0,0,0,0,0,0,0,0,0,0,0,73,73,73,
73,73,73,73,0,0,0,0,0,0,0,0,0,0,0,0,0,73,0,0,0,0,0,0,0,73,73,73,
73,73,73,73,73,73,73,73,73,73,73,73,73,0,0,0,0,73,0,0,0,0,0,0,0,73,73,73,
73,73,73,73,73,73,73,73,73,73,73,73,73,0,0,0,0,73,0,0,0,0,0,0,0,73,73,73,
73,73,73,73,73,73,73,73,73,73,73,73,73,0,0,0,0,73,0,0,0,0,0,0,0,73,73,73,
73,73,73,73,73,73,73,73,73,73,73,73,73,0,0,0,0,73,0,0,0,0,0,0,0,73,73,73,
73,73,73,73,73,73,73,73,73,73,73,73,73,0,0,0,0,73,0,0,0,0,0,0,0,73,73,73,
73,73,73,73,73,73,73,73,73,73,73,73,73,0,0,0,0,73,0,0,0,0,0,0,0,73,73,73,
73,73,73,73,73,73,73,73,73,73,73,73,73,0,0,0,0,73,0,0,0,0,0,0,0,73,73,73,
73,73,73,73,73,73,73,73,73,73,73,73,73,0,0,0,0,73,0,0,0,0,0,0,0,73,73,73,
73,73,73,73,73,73,73,73,73,73,73,73,73,0,0,0,0,73,0,0,0,0,0,0,0,73,73,73,
73,73,73,73,73,73,73,73,73,73,73,73,73,0,0,0,0,73,0,0,0,0,0,0,0,73,73,73,
73,73,73,73,73,73,73,73,73,73,73,73,73,0,0,0,0,73,0,0,0,0,0,0,0,73,73,73,
73,73,73,73,73,73,73,73,73,73,73,73,73,0,0,0,0,73,0,0,0,0,0,0,0,73,73,73,
73,73,73,73,73,73,73,73,73,73,73,73,73,0,0,0,0,73,0,0,0,0,0,0,0,73,73,73,
73,73,73,73,0,0,0,0,0,0,0,0,0,0,0,0,0,0,0,0,0,0,0,0,0,73,73,73,
73,73,73,73,0,0,0,0,0,0,0,0,0,0,0,0,0,0,0,0,0,0,0,0,0,73,73,73,
73,73,73,73,0,0,0,0,0,0,0,0,0,0,0,0,0,0,0,0,0,0,0,0,0,73,73,73,
73,73,73,73,0,0,0,0,0,0,0,0,0,0,0,0,0,73,73,0,0,0,0,0,73,73,73,73,
73,73,73,73,0,0,0,0,0,0,0,0,0,0,0,0,0,73,73,0,0,0,0,0,73,73,73,73,
73,73,73,73,0,0,0,0,0,0,0,0,0,0,0,0,0,0,0,0,0,0,0,0,73,73,73,73,
73,73,73,73,0,0,0,0,0,0,0,0,0,0,0,0,0,0,0,0,0,0,0,0,73,73,73,73,
73,73,73,73,0,0,0,0,0,0,0,0,0,0,0,0,0,0,0,0,0,0,0,0,73,73,73,73,
73,73,73,73,0,0,0,0,0,0,0,0,0,0,0,0,0,0,0,0,0,0,0,0,73,73,73,73,
73,73,73,73,0,0,0,0,0,0,0,0,0,0,0,0,0,0,0,0,0,0,0,0,73,73,73,73,
73,73,73,73,0,0,0,0,0,0,0,0,0,0,0,0,0,73,0,0,0,0,0,0,73,73,73,73,
73,73,73,73,73,73,73,73,73,73,73,73,73,0,0,0,0,73,0,0,0,0,0,0,73,73,73,73,
73,73,73,73,73,73,73,73,73,73,73,73,73,0,0,0,0,73,0,0,0,0,0,0,73,73,73,73,
73,73,73,73,73,73,73,73,73,73,73,73,73,0,0,0,0,73,0,0,0,0,0,0,73,73,73,73,
73,73,73,73,73,73,73,73,73,73,73,73,73,0,0,0,0,73,0,0,0,0,0,0,73,73,73,73,
73,73,73,73,73,73,73,73,73,73,73,73,73,0,0,0,0,73,0,0,0,0,0,0,73,73,73,73,
73,73,73,73,73,73,73,73,73,73,73,73,73,0,0,0,0,73,0,0,0,0,0,0,73,73,73,73,
73,73,73,73,73,73,73,73,73,73,73,73,73,0,0,0,0,73,0,0,0,0,0,0,73,73,73,73,
73,73,73,73,73,73,73,73,73,73,73,73,73,0,0,0,0,73,0,0,0,0,0,0,73,73,73,73,
73,73,73,73,73,73,73,0,0,0,0,0,0,0,0,0,0,73,0,0,0,0,0,0,73,73,73,73,
73,73,73,73,73,73,73,0,0,0,0,0,0,0,0,0,0,73,0,0,0,0,0,0,73,73,73,73,
73,73,73,73,0,0,0,0,0,0,0,0,0,0,0,0,0,0,0,0,0,0,0,0,73,73,73,73,
73,73,73,73,0,0,0,0,0,0,0,0,0,0,0,0,0,0,0,0,0,0,0,0,73,73,73,73,
73,73,73,73,0,0,0,0,0,0,0,0,0,0,0,0,0,0,0,0,0,0,0,0,73,73,73,73,
73,73,73,73,0,0,0,0,0,0,0,0,0,0,0,0,0,0,0,0,0,0,0,0,73,73,73,73,
73,73,73,73,0,0,0,0,0,0,0,0,73,0,0,0,0,73,73,73,73,73,73,73,73,73,73,73,
73,73,73,73,0,0,0,0,0,0,0,0,73,0,0,0,0,73,73,73,73,73,73,73,73,73,73,73,
73,73,73,73,0,0,0,0,0,0,0,0,73,0,0,0,0,73,73,73,73,73,73,73,73,73,73,73,
73,73,73,73,0,0,0,0,0,73,73,73,73,0,0,0,0,73,73,73,73,73,73,73,73,73,73,73,
73,73,73,73,0,0,0,0,0,73,73,73,73,0,0,0,0,73,73,73,73,73,73,73,73,73,73,73,
73,73,73,73,0,0,0,0,0,0,0,0,73,0,0,0,0,73,73,73,73,73,73,73,73,73,73,73,
73,73,73,73,0,0,0,0,0,0,0,0,73,0,0,0,0,73,73,73,73,73,73,73,73,73,73,73,
73,73,73,73,0,0,0,0,0,0,0,0,73,0,0,0,0,73,73,73,73,73,73,73,73,73,73,73,
73,73,73,73,0,0,0,0,0,0,0,0,73,0,0,0,0,73,73,73,73,73,73,73,73,73,73,73,
73,73,73,73,0,0,0,0,0,0,0,0,73,0,0,0,0,73,73,73,73,73,73,73,73,73,73,73,
73,73,73,73,0,0,0,0,0,0,0,0,73,0,0,0,0,73,73,73,73,73,73,73,73,73,73,73,
73,73,73,73,0,0,0,0,0,0,0,0,73,0,0,0,0,73,73,73,73,73,73,73,73,73,73,73,
73,73,73,73,0,0,0,0,0,0,0,0,73,0,0,0,0,73,73,73,73,73,73,73,73,73,73,73,
73,73,73,73,0,0,0,0,0,0,0,0,0,0,0,0,0,0,0,0,73,73,73,73,73,73,73,73,
73,73,73,73,0,0,0,0,0,0,0,0,0,0,0,0,0,0,0,0,73,73,73,73,73,73,73,73,
73,73,73,73,0,0,0,0,0,0,0,0,0,0,0,0,0,0,0,0,73,73,73,73,73,73,73,73,
73,73,73,73,0,0,0,0,0,0,0,0,0,0,0,0,0,0,0,0,73,73,73,73,73,73,73,73,
73,73,73,73,73,73,0,0,0,0,0,0,0,0,0,0,0,0,0,0,73,73,73,73,73,73,73,73,
73,73,73,73,73,73,0,0,0,0,0,0,0,0,0,0,0,0,0,0,73,73,73,73,73,73,73,73,
73,73,73,73,73,73,73,73,73,73,0,0,0,0,0,0,0,0,0,0,73,73,73,73,73,73,73,73,
73,73,73,73,73,73,73,73,73,73,0,0,0,0,0,0,0,0,0,0,73,73,73,73,73,73,73,73,
73,73,73,73,73,73,73,73,73,73,0,0,0,0,0,0,0,0,0,0,73,73,73,73,73,73,73,73,
73,73,73,73,73,73,73,73,73,73,0,0,0,0,0,0,0,0,0,0,73,73,73,73,73,73,73,73,
73,73,73,73,73,73,73,73,73,73,0,0,0,0,0,0,0,0,0,0,73,73,73,73,73,73,73,73,
73,73,73,73,73,73,73,73,73,73,0,0,0,0,0,0,0,0,0,0,73,73,73,73,73,73,73,73,
73,73,73,73,73,73,73,73,73,73,0,0,0,0,0,0,0,0,0,0,73,73,73,73,73,73,73,73,
73,73,73,73,73,73,73,73,73,73,0,0,0,0,0,0,0,0,0,0,73,73,73,73,73,73,73,73,
73,73,73,73,73,73,73,73,73,73,0,0,0,0,0,0,0,0,0,0,73,73,73,73,73,73,73,73,
73,73,73,73,73,73,73,73,73,73,0,0,0,0,0,0,0,0,0,0,73,73,73,73,73,73,73,73,
73,73,73,73,73,73,73,73,73,73,0,0,0,0,0,0,0,0,0,0,73,73,73,73,73,73,73,73,
73,73,73,73,73,73,73,73,73,73,0,0,0,0,0,0,0,0,0,0,73,73,73,73,73,73,73,73,
73,73,73,73,73,73,73,73,73,73,0,0,0,0,0,0,0,0,0,0,73,73,73,73,73,73,73,73,
73,73,73,73,73,73,73,73,73,73,0,0,0,0,0,0,0,0,0,0,73,73,73,73,73,73,73,73,
73,73,73,73,73,73,73,73,73,73,0,0,0,0,0,0,0,0,0,0,73,73,73,73,73,73,73,73,
73,73,73,73,73,73,73,73,73,73,0,0,0,0,0,0,0,0,0,0,73,73,73,73,73,73,73,73,
73,73,73,73,73,73,73,73,73,73,0,0,0,0,0,0,0,0,0,0,73,73,73,73,73,73,73,73,
73,73,73,73,73,73,73,73,73,73,0,0,0,0,0,0,0,0,0,0,73,73,73,73,73,73,73,73,
73,73,73,73,73,73,73,73,73,73,0,0,0,0,0,0,0,0,0,0,73,73,73,73,73,73,73,73
</data>
 </layer>
 <layer id="18" name="tiles-deco2" width="28" height="240" visible="0">
  <data encoding="csv">
0,0,0,0,0,0,0,0,0,0,0,0,0,0,0,0,0,0,0,0,0,0,0,0,0,0,0,0,
0,0,0,0,0,0,0,0,0,0,0,0,0,0,0,0,0,0,0,0,0,0,0,0,0,0,0,0,
0,0,0,0,0,0,0,0,0,0,0,0,0,0,0,0,0,0,0,0,0,0,0,0,0,0,0,0,
0,0,0,0,0,0,0,0,0,0,0,0,0,0,0,0,0,0,0,0,0,0,0,0,0,0,0,0,
0,0,0,0,0,0,0,0,0,0,0,0,0,0,0,0,0,0,0,0,0,0,0,0,0,0,0,0,
0,0,0,0,0,0,0,0,0,0,0,0,0,0,0,0,0,0,0,0,0,0,0,0,0,0,0,0,
0,0,0,0,0,0,0,0,0,0,0,0,0,0,0,0,0,0,0,0,0,0,0,0,0,0,0,0,
0,0,0,0,0,0,0,0,0,0,0,0,0,0,0,0,0,0,0,0,0,0,0,0,0,0,0,0,
0,0,0,0,0,0,0,0,0,0,0,0,0,0,0,0,0,0,0,0,0,0,0,0,0,0,0,0,
0,0,0,0,0,0,0,0,0,0,0,0,0,0,0,0,0,0,0,0,0,0,0,0,0,0,0,0,
0,0,0,0,0,0,0,0,0,0,0,0,0,0,0,0,0,0,0,0,0,0,0,0,0,0,0,0,
0,0,0,0,0,0,0,0,0,0,0,0,0,0,0,0,0,0,0,0,0,0,0,0,0,0,0,0,
0,0,0,0,0,0,0,0,0,0,0,0,0,0,0,0,0,0,0,0,0,0,0,0,0,0,0,0,
0,0,0,0,0,0,0,0,0,0,0,0,0,0,0,0,0,0,0,0,0,0,0,0,0,0,0,0,
0,0,0,0,0,0,0,0,0,0,0,0,0,0,0,0,0,0,0,0,0,0,0,0,0,0,0,0,
0,0,0,0,0,0,0,0,0,0,0,0,0,0,0,0,0,0,0,0,0,0,0,0,0,0,0,0,
0,0,0,0,0,0,0,0,0,0,0,0,0,0,0,0,0,0,0,0,0,0,0,0,0,0,0,0,
0,0,0,0,0,0,0,0,0,0,0,0,0,0,0,0,0,0,0,0,0,0,0,0,0,0,0,0,
0,0,0,0,0,0,0,0,0,0,0,0,0,0,0,0,0,0,0,0,0,0,0,0,0,0,0,0,
0,0,0,0,0,0,0,0,0,0,0,0,0,0,0,0,0,0,0,0,0,0,0,0,0,0,0,0,
0,0,0,0,0,0,0,0,0,0,0,0,0,0,0,0,0,0,0,0,0,0,0,0,0,0,0,0,
0,0,0,0,0,0,0,0,0,0,0,0,0,0,0,0,0,0,0,0,0,0,0,0,0,0,0,0,
0,0,0,0,0,0,0,0,0,0,0,0,0,0,0,0,0,0,0,0,0,0,0,0,0,0,0,0,
0,0,0,0,0,0,0,0,0,0,0,0,0,0,0,0,0,0,0,0,0,0,0,0,0,0,0,0,
0,0,0,0,0,0,0,0,0,0,0,0,0,0,0,0,0,0,0,0,0,0,0,0,0,0,0,0,
0,0,0,0,0,0,0,0,0,0,0,0,0,0,0,0,0,0,0,0,0,0,0,0,0,0,0,0,
0,0,0,0,0,0,0,0,0,0,0,0,0,0,0,0,0,0,0,0,0,0,0,0,0,0,0,0,
0,0,0,0,0,0,0,0,0,0,0,0,0,0,0,0,0,0,0,0,0,0,0,0,0,0,0,0,
0,0,0,0,0,0,0,0,0,0,0,0,0,0,0,0,0,0,0,0,0,0,0,0,0,0,0,0,
0,0,0,0,0,0,0,0,0,0,0,0,0,0,0,0,0,0,0,0,0,0,0,0,0,0,0,0,
0,0,0,0,0,0,0,0,0,0,0,0,0,0,0,0,0,0,0,0,0,0,0,0,0,0,0,0,
0,0,0,0,0,0,0,0,0,0,0,0,0,0,0,0,0,0,0,0,0,0,0,0,0,0,0,0,
0,0,0,0,0,0,0,0,0,0,0,0,0,0,0,0,0,0,0,0,0,0,0,0,0,0,0,0,
0,0,0,0,0,0,0,0,0,0,0,0,0,0,0,0,0,0,0,0,0,0,0,0,0,0,0,0,
0,0,0,0,0,0,0,0,0,0,0,0,0,0,0,0,0,0,0,0,0,0,0,0,0,0,0,0,
0,0,0,0,0,0,0,0,0,0,0,0,0,0,0,0,0,0,0,0,0,0,0,0,0,0,0,0,
0,0,0,0,0,0,0,0,0,0,0,0,0,0,0,0,0,0,0,0,0,0,0,0,0,0,0,0,
0,0,0,0,0,0,0,0,0,0,0,0,0,0,0,0,0,0,0,0,0,0,0,0,0,0,0,0,
0,0,0,0,0,0,0,0,0,0,0,0,0,0,0,0,0,0,0,0,0,0,0,0,0,0,0,0,
0,0,0,0,0,0,0,0,0,0,0,0,0,0,0,0,0,0,0,0,0,0,0,0,0,0,0,0,
0,0,0,0,0,0,0,0,0,0,0,0,0,0,0,0,0,0,0,0,0,0,0,0,0,0,0,0,
0,0,0,0,0,0,0,0,0,0,0,0,0,0,0,0,0,0,0,0,0,0,0,0,0,0,0,0,
0,0,0,0,0,0,0,0,0,0,0,0,0,0,0,0,0,0,0,0,0,0,0,0,0,0,0,0,
0,0,0,0,0,0,0,0,0,0,0,0,0,0,0,0,0,0,0,0,0,0,0,0,0,0,0,0,
0,0,0,0,0,0,0,0,0,0,0,0,0,0,0,0,0,0,0,0,0,0,0,0,0,0,0,0,
0,0,0,0,0,0,0,0,0,0,0,0,0,0,0,0,0,0,0,0,0,0,0,0,0,0,0,0,
0,0,0,0,0,0,0,0,0,0,0,0,0,0,0,0,0,0,0,0,0,0,0,0,0,0,0,0,
0,0,0,0,0,0,0,0,0,0,0,0,0,0,0,0,0,0,0,0,0,0,0,0,0,0,0,0,
0,0,0,0,0,0,0,0,0,0,0,0,0,0,0,0,0,0,0,0,0,0,0,0,0,0,0,0,
0,0,0,0,0,0,0,0,0,0,0,0,0,0,0,0,0,0,0,0,0,0,0,0,0,0,0,0,
0,0,0,0,0,0,0,0,0,0,0,0,0,0,0,0,0,0,0,0,0,0,0,0,0,0,0,0,
0,0,0,0,0,0,0,0,0,0,0,0,0,0,0,0,0,0,0,0,0,0,0,0,0,0,0,0,
0,0,0,0,0,0,0,0,0,0,0,0,0,0,0,0,0,0,0,0,0,0,0,0,0,0,0,0,
0,0,0,0,0,0,0,0,0,0,0,0,0,0,0,0,0,0,0,0,0,0,0,0,0,0,0,0,
0,0,0,0,0,0,0,0,0,0,0,0,0,0,0,0,0,0,0,0,0,0,0,0,0,0,0,0,
0,0,0,0,0,0,0,0,0,0,0,0,0,0,0,0,0,0,0,0,0,0,0,0,0,0,0,0,
0,0,0,0,0,0,0,0,0,0,0,0,0,0,0,0,0,0,0,0,0,0,0,0,0,0,0,0,
0,0,0,0,0,0,0,0,0,0,0,0,0,0,0,0,0,0,0,0,0,0,0,0,0,0,0,0,
0,0,0,0,0,0,0,0,0,0,0,0,0,0,0,0,0,0,0,0,0,0,0,0,0,0,0,0,
0,0,0,0,0,0,0,0,0,0,0,0,0,0,0,0,0,0,0,0,0,0,0,0,0,0,0,0,
0,0,0,0,0,0,0,0,0,0,0,0,0,0,0,0,0,0,0,0,0,0,0,0,0,0,0,0,
0,0,0,0,0,0,0,0,0,0,0,0,0,0,0,0,0,0,0,0,0,0,0,0,0,0,0,0,
0,0,0,0,0,0,0,0,0,0,0,0,0,0,0,0,0,0,0,0,0,0,0,0,0,0,0,0,
0,0,0,0,0,0,0,0,0,0,0,0,0,0,0,0,0,0,0,0,0,0,0,0,0,0,0,0,
0,0,0,0,0,0,0,0,0,0,0,0,0,0,0,0,0,0,0,0,0,0,0,0,0,0,0,0,
0,0,0,0,0,0,0,0,0,0,0,0,0,0,0,0,0,0,0,0,0,0,0,0,0,0,0,0,
0,0,0,0,0,0,0,0,0,0,0,0,0,0,0,0,0,0,0,0,0,0,0,0,0,0,0,0,
0,0,0,0,0,0,0,0,0,0,0,0,0,0,0,0,0,0,0,0,0,0,0,0,0,0,0,0,
0,0,0,0,0,0,0,0,0,0,0,0,0,0,0,0,0,0,0,0,0,0,0,0,0,0,0,0,
0,0,0,0,0,0,0,0,0,0,0,0,0,0,0,0,0,0,0,0,0,0,0,0,0,0,0,0,
0,0,0,0,0,0,0,0,0,0,0,0,0,0,0,0,0,0,0,0,0,0,0,0,0,0,0,0,
0,0,0,0,0,0,0,0,0,0,0,0,0,0,0,0,0,0,0,0,0,0,0,0,0,0,0,0,
0,0,0,0,0,0,0,0,0,0,0,0,0,0,0,0,0,0,0,0,0,0,0,0,0,0,0,0,
0,0,0,0,0,0,0,0,0,0,0,0,0,0,0,0,0,0,0,0,0,0,0,0,0,0,0,0,
0,0,0,0,0,0,0,0,0,0,0,0,0,0,0,0,0,0,0,0,0,0,0,0,0,0,0,0,
0,0,0,0,0,0,0,0,0,0,0,0,0,0,0,0,0,0,0,0,0,0,0,0,0,0,0,0,
0,0,0,0,0,0,0,0,0,0,0,0,0,0,0,0,0,0,0,0,0,0,0,0,0,0,0,0,
0,0,0,0,0,0,0,0,0,0,0,0,0,0,0,0,0,0,0,0,0,0,0,0,0,0,0,0,
0,0,0,0,0,0,0,0,0,0,0,0,0,0,0,0,0,0,0,0,0,0,0,0,0,0,0,0,
0,0,0,0,0,0,0,0,0,0,0,0,0,0,0,0,0,0,0,0,0,0,0,0,0,0,0,0,
0,0,0,0,0,0,0,0,0,0,0,0,0,0,0,0,0,0,0,0,0,0,0,0,0,0,0,0,
0,0,0,0,0,0,0,0,0,0,0,0,0,0,0,0,0,0,0,0,0,0,0,0,0,0,0,0,
0,0,0,0,0,0,0,0,0,0,0,0,0,0,0,0,0,0,0,0,0,0,0,0,0,0,0,0,
0,0,0,0,0,0,0,0,0,0,0,0,0,0,0,0,0,0,0,0,0,0,0,0,0,0,0,0,
0,0,0,0,0,0,0,0,0,0,0,0,0,0,0,0,0,0,0,0,0,0,0,0,0,0,0,0,
0,0,0,0,0,0,0,0,0,0,0,0,0,0,0,0,0,0,0,0,0,0,0,0,0,0,0,0,
0,0,0,0,0,0,0,0,0,0,0,0,0,0,0,0,0,0,0,0,0,0,0,0,0,0,0,0,
0,0,0,0,0,0,0,0,0,0,0,0,0,0,0,0,0,0,0,0,0,0,0,0,0,0,0,0,
0,0,0,0,0,0,0,0,0,0,0,0,0,0,0,0,0,0,0,0,0,0,0,0,0,0,0,0,
0,0,0,0,0,0,0,0,0,0,0,0,0,0,0,0,0,0,0,0,0,0,0,0,0,0,0,0,
0,0,0,0,0,0,0,0,0,0,0,0,0,0,0,0,0,0,0,0,0,0,0,0,0,0,0,0,
0,0,0,0,0,0,0,0,0,0,0,0,0,0,0,0,0,0,0,0,0,0,0,0,0,0,0,0,
0,0,0,0,0,0,0,0,0,0,0,0,0,0,0,0,0,0,0,0,0,0,0,0,0,0,0,0,
0,0,0,0,0,0,0,0,0,0,0,0,0,0,0,0,0,0,0,0,0,0,0,0,0,0,0,0,
0,0,0,0,0,0,0,0,0,0,0,0,0,0,0,0,0,0,0,0,0,0,0,0,0,0,0,0,
0,0,0,0,0,0,0,0,0,0,0,0,0,0,0,0,0,0,0,0,0,0,0,0,0,0,0,0,
0,0,0,0,0,0,0,0,0,0,0,0,0,0,0,0,0,0,0,0,0,0,0,0,0,0,0,0,
0,0,0,0,0,0,0,0,0,0,0,0,0,0,0,0,0,0,0,0,0,0,0,0,0,0,0,0,
0,0,0,0,0,0,0,0,0,0,0,0,0,0,0,0,0,0,0,0,0,0,0,0,0,0,0,0,
0,0,0,0,0,0,0,0,0,0,0,0,0,0,0,0,0,0,0,0,0,0,0,0,0,0,0,0,
0,0,0,0,0,0,0,0,0,0,0,0,0,0,0,0,0,0,0,0,0,0,0,0,0,0,0,0,
0,0,0,0,0,0,0,0,0,0,0,0,0,0,0,0,0,0,0,0,0,0,0,0,0,0,0,0,
0,0,0,0,0,0,0,0,0,0,0,0,0,0,0,0,0,0,0,0,0,0,0,0,0,0,0,0,
0,0,0,0,0,0,0,0,0,0,0,0,0,0,0,0,0,0,0,0,0,0,0,0,0,0,0,0,
0,0,0,0,0,0,0,0,0,0,0,0,0,0,0,0,0,0,0,0,0,0,0,0,0,0,0,0,
0,0,0,0,0,0,0,0,0,0,0,0,0,0,0,0,0,0,0,0,0,0,0,0,0,0,0,0,
0,0,0,0,0,0,0,0,0,0,0,0,0,0,0,0,0,0,0,0,0,0,0,0,0,0,0,0,
0,0,0,0,0,0,0,0,0,0,0,0,0,0,0,0,0,0,0,0,0,0,0,0,0,0,0,0,
0,0,0,0,0,0,0,0,0,0,0,0,0,0,0,0,0,0,0,0,0,0,0,0,0,0,0,0,
0,0,0,0,0,0,0,0,0,0,0,0,0,0,0,0,0,0,0,0,0,0,0,0,0,0,0,0,
0,0,0,0,0,0,0,0,0,0,0,0,0,0,0,0,0,0,0,0,0,0,0,0,0,0,0,0,
0,0,0,0,0,0,0,0,0,0,0,0,0,0,0,0,0,0,0,0,0,0,0,0,0,0,0,0,
0,0,0,0,0,0,0,0,0,0,0,0,0,0,0,0,0,0,0,0,0,0,0,0,0,0,0,0,
0,0,0,0,0,0,0,0,0,0,0,0,0,0,0,0,0,0,0,0,0,0,0,0,0,0,0,0,
0,0,0,0,0,0,0,0,0,0,0,0,0,0,0,0,0,0,0,0,0,0,0,0,0,0,0,0,
0,0,0,0,0,0,0,0,0,0,0,0,0,0,0,0,0,0,0,0,0,0,0,0,0,0,0,0,
0,0,0,0,0,0,0,0,0,0,0,0,0,0,0,0,0,0,0,0,0,0,0,0,0,0,0,0,
0,0,0,0,0,0,0,0,0,0,0,0,0,0,0,0,0,0,0,0,0,0,0,0,0,0,0,0,
0,0,0,0,0,0,0,0,0,0,0,0,0,0,0,0,0,0,0,0,0,0,0,0,0,0,0,0,
0,0,0,0,0,0,0,0,0,0,0,0,0,0,0,0,0,0,0,0,0,0,0,0,0,0,0,0,
0,0,0,0,0,0,0,0,0,0,0,0,0,0,0,0,0,0,0,0,0,0,0,0,0,0,0,0,
0,0,0,0,0,0,0,0,0,0,0,0,0,0,0,0,0,0,0,0,0,0,0,0,0,0,0,0,
0,0,0,0,0,0,0,0,0,0,0,0,0,0,0,0,0,0,0,0,0,0,0,0,0,0,0,0,
0,0,0,0,0,0,0,0,0,0,0,0,0,0,0,0,0,0,0,0,0,0,0,0,0,0,0,0,
0,0,0,0,0,0,0,0,0,0,0,0,0,0,0,0,0,0,0,0,0,0,0,0,0,0,0,0,
0,0,0,0,0,0,0,0,0,0,0,0,0,0,0,0,0,0,0,0,0,0,0,0,0,0,0,0,
0,0,0,0,0,0,0,0,0,0,0,0,0,0,0,0,0,0,0,0,0,0,0,0,0,0,0,0,
0,0,0,0,0,0,0,0,0,0,0,0,0,0,0,0,0,0,0,0,0,0,0,0,0,0,0,0,
0,0,0,0,0,0,0,0,0,0,0,0,0,0,0,0,0,0,0,0,0,0,0,0,0,0,0,0,
0,0,0,0,0,0,0,0,0,0,0,0,0,0,0,0,0,0,0,0,0,0,0,0,0,0,0,0,
0,0,0,0,0,0,0,0,0,0,0,0,0,0,0,0,0,0,0,0,0,0,0,0,0,0,0,0,
0,0,0,0,0,0,0,0,0,0,0,0,0,0,0,0,0,0,0,0,0,0,0,0,0,0,0,0,
0,0,0,0,0,0,0,0,0,0,0,0,0,0,0,0,0,0,0,0,0,0,0,0,0,0,0,0,
0,0,0,0,0,0,0,0,0,0,0,0,0,0,0,0,0,0,0,0,0,0,0,0,0,0,0,0,
0,0,0,0,0,0,0,0,0,0,0,0,0,0,0,0,0,0,0,0,0,0,0,0,0,0,0,0,
0,0,0,0,0,0,0,0,0,0,0,0,0,0,0,0,0,0,0,0,0,0,0,0,0,0,0,0,
0,0,0,0,0,0,0,0,0,0,0,0,0,0,0,0,0,0,0,0,0,0,0,0,0,0,0,0,
0,0,0,0,0,0,0,0,0,0,0,0,0,0,0,0,0,0,0,0,0,0,0,0,0,0,0,0,
0,0,0,0,0,0,0,0,0,0,0,0,0,0,0,0,0,0,0,0,0,0,0,0,0,0,0,0,
0,0,0,0,0,0,0,0,0,0,0,0,0,0,0,0,0,0,0,0,0,0,0,0,0,0,0,0,
0,0,0,0,0,0,0,0,0,0,0,0,0,0,0,0,0,0,0,0,0,0,0,0,0,0,0,0,
0,0,0,0,0,0,0,0,0,0,0,0,0,0,0,0,0,0,0,0,0,0,0,0,0,0,0,0,
0,0,0,0,0,0,0,0,0,0,0,0,0,0,0,0,0,0,0,0,0,0,0,0,0,0,0,0,
0,0,0,0,0,0,0,0,0,0,0,0,0,0,0,0,0,0,0,0,0,0,0,0,0,0,0,0,
0,0,0,0,0,0,0,0,0,0,0,0,0,0,0,0,0,0,0,0,0,0,0,0,0,0,0,0,
0,0,0,0,0,0,0,0,0,0,0,0,0,0,0,0,0,0,0,0,0,0,0,0,0,0,0,0,
0,0,0,0,0,0,0,0,0,0,0,0,0,0,0,0,0,0,0,0,0,0,0,0,0,0,0,0,
0,0,0,0,0,0,0,0,0,0,0,0,0,0,0,0,0,0,0,0,0,0,0,0,0,0,0,0,
0,0,0,0,0,0,0,0,0,0,0,0,0,0,0,0,0,0,0,0,0,0,0,0,0,0,0,0,
0,0,0,0,0,0,0,0,0,0,0,0,0,0,0,0,0,0,0,0,0,0,0,0,0,0,0,0,
0,0,0,0,0,0,0,0,0,0,0,0,0,0,0,0,0,0,0,0,0,0,0,0,0,0,0,0,
0,0,0,0,0,0,0,0,0,0,0,0,0,0,0,0,0,0,0,0,0,0,0,0,0,0,0,0,
0,0,0,0,0,0,0,0,0,0,0,0,0,0,0,0,0,0,0,0,0,0,0,0,0,0,0,0,
0,0,0,0,0,0,0,0,0,0,0,0,0,0,0,0,0,0,0,0,0,0,0,0,0,0,0,0,
0,0,0,0,0,0,0,0,0,0,0,0,0,0,0,0,0,0,0,0,0,0,0,0,0,0,0,0,
0,0,0,0,0,0,0,0,0,0,0,0,0,0,0,0,0,0,0,0,0,0,0,0,0,0,0,0,
0,0,0,0,0,0,0,0,0,0,0,0,0,0,0,0,0,0,0,0,0,0,0,0,0,0,0,0,
0,0,0,0,0,0,0,0,0,0,0,0,0,0,0,0,0,0,0,0,0,0,0,0,0,0,0,0,
0,0,0,0,0,0,0,0,0,0,0,0,0,0,0,0,0,0,0,0,0,0,0,0,0,0,0,0,
0,0,0,0,0,0,0,0,0,0,0,0,0,0,0,0,0,0,0,0,0,0,0,0,0,0,0,0,
0,0,0,0,0,0,0,0,0,0,0,0,0,0,0,0,0,0,0,0,0,0,0,0,0,0,0,0,
0,0,0,0,0,0,0,0,0,0,0,0,0,0,0,0,0,0,0,0,0,0,0,0,0,0,0,0,
0,0,0,0,0,0,0,0,0,0,0,0,0,0,0,0,0,0,0,0,0,0,0,0,0,0,0,0,
0,0,0,0,0,0,0,0,0,0,0,0,0,0,0,0,0,0,0,0,0,0,0,0,0,0,0,0,
0,0,0,0,0,0,0,0,0,0,0,0,0,0,0,0,0,0,0,0,0,0,0,0,0,0,0,0,
0,0,0,0,0,0,0,0,0,0,0,0,0,0,0,0,0,0,0,0,0,0,0,0,0,0,0,0,
0,0,0,0,0,0,0,0,0,0,0,0,0,0,0,0,0,0,0,0,0,0,0,0,0,0,0,0,
0,0,0,0,0,0,0,0,0,0,0,0,0,0,0,0,0,0,0,0,0,0,0,0,0,0,0,0,
0,0,0,0,0,0,0,0,0,0,0,0,0,0,0,0,0,0,0,0,0,0,0,0,0,0,0,0,
0,0,0,0,0,0,0,0,0,0,0,0,0,0,0,0,0,0,0,0,0,0,0,0,0,0,0,0,
0,0,0,0,0,0,0,0,0,0,0,0,0,0,0,0,0,0,0,0,0,0,0,0,0,0,0,0,
0,0,0,0,0,0,0,0,0,0,0,0,0,0,0,0,0,0,0,0,0,0,0,0,0,0,0,0,
0,0,0,0,0,0,0,0,0,0,0,0,0,0,0,0,0,0,0,0,0,0,0,0,0,0,0,0,
0,0,0,0,0,0,0,0,0,0,0,0,0,0,0,0,0,0,0,0,0,0,0,0,0,0,0,0,
0,0,0,0,0,0,0,0,0,0,0,0,0,0,0,0,0,0,0,0,0,0,0,0,0,0,0,0,
0,0,0,0,0,0,0,0,0,0,0,0,0,0,0,0,0,0,0,0,0,0,0,0,0,0,0,0,
0,0,0,0,0,0,0,0,0,0,0,0,0,0,0,0,0,0,0,0,0,0,0,0,0,0,0,0,
0,0,0,0,0,0,0,0,0,0,0,0,0,0,0,0,0,0,0,0,0,0,0,0,0,0,0,0,
0,0,0,0,0,0,0,0,0,0,0,0,0,0,0,0,0,0,0,0,0,0,0,0,0,0,0,0,
0,0,0,0,0,0,0,0,0,0,0,0,0,0,0,0,0,0,0,0,0,0,0,0,0,0,0,0,
0,0,0,0,0,0,0,0,0,0,0,0,0,0,0,0,0,0,0,0,0,0,0,0,0,0,0,0,
0,0,0,0,0,0,0,0,0,0,0,0,0,0,0,0,0,0,0,0,0,0,0,0,0,0,0,0,
0,0,0,0,0,0,0,0,0,0,0,0,0,0,0,0,0,0,0,0,0,0,0,0,0,0,0,0,
0,0,0,0,0,0,0,0,0,0,0,0,0,0,0,0,0,0,0,0,0,0,0,0,0,0,0,0,
0,0,0,0,0,0,0,0,0,0,0,0,0,0,0,0,0,0,0,0,0,0,0,0,0,0,0,0,
0,0,0,0,0,0,0,0,0,0,0,0,0,0,0,0,0,0,0,0,0,0,0,0,0,0,0,0,
0,0,0,0,0,0,0,0,0,0,0,0,0,0,0,0,0,0,0,0,0,0,0,0,0,0,0,0,
0,0,0,0,0,0,0,0,0,0,0,0,0,0,0,0,0,0,0,0,0,0,0,0,0,0,0,0,
0,0,0,0,0,0,0,0,0,0,0,0,0,0,0,0,0,0,0,0,0,0,0,0,0,0,0,0,
0,0,0,0,0,0,0,0,0,0,0,0,0,0,0,0,0,0,0,0,0,0,0,0,0,0,0,0,
0,0,0,0,0,0,0,0,0,0,0,0,0,0,0,0,0,0,0,0,0,0,0,0,0,0,0,0,
0,0,0,0,0,0,0,0,0,0,0,0,0,0,0,0,0,0,0,0,0,0,0,0,0,0,0,0,
0,0,0,0,0,0,0,0,0,0,0,0,0,0,0,0,0,0,0,0,0,0,0,0,0,0,0,0,
0,0,0,0,0,0,0,0,0,0,0,0,0,0,0,0,0,0,0,0,0,0,0,0,0,0,0,0,
0,0,0,0,0,0,0,0,0,0,0,0,0,0,0,0,0,0,0,0,0,0,0,0,0,0,0,0,
0,0,0,0,0,0,0,0,0,0,0,0,0,0,0,0,0,0,0,0,0,0,0,0,0,0,0,0,
0,0,0,0,0,0,0,0,0,0,0,0,0,0,0,0,0,0,0,0,0,0,0,0,0,0,0,0,
0,0,0,0,0,0,0,0,0,0,0,0,0,0,0,0,0,0,0,0,0,0,0,0,0,0,0,0,
0,0,0,0,0,0,0,0,0,0,0,0,0,0,0,0,0,0,0,0,0,0,0,0,0,0,0,0,
0,0,0,0,0,0,0,0,0,0,0,0,0,0,0,0,0,0,0,0,0,0,0,0,0,0,0,0,
0,0,0,0,0,0,0,0,0,0,0,0,0,0,0,0,0,0,0,0,0,0,0,0,0,0,0,0,
0,0,0,0,0,0,0,0,0,0,0,0,0,0,0,0,0,0,0,0,0,0,0,0,0,0,0,0,
0,0,0,0,0,0,0,0,0,0,0,0,0,0,0,0,0,0,0,0,0,0,0,0,0,0,0,0,
0,0,0,0,0,0,0,0,0,0,0,0,0,0,0,0,0,0,0,0,0,0,0,0,0,0,0,0,
0,0,0,0,0,0,0,0,0,0,0,0,0,0,0,0,0,0,0,0,0,0,0,0,0,0,0,0,
0,0,0,0,0,0,0,0,0,0,0,0,0,0,0,0,0,0,0,0,0,0,0,0,0,0,0,0,
0,0,0,0,0,0,0,0,0,0,0,0,0,0,0,0,0,0,0,0,0,0,0,0,0,0,0,0,
0,0,0,0,0,0,0,0,0,0,0,0,0,0,0,0,0,0,0,0,0,0,0,0,0,0,0,0,
0,0,0,0,0,0,0,0,0,0,0,0,0,0,0,0,0,0,0,0,0,0,0,0,0,0,0,0,
0,0,0,0,0,0,0,0,0,0,0,0,0,0,0,0,0,0,0,0,0,0,0,0,0,0,0,0,
0,0,0,0,0,0,0,0,0,0,0,0,0,0,0,0,0,0,0,0,0,0,0,0,0,0,0,0,
0,0,0,0,0,0,0,0,0,0,0,0,0,0,0,0,0,0,0,0,0,0,0,0,0,0,0,0,
0,0,0,0,0,0,0,0,0,0,0,0,0,0,0,0,0,0,0,0,0,0,0,0,0,0,0,0,
0,0,0,0,0,0,0,0,0,0,0,0,0,0,0,0,0,0,0,0,0,0,0,0,0,0,0,0,
0,0,0,0,0,0,0,0,0,0,0,0,0,0,0,0,0,0,0,0,0,0,0,0,0,0,0,0,
0,0,0,0,0,0,0,0,0,0,0,0,0,0,0,0,0,0,0,0,0,0,0,0,0,0,0,0,
0,0,0,0,0,0,0,0,0,0,0,0,0,0,0,0,0,0,0,0,0,0,0,0,0,0,0,0,
0,0,0,0,0,0,0,0,0,0,0,0,0,0,0,0,0,0,0,0,0,0,0,0,0,0,0,0,
0,0,0,0,0,0,0,0,0,0,0,0,0,0,0,0,0,0,0,0,0,0,0,0,0,0,0,0,
0,0,0,0,0,0,0,0,0,0,0,0,0,0,0,0,0,0,0,0,0,0,0,0,0,0,0,0,
0,0,0,0,0,0,0,0,0,0,0,0,0,0,0,0,0,0,0,0,0,0,0,0,0,0,0,0,
0,0,0,0,0,0,0,0,0,0,0,0,0,0,0,0,0,0,0,0,0,0,0,0,0,0,0,0,
0,0,0,0,0,0,0,0,0,0,0,0,0,0,0,0,0,0,0,0,0,0,0,0,0,0,0,0,
0,0,0,0,0,0,0,0,0,0,0,0,0,0,0,0,0,0,0,0,0,0,0,0,0,0,0,0,
0,0,0,0,0,0,0,0,0,0,0,0,0,0,0,0,0,0,0,0,0,0,0,0,0,0,0,0,
0,0,0,0,0,0,0,0,0,0,0,0,0,0,0,0,0,0,0,0,0,0,0,0,0,0,0,0,
0,0,0,0,0,0,0,0,0,0,0,0,0,0,0,0,0,0,0,0,0,0,0,0,0,0,0,0,
0,0,0,0,0,0,0,0,0,0,0,0,0,0,0,0,0,0,0,0,0,0,0,0,0,0,0,0,
0,0,0,0,0,0,0,0,0,0,0,0,0,0,0,0,0,0,0,0,0,0,0,0,0,0,0,0,
0,0,0,0,0,0,0,0,0,0,0,0,0,0,0,0,0,0,0,0,0,0,0,0,0,0,0,0,
0,0,0,0,0,0,0,0,0,0,0,0,0,0,0,0,0,0,0,0,0,0,0,0,0,0,0,0,
0,0,0,0,0,0,0,0,0,0,0,0,0,0,0,0,0,0,0,0,0,0,0,0,0,0,0,0,
0,0,0,0,0,0,0,0,0,0,0,0,0,0,0,0,0,0,0,0,0,0,0,0,0,0,0,0,
0,0,0,0,0,0,0,0,0,0,0,0,0,0,0,0,0,0,0,0,0,0,0,0,0,0,0,0,
0,0,0,0,0,0,0,0,0,0,0,0,0,0,0,0,0,0,0,0,0,0,0,0,0,0,0,0,
0,0,0,0,0,0,0,0,0,0,0,0,0,0,0,0,0,0,0,0,0,0,0,0,0,0,0,0,
0,0,0,0,0,0,0,0,0,0,0,0,0,0,0,0,0,0,0,0,0,0,0,0,0,0,0,0,
0,0,0,0,0,0,0,0,0,0,0,0,0,0,0,0,0,0,0,0,0,0,0,0,0,0,0,0,
0,0,0,0,0,0,0,0,0,0,0,0,0,0,0,0,0,0,0,0,0,0,0,0,0,0,0,0,
0,0,0,0,0,0,0,0,0,0,0,0,0,0,0,0,0,0,0,0,0,0,0,0,0,0,0,0
</data>
 </layer>
 <objectgroup id="16" name="falling">
  <properties>
   <property name="direction" value="down"/>
  </properties>
  <object id="2669" name="falling" gid="76" x="900" y="7500" width="50" height="50">
   <properties>
    <property name="direction" value="down"/>
   </properties>
  </object>
 </objectgroup>
 <objectgroup id="13" name="platform">
  <object id="2247" name="platform" gid="27" x="725" y="11950" width="50" height="50">
   <properties>
    <property name="direction" value="up"/>
    <property name="speed" value="100"/>
   </properties>
  </object>
  <object id="2435" name="platform" gid="27" x="1050" y="7500" width="50" height="50">
   <properties>
    <property name="direction" value="up"/>
    <property name="speed" value="100"/>
   </properties>
  </object>
 </objectgroup>
 <objectgroup id="33" name="image"/>
 <objectgroup id="7" name="trampoline"/>
 <objectgroup id="26" name="camera">
  <properties>
   <property name="cameraType" value="unlockY"/>
  </properties>
 </objectgroup>
 <objectgroup id="36" name="autoscroll">
  <properties>
   <property name="autoscrollType" value="scrollY"/>
   <property name="offsetX" value="50"/>
   <property name="speed" value="100"/>
  </properties>
 </objectgroup>
 <objectgroup id="28" name="solid_block">
  <object id="2461" name="solid_block" gid="75" x="500" y="11050" width="50" height="50"/>
  <object id="2462" name="solid_block" gid="75" x="550" y="10800" width="50" height="50"/>
  <object id="2463" name="switch-spike" gid="93" x="500" y="11000" width="50" height="50">
   <properties>
    <property name="id" value="0"/>
    <property name="status" value="disabled"/>
   </properties>
  </object>
  <object id="2464" name="switch-spike" gid="95" x="550" y="10850" width="50" height="50">
   <properties>
    <property name="id" value="2"/>
    <property name="status" value="active"/>
   </properties>
  </object>
  <object id="2492" name="solid_block" gid="75" x="400" y="10250" width="50" height="50"/>
  <object id="2498" name="solid_block" gid="75" x="900" y="9950" width="50" height="50"/>
  <object id="2499" name="solid_block" gid="76" x="850" y="10100" width="50" height="50"/>
  <object id="2563" name="solid_block" gid="76" x="550" y="9000" width="50" height="50"/>
  <object id="2564" name="solid_block" gid="76" x="500" y="9150" width="50" height="50"/>
  <object id="2565" name="solid_block" gid="76" x="350" y="9150" width="50" height="50"/>
  <object id="2566" name="solid_block" gid="76" x="500" y="9300" width="50" height="50"/>
  <object id="2568" name="solid_block" gid="74" x="200" y="9300" width="50" height="50"/>
  <object id="2569" name="solid_block" gid="76" x="400" y="9400" width="50" height="50"/>
  <object id="2584" name="solid_block" gid="75" x="900" y="8900" width="50" height="50"/>
  <object id="2599" name="solid_block" gid="75" x="450" y="8100" width="50" height="50"/>
  <object id="2600" name="solid_block" gid="75" x="550" y="8000" width="50" height="50"/>
  <object id="2601" name="solid_block" gid="75" x="350" y="8000" width="50" height="50"/>
  <object id="2614" name="solid_block" gid="74" x="550" y="10700" width="50" height="50"/>
  <object id="2737" name="solid_block" gid="75" x="600" y="5450" width="50" height="50"/>
  <object id="2738" name="solid_block" gid="75" x="500" y="5400" width="50" height="50"/>
  <object id="2739" name="solid_block" gid="75" x="400" y="5350" width="50" height="50"/>
  <object id="2740" name="solid_block" gid="75" x="300" y="5300" width="50" height="50"/>
  <object id="2798" name="solid_block" gid="74" x="1100" y="4100" width="50" height="50"/>
  <object id="2799" name="solid_block" gid="74" x="1000" y="3850" width="50" height="50"/>
  <object id="2983" name="switch-spike" gid="93" x="400" y="10200" width="50" height="50">
   <properties>
    <property name="id" value="0"/>
    <property name="status" value="active"/>
   </properties>
  </object>
 </objectgroup>
 <objectgroup id="25" name="slab">
  <object id="2466" name="slab" gid="77" x="500" y="10600" width="50" height="50"/>
  <object id="2467" name="slab" gid="77" x="450" y="10600" width="50" height="50"/>
  <object id="2503" name="slab" gid="77" x="1000" y="9950" width="50" height="50"/>
  <object id="2504" name="slab" gid="77" x="950" y="9950" width="50" height="50"/>
  <object id="2505" name="slab" gid="77" x="1050" y="9950" width="50" height="50"/>
  <object id="2506" name="slab" gid="77" x="1100" y="9950" width="50" height="50"/>
  <object id="2507" name="slab" gid="77" x="1000" y="9800" width="50" height="50"/>
  <object id="2508" name="slab" gid="77" x="950" y="9800" width="50" height="50"/>
  <object id="2509" name="slab" gid="77" x="1050" y="9800" width="50" height="50"/>
  <object id="2510" name="slab" gid="77" x="1100" y="9800" width="50" height="50"/>
  <object id="2511" name="slab" gid="77" x="1000" y="9650" width="50" height="50"/>
  <object id="2512" name="slab" gid="77" x="950" y="9650" width="50" height="50"/>
  <object id="2513" name="slab" gid="77" x="1050" y="9650" width="50" height="50"/>
  <object id="2514" name="slab" gid="77" x="1100" y="9650" width="50" height="50"/>
  <object id="2515" name="slab" gid="77" x="1000" y="9500" width="50" height="50"/>
  <object id="2516" name="slab" gid="77" x="950" y="9500" width="50" height="50"/>
  <object id="2517" name="slab" gid="77" x="1050" y="9500" width="50" height="50"/>
  <object id="2518" name="slab" gid="77" x="1100" y="9500" width="50" height="50"/>
  <object id="2519" name="slab" gid="77" x="1000" y="9350" width="50" height="50"/>
  <object id="2520" name="slab" gid="77" x="950" y="9350" width="50" height="50"/>
  <object id="2521" name="slab" gid="77" x="1050" y="9350" width="50" height="50"/>
  <object id="2522" name="slab" gid="77" x="1100" y="9350" width="50" height="50"/>
  <object id="2543" name="small-spike" gid="135" x="1050" y="9750" width="25" height="25">
   <properties>
    <property name="id" value="0"/>
   </properties>
  </object>
  <object id="2544" name="small-spike" gid="135" x="1075" y="9750" width="25" height="25">
   <properties>
    <property name="id" value="0"/>
   </properties>
  </object>
  <object id="2545" name="small-spike" gid="135" x="1100" y="9750" width="25" height="25">
   <properties>
    <property name="id" value="0"/>
   </properties>
  </object>
  <object id="2546" name="small-spike" gid="135" x="1125" y="9750" width="25" height="25">
   <properties>
    <property name="id" value="0"/>
   </properties>
  </object>
  <object id="2547" name="small-spike" gid="135" x="950" y="9600" width="25" height="25">
   <properties>
    <property name="id" value="0"/>
   </properties>
  </object>
  <object id="2548" name="small-spike" gid="135" x="975" y="9600" width="25" height="25">
   <properties>
    <property name="id" value="0"/>
   </properties>
  </object>
  <object id="2549" name="small-spike" gid="135" x="1000" y="9600" width="25" height="25">
   <properties>
    <property name="id" value="0"/>
   </properties>
  </object>
  <object id="2550" name="small-spike" gid="135" x="1025" y="9600" width="25" height="25">
   <properties>
    <property name="id" value="0"/>
   </properties>
  </object>
  <object id="2551" name="small-spike" gid="135" x="1100" y="9450" width="25" height="25">
   <properties>
    <property name="id" value="0"/>
   </properties>
  </object>
  <object id="2552" name="small-spike" gid="135" x="1125" y="9450" width="25" height="25">
   <properties>
    <property name="id" value="0"/>
   </properties>
  </object>
  <object id="2553" name="small-spike" gid="135" x="950" y="9450" width="25" height="25">
   <properties>
    <property name="id" value="0"/>
   </properties>
  </object>
  <object id="2554" name="small-spike" gid="135" x="975" y="9450" width="25" height="25">
   <properties>
    <property name="id" value="0"/>
   </properties>
  </object>
  <object id="2555" name="small-spike" gid="135" x="950" y="9300" width="25" height="25">
   <properties>
    <property name="id" value="0"/>
   </properties>
  </object>
  <object id="2556" name="small-spike" gid="135" x="975" y="9300" width="25" height="25">
   <properties>
    <property name="id" value="0"/>
   </properties>
  </object>
  <object id="2557" name="small-spike" gid="135" x="1000" y="9300" width="25" height="25">
   <properties>
    <property name="id" value="0"/>
   </properties>
  </object>
  <object id="2558" name="small-spike" gid="135" x="1025" y="9300" width="25" height="25">
   <properties>
    <property name="id" value="0"/>
   </properties>
  </object>
  <object id="2559" name="small-spike" gid="135" x="1050" y="9300" width="25" height="25">
   <properties>
    <property name="id" value="0"/>
   </properties>
  </object>
  <object id="2560" name="small-spike" gid="135" x="1075" y="9300" width="25" height="25">
   <properties>
    <property name="id" value="0"/>
   </properties>
  </object>
  <object id="2592" name="slab" gid="77" x="1100" y="8500" width="50" height="50"/>
  <object id="2593" name="slab" gid="77" x="1150" y="8500" width="50" height="50"/>
  <object id="2694" name="slab" gid="77" x="250" y="6750" width="50" height="50"/>
  <object id="2695" name="slab" gid="77" x="300" y="6750" width="50" height="50"/>
  <object id="2696" name="slab" gid="77" x="350" y="6750" width="50" height="50"/>
  <object id="2794" name="slab" gid="77" x="400" y="3700" width="50" height="50"/>
  <object id="2796" name="slab" gid="77" x="400" y="3550" width="50" height="50"/>
  <object id="2797" name="slab" gid="77" x="400" y="3400" width="50" height="50"/>
  <object id="2902" name="slab" gid="77" x="600" y="2250" width="50" height="50"/>
  <object id="2903" name="slab" gid="77" x="900" y="2250" width="50" height="50"/>
  <object id="2981" name="slab" gid="77" x="250" y="10500" width="50" height="50"/>
  <object id="2982" name="slab" gid="77" x="350" y="10350" width="50" height="50"/>
  <object id="2984" name="slab" gid="77" x="1100" y="8350" width="50" height="50"/>
  <object id="2985" name="slab" gid="77" x="1150" y="8350" width="50" height="50"/>
  <object id="2986" name="slab" gid="77" x="950" y="8200" width="50" height="50"/>
  <object id="2987" name="slab" gid="77" x="1000" y="8200" width="50" height="50"/>
  <object id="2992" name="slab" gid="77" x="250" y="4950" width="50" height="50"/>
  <object id="2993" name="slab" gid="77" x="300" y="4950" width="50" height="50"/>
  <object id="2994" name="slab" gid="77" x="250" y="4800" width="50" height="50"/>
  <object id="2995" name="slab" gid="77" x="300" y="4800" width="50" height="50"/>
  <object id="2996" name="slab" gid="77" x="350" y="4800" width="50" height="50"/>
  <object id="2997" name="slab" gid="77" x="400" y="4800" width="50" height="50"/>
  <object id="2998" name="slab" gid="77" x="250" y="4650" width="50" height="50"/>
  <object id="2999" name="slab" gid="77" x="300" y="4650" width="50" height="50"/>
  <object id="3000" name="slab" gid="77" x="350" y="4650" width="50" height="50"/>
  <object id="3001" name="slab" gid="77" x="400" y="4650" width="50" height="50"/>
  <object id="3002" name="slab" gid="77" x="250" y="4500" width="50" height="50"/>
  <object id="3003" name="slab" gid="77" x="300" y="4500" width="50" height="50"/>
  <object id="3004" name="slab" gid="77" x="350" y="4500" width="50" height="50"/>
  <object id="3005" name="slab" gid="77" x="400" y="4500" width="50" height="50"/>
 </objectgroup>
 <objectgroup id="19" name="trampoline-mini">
  <object id="2589" name="trampoline-mini" gid="121" x="1150" y="8950" width="50" height="50">
   <properties>
    <property name="direction" value="up"/>
   </properties>
  </object>
  <object id="2590" name="trampoline-mini" gid="124" x="950" y="8700" width="50" height="50">
   <properties>
    <property name="direction" value="left"/>
   </properties>
  </object>
  <object id="2591" name="trampoline-mini" gid="124" x="950" y="8650" width="50" height="50">
   <properties>
    <property name="direction" value="left"/>
   </properties>
  </object>
  <object id="2636" name="spike" gid="98" x="950" y="8600" width="50" height="50">
   <properties>
    <property name="id" value="5"/>
   </properties>
  </object>
  <object id="2637" name="spike" gid="98" x="950" y="8350" width="50" height="50">
   <properties>
    <property name="id" value="5"/>
   </properties>
  </object>
  <object id="2638" name="spike" gid="98" x="950" y="8300" width="50" height="50">
   <properties>
    <property name="id" value="5"/>
   </properties>
  </object>
  <object id="2639" name="spike" gid="98" x="950" y="8250" width="50" height="50">
   <properties>
    <property name="id" value="5"/>
   </properties>
  </object>
  <object id="2641" name="spike" gid="98" x="950" y="8150" width="50" height="50">
   <properties>
    <property name="id" value="5"/>
   </properties>
  </object>
  <object id="2757" name="trampoline-mini" gid="127" x="500" y="5100" width="50" height="50">
   <properties>
    <property name="direction" value="right"/>
   </properties>
  </object>
  <object id="2759" name="trampoline-mini" gid="127" x="500" y="5050" width="50" height="50">
   <properties>
    <property name="direction" value="right"/>
   </properties>
  </object>
  <object id="3053" name="trampoline-mini" gid="121" x="650" y="6650" width="50" height="50"/>
 </objectgroup>
 <objectgroup id="31" name="trampoline">
  <object id="2471" name="trampoline" gid="89" x="250" y="10900" width="50" height="50"/>
  <object id="2658" name="trampoline" gid="89" x="400" y="7700" width="50" height="50"/>
  <object id="2659" name="trampoline" gid="89" x="450" y="7700" width="50" height="50"/>
  <object id="2660" name="trampoline" gid="89" x="550" y="7700" width="50" height="50"/>
  <object id="2692" name="trampoline" gid="89" x="600" y="6950" width="50" height="50"/>
  <object id="2693" name="trampoline" gid="89" x="450" y="6900" width="50" height="50"/>
  <object id="2904" name="trampoline" gid="89" x="600" y="2200" width="50" height="50"/>
  <object id="2905" name="trampoline" gid="89" x="900" y="2200" width="50" height="50"/>
  <object id="3020" name="trampoline" gid="89" x="600" y="3350" width="50" height="50"/>
  <object id="3021" name="trampoline" gid="89" x="1000" y="3600" width="50" height="50"/>
 </objectgroup>
 <objectgroup id="35" name="images"/>
 <objectgroup id="30" name="small-spike">
  <object id="2484" name="small-spike" gid="137" x="400" y="10425" width="25" height="25">
   <properties>
    <property name="id" value="2"/>
   </properties>
  </object>
  <object id="2485" name="small-spike" gid="137" x="450" y="10425" width="25" height="25">
   <properties>
    <property name="id" value="2"/>
   </properties>
  </object>
  <object id="2486" name="small-spike" gid="137" x="500" y="10425" width="25" height="25">
   <properties>
    <property name="id" value="2"/>
   </properties>
  </object>
  <object id="2487" name="small-spike" gid="137" x="425" y="10425" width="25" height="25">
   <properties>
    <property name="id" value="2"/>
   </properties>
  </object>
  <object id="2488" name="small-spike" gid="137" x="475" y="10425" width="25" height="25">
   <properties>
    <property name="id" value="2"/>
   </properties>
  </object>
  <object id="2489" name="small-spike" gid="137" x="525" y="10425" width="25" height="25">
   <properties>
    <property name="id" value="2"/>
   </properties>
  </object>
  <object id="2537" name="small-spike" gid="135" x="950" y="9900" width="25" height="25">
   <properties>
    <property name="id" value="0"/>
   </properties>
  </object>
  <object id="2538" name="small-spike" gid="135" x="975" y="9900" width="25" height="25">
   <properties>
    <property name="id" value="0"/>
   </properties>
  </object>
  <object id="2539" name="small-spike" gid="135" x="1000" y="9900" width="25" height="25">
   <properties>
    <property name="id" value="0"/>
   </properties>
  </object>
  <object id="2540" name="small-spike" gid="135" x="1025" y="9900" width="25" height="25">
   <properties>
    <property name="id" value="0"/>
   </properties>
  </object>
  <object id="2541" name="small-spike" gid="135" x="1100" y="9900" width="25" height="25">
   <properties>
    <property name="id" value="0"/>
   </properties>
  </object>
  <object id="2542" name="small-spike" gid="135" x="1125" y="9900" width="25" height="25">
   <properties>
    <property name="id" value="0"/>
   </properties>
  </object>
  <object id="2605" name="small-spike" gid="137" x="400" y="7925" width="25" height="25">
   <properties>
    <property name="id" value="2"/>
   </properties>
  </object>
  <object id="2606" name="small-spike" gid="137" x="450" y="7925" width="25" height="25">
   <properties>
    <property name="id" value="2"/>
   </properties>
  </object>
  <object id="2607" name="small-spike" gid="137" x="500" y="7925" width="25" height="25">
   <properties>
    <property name="id" value="2"/>
   </properties>
  </object>
  <object id="2608" name="small-spike" gid="137" x="425" y="7925" width="25" height="25">
   <properties>
    <property name="id" value="2"/>
   </properties>
  </object>
  <object id="2609" name="small-spike" gid="137" x="475" y="7925" width="25" height="25">
   <properties>
    <property name="id" value="2"/>
   </properties>
  </object>
  <object id="2610" name="small-spike" gid="137" x="525" y="7925" width="25" height="25">
   <properties>
    <property name="id" value="2"/>
   </properties>
  </object>
  <object id="2644" name="small-spike" gid="137" x="250" y="8075" width="25" height="25">
   <properties>
    <property name="id" value="2"/>
   </properties>
  </object>
  <object id="2645" name="small-spike" gid="137" x="275" y="8075" width="25" height="25">
   <properties>
    <property name="id" value="2"/>
   </properties>
  </object>
  <object id="2646" name="small-spike" gid="137" x="300" y="7925" width="25" height="25">
   <properties>
    <property name="id" value="2"/>
   </properties>
  </object>
  <object id="2647" name="small-spike" gid="137" x="325" y="7925" width="25" height="25">
   <properties>
    <property name="id" value="2"/>
   </properties>
  </object>
  <object id="2648" name="small-spike" gid="137" x="250" y="7775" width="25" height="25">
   <properties>
    <property name="id" value="2"/>
   </properties>
  </object>
  <object id="2649" name="small-spike" gid="137" x="275" y="7775" width="25" height="25">
   <properties>
    <property name="id" value="2"/>
   </properties>
  </object>
  <object id="2680" name="small-spike" gid="137" x="400" y="6775" width="25" height="25">
   <properties>
    <property name="id" value="2"/>
   </properties>
  </object>
  <object id="2681" name="small-spike" gid="137" x="450" y="6775" width="25" height="25">
   <properties>
    <property name="id" value="2"/>
   </properties>
  </object>
  <object id="2682" name="small-spike" gid="137" x="500" y="6775" width="25" height="25">
   <properties>
    <property name="id" value="2"/>
   </properties>
  </object>
  <object id="2683" name="small-spike" gid="137" x="425" y="6775" width="25" height="25">
   <properties>
    <property name="id" value="2"/>
   </properties>
  </object>
  <object id="2684" name="small-spike" gid="137" x="475" y="6775" width="25" height="25">
   <properties>
    <property name="id" value="2"/>
   </properties>
  </object>
  <object id="2685" name="small-spike" gid="137" x="525" y="6775" width="25" height="25">
   <properties>
    <property name="id" value="2"/>
   </properties>
  </object>
  <object id="2686" name="small-spike" gid="137" x="550" y="6775" width="25" height="25">
   <properties>
    <property name="id" value="2"/>
   </properties>
  </object>
  <object id="2687" name="small-spike" gid="137" x="575" y="6775" width="25" height="25">
   <properties>
    <property name="id" value="2"/>
   </properties>
  </object>
  <object id="2688" name="small-spike" gid="137" x="600" y="6725" width="25" height="25">
   <properties>
    <property name="id" value="2"/>
   </properties>
  </object>
  <object id="2689" name="small-spike" gid="137" x="625" y="6725" width="25" height="25">
   <properties>
    <property name="id" value="2"/>
   </properties>
  </object>
  <object id="2690" name="small-spike" gid="137" x="650" y="6725" width="25" height="25">
   <properties>
    <property name="id" value="2"/>
   </properties>
  </object>
  <object id="2691" name="small-spike" gid="137" x="675" y="6725" width="25" height="25">
   <properties>
    <property name="id" value="2"/>
   </properties>
  </object>
  <object id="2745" name="small-spike" gid="135" x="250" y="5250" width="25" height="25">
   <properties>
    <property name="id" value="0"/>
   </properties>
  </object>
  <object id="2746" name="small-spike" gid="135" x="275" y="5250" width="25" height="25">
   <properties>
    <property name="id" value="0"/>
   </properties>
  </object>
  <object id="2747" name="small-spike" gid="135" x="350" y="5300" width="25" height="25">
   <properties>
    <property name="id" value="0"/>
   </properties>
  </object>
  <object id="2748" name="small-spike" gid="135" x="375" y="5300" width="25" height="25">
   <properties>
    <property name="id" value="0"/>
   </properties>
  </object>
  <object id="2753" name="small-spike" gid="135" x="450" y="5350" width="25" height="25">
   <properties>
    <property name="id" value="0"/>
   </properties>
  </object>
  <object id="2754" name="small-spike" gid="135" x="475" y="5350" width="25" height="25">
   <properties>
    <property name="id" value="0"/>
   </properties>
  </object>
  <object id="2755" name="small-spike" gid="135" x="550" y="5400" width="25" height="25">
   <properties>
    <property name="id" value="0"/>
   </properties>
  </object>
  <object id="2756" name="small-spike" gid="135" x="575" y="5400" width="25" height="25">
   <properties>
    <property name="id" value="0"/>
   </properties>
  </object>
  <object id="2772" name="small-spike" gid="135" x="450" y="4400" width="25" height="25">
   <properties>
    <property name="id" value="0"/>
   </properties>
  </object>
  <object id="2773" name="small-spike" gid="135" x="475" y="4400" width="25" height="25">
   <properties>
    <property name="id" value="0"/>
   </properties>
  </object>
  <object id="2776" name="small-spike" gid="137" x="400" y="4225" width="25" height="25">
   <properties>
    <property name="id" value="2"/>
   </properties>
  </object>
  <object id="2777" name="small-spike" gid="137" x="425" y="4225" width="25" height="25">
   <properties>
    <property name="id" value="2"/>
   </properties>
  </object>
  <object id="2778" name="small-spike" gid="137" x="450" y="4225" width="25" height="25">
   <properties>
    <property name="id" value="2"/>
   </properties>
  </object>
  <object id="2779" name="small-spike" gid="137" x="475" y="4225" width="25" height="25">
   <properties>
    <property name="id" value="2"/>
   </properties>
  </object>
  <object id="2780" name="small-spike" gid="137" x="500" y="4225" width="25" height="25">
   <properties>
    <property name="id" value="2"/>
   </properties>
  </object>
  <object id="2781" name="small-spike" gid="137" x="525" y="4225" width="25" height="25">
   <properties>
    <property name="id" value="2"/>
   </properties>
  </object>
  <object id="2782" name="small-spike" gid="137" x="550" y="4225" width="25" height="25">
   <properties>
    <property name="id" value="2"/>
   </properties>
  </object>
  <object id="2783" name="small-spike" gid="137" x="575" y="4225" width="25" height="25">
   <properties>
    <property name="id" value="2"/>
   </properties>
  </object>
  <object id="2784" name="small-spike" gid="137" x="600" y="4225" width="25" height="25">
   <properties>
    <property name="id" value="2"/>
   </properties>
  </object>
  <object id="2785" name="small-spike" gid="137" x="625" y="4225" width="25" height="25">
   <properties>
    <property name="id" value="2"/>
   </properties>
  </object>
  <object id="3006" name="small-spike" gid="135" x="350" y="4750" width="25" height="25">
   <properties>
    <property name="id" value="0"/>
   </properties>
  </object>
  <object id="3007" name="small-spike" gid="135" x="375" y="4750" width="25" height="25">
   <properties>
    <property name="id" value="0"/>
   </properties>
  </object>
  <object id="3008" name="small-spike" gid="135" x="400" y="4750" width="25" height="25">
   <properties>
    <property name="id" value="0"/>
   </properties>
  </object>
  <object id="3009" name="small-spike" gid="135" x="425" y="4750" width="25" height="25">
   <properties>
    <property name="id" value="0"/>
   </properties>
  </object>
  <object id="3010" name="small-spike" gid="135" x="250" y="4600" width="25" height="25">
   <properties>
    <property name="id" value="0"/>
   </properties>
  </object>
  <object id="3011" name="small-spike" gid="135" x="275" y="4600" width="25" height="25">
   <properties>
    <property name="id" value="0"/>
   </properties>
  </object>
  <object id="3014" name="small-spike" gid="135" x="400" y="4600" width="25" height="25">
   <properties>
    <property name="id" value="0"/>
   </properties>
  </object>
  <object id="3015" name="small-spike" gid="135" x="425" y="4600" width="25" height="25">
   <properties>
    <property name="id" value="0"/>
   </properties>
  </object>
  <object id="3016" name="small-spike" gid="135" x="350" y="4450" width="25" height="25">
   <properties>
    <property name="id" value="0"/>
   </properties>
  </object>
  <object id="3017" name="small-spike" gid="135" x="375" y="4450" width="25" height="25">
   <properties>
    <property name="id" value="0"/>
   </properties>
  </object>
  <object id="3018" name="small-spike" gid="135" x="400" y="4450" width="25" height="25">
   <properties>
    <property name="id" value="0"/>
   </properties>
  </object>
  <object id="3019" name="small-spike" gid="135" x="425" y="4450" width="25" height="25">
   <properties>
    <property name="id" value="0"/>
   </properties>
  </object>
  <object id="3026" name="small-spike" gid="135" x="600" y="3900" width="25" height="25">
   <properties>
    <property name="id" value="0"/>
   </properties>
  </object>
  <object id="3027" name="small-spike" gid="135" x="625" y="3900" width="25" height="25">
   <properties>
    <property name="id" value="0"/>
   </properties>
  </object>
  <object id="3028" name="small-spike" gid="135" x="650" y="3900" width="25" height="25">
   <properties>
    <property name="id" value="0"/>
   </properties>
  </object>
  <object id="3029" name="small-spike" gid="135" x="675" y="3900" width="25" height="25">
   <properties>
    <property name="id" value="0"/>
   </properties>
  </object>
 </objectgroup>
 <objectgroup id="9" name="spike-normal">
  <object id="2473" name="spike" gid="94" x="250" y="10600" width="50" height="50">
   <properties>
    <property name="id" value="1"/>
   </properties>
  </object>
  <object id="2474" name="spike" gid="98" x="250" y="10650" width="50" height="50">
   <properties>
    <property name="id" value="5"/>
   </properties>
  </object>
  <object id="2493" name="spike" gid="94" x="250" y="10250" width="50" height="50">
   <properties>
    <property name="id" value="1"/>
   </properties>
  </object>
  <object id="2523" name="spike" gid="93" x="800" y="9300" width="50" height="50">
   <properties>
    <property name="id" value="0"/>
    <property name="status" value="active"/>
   </properties>
  </object>
  <object id="2525" name="spike" gid="99" x="850" y="9200" width="50" height="50">
   <properties>
    <property name="id" value="6"/>
    <property name="status" value="active"/>
   </properties>
  </object>
  <object id="2596" name="spike" gid="97" x="900" y="8100" width="50" height="50">
   <properties>
    <property name="id" value="4"/>
    <property name="status" value="active"/>
   </properties>
  </object>
  <object id="2597" name="spike" gid="95" x="800" y="8050" width="50" height="50">
   <properties>
    <property name="id" value="2"/>
    <property name="status" value="active"/>
   </properties>
  </object>
  <object id="2611" name="spike" gid="98" x="350" y="11000" width="50" height="50">
   <properties>
    <property name="id" value="5"/>
    <property name="status" value="active"/>
   </properties>
  </object>
  <object id="2612" name="spike" gid="94" x="350" y="10950" width="50" height="50">
   <properties>
    <property name="id" value="1"/>
   </properties>
  </object>
  <object id="2615" name="spike" gid="99" x="350" y="10000" width="50" height="50">
   <properties>
    <property name="id" value="6"/>
    <property name="status" value="active"/>
   </properties>
  </object>
  <object id="2616" name="spike" gid="99" x="500" y="9900" width="50" height="50">
   <properties>
    <property name="id" value="6"/>
    <property name="status" value="active"/>
   </properties>
  </object>
  <object id="2617" name="spike" gid="95" x="300" y="10000" width="50" height="50">
   <properties>
    <property name="id" value="2"/>
    <property name="status" value="active"/>
   </properties>
  </object>
  <object id="2618" name="spike" gid="95" x="550" y="9900" width="50" height="50">
   <properties>
    <property name="id" value="2"/>
    <property name="status" value="active"/>
   </properties>
  </object>
  <object id="2623" name="spike" gid="100" x="1150" y="8600" width="50" height="50">
   <properties>
    <property name="status" value="active"/>
   </properties>
  </object>
  <object id="2624" name="spike" gid="100" x="1150" y="8650" width="50" height="50">
   <properties>
    <property name="status" value="active"/>
   </properties>
  </object>
  <object id="2625" name="spike" gid="100" x="1150" y="8700" width="50" height="50">
   <properties>
    <property name="status" value="active"/>
   </properties>
  </object>
  <object id="2626" name="spike" gid="100" x="1150" y="8750" width="50" height="50">
   <properties>
    <property name="status" value="active"/>
   </properties>
  </object>
  <object id="2627" name="spike" gid="100" x="1150" y="8550" width="50" height="50">
   <properties>
    <property name="status" value="active"/>
   </properties>
  </object>
  <object id="2628" name="spike" gid="98" x="950" y="8750" width="50" height="50">
   <properties>
    <property name="id" value="5"/>
   </properties>
  </object>
  <object id="2629" name="spike" gid="98" x="950" y="8800" width="50" height="50">
   <properties>
    <property name="id" value="5"/>
   </properties>
  </object>
  <object id="2630" name="spike" gid="98" x="950" y="8850" width="50" height="50">
   <properties>
    <property name="id" value="5"/>
   </properties>
  </object>
  <object id="2631" name="spike" gid="98" x="950" y="8400" width="50" height="50">
   <properties>
    <property name="id" value="5"/>
   </properties>
  </object>
  <object id="2632" name="spike" gid="98" x="950" y="8450" width="50" height="50">
   <properties>
    <property name="id" value="5"/>
   </properties>
  </object>
  <object id="2634" name="spike" gid="98" x="950" y="8500" width="50" height="50">
   <properties>
    <property name="id" value="5"/>
   </properties>
  </object>
  <object id="2635" name="spike" gid="98" x="950" y="8550" width="50" height="50">
   <properties>
    <property name="id" value="5"/>
   </properties>
  </object>
  <object id="2642" name="spike" gid="100" x="1150" y="8100" width="50" height="50">
   <properties>
    <property name="status" value="active"/>
   </properties>
  </object>
  <object id="2643" name="spike" gid="96" x="1150" y="8150" width="50" height="50">
   <properties>
    <property name="id" value="3"/>
   </properties>
  </object>
  <object id="2661" name="spike" gid="95" x="350" y="7500" width="50" height="50">
   <properties>
    <property name="id" value="2"/>
    <property name="status" value="active"/>
   </properties>
  </object>
  <object id="2662" name="spike" gid="95" x="500" y="7500" width="50" height="50">
   <properties>
    <property name="id" value="2"/>
    <property name="status" value="active"/>
   </properties>
  </object>
  <object id="2663" name="spike" gid="99" x="400" y="7500" width="50" height="50">
   <properties>
    <property name="id" value="6"/>
    <property name="status" value="active"/>
   </properties>
  </object>
  <object id="2664" name="spike" gid="99" x="450" y="7500" width="50" height="50">
   <properties>
    <property name="id" value="6"/>
    <property name="status" value="active"/>
   </properties>
  </object>
  <object id="2665" name="spike" gid="99" x="550" y="7500" width="50" height="50">
   <properties>
    <property name="id" value="6"/>
    <property name="status" value="active"/>
   </properties>
  </object>
  <object id="2666" name="spike" gid="96" x="750" y="7500" width="50" height="50">
   <properties>
    <property name="id" value="3"/>
   </properties>
  </object>
  <object id="2667" name="spike" gid="100" x="750" y="7550" width="50" height="50">
   <properties>
    <property name="status" value="active"/>
   </properties>
  </object>
  <object id="2670" name="spike" gid="93" x="900" y="7900" width="50" height="50">
   <properties>
    <property name="id" value="0"/>
    <property name="status" value="active"/>
   </properties>
  </object>
  <object id="2676" name="spike" gid="93" x="850" y="6850" width="50" height="50">
   <properties>
    <property name="id" value="0"/>
    <property name="status" value="active"/>
   </properties>
  </object>
  <object id="2677" name="spike" gid="99" x="900" y="6750" width="50" height="50">
   <properties>
    <property name="id" value="6"/>
    <property name="status" value="active"/>
   </properties>
  </object>
  <object id="2679" name="spike" gid="95" x="900" y="7350" width="50" height="50">
   <properties>
    <property name="id" value="2"/>
    <property name="status" value="active"/>
   </properties>
  </object>
  <object id="2706" name="spike" gid="95" x="500" y="6550" width="50" height="50">
   <properties>
    <property name="id" value="2"/>
    <property name="status" value="active"/>
   </properties>
  </object>
  <object id="2707" name="spike" gid="95" x="600" y="6450" width="50" height="50">
   <properties>
    <property name="id" value="2"/>
    <property name="status" value="active"/>
   </properties>
  </object>
  <object id="2729" name="spike" gid="100" x="850" y="6200" width="50" height="50">
   <properties>
    <property name="status" value="active"/>
   </properties>
  </object>
  <object id="2730" name="spike" gid="100" x="850" y="6250" width="50" height="50">
   <properties>
    <property name="status" value="active"/>
   </properties>
  </object>
  <object id="2731" name="spike" gid="96" x="850" y="6300" width="50" height="50">
   <properties>
    <property name="id" value="3"/>
   </properties>
  </object>
  <object id="2790" name="spike" gid="95" x="650" y="5150" width="50" height="50">
   <properties>
    <property name="id" value="2"/>
    <property name="status" value="active"/>
   </properties>
  </object>
  <object id="2791" name="spike" gid="99" x="600" y="5150" width="50" height="50">
   <properties>
    <property name="id" value="6"/>
    <property name="status" value="active"/>
   </properties>
  </object>
  <object id="2792" name="spike" gid="96" x="800" y="4350" width="50" height="50">
   <properties>
    <property name="id" value="3"/>
   </properties>
  </object>
  <object id="2793" name="spike" gid="100" x="800" y="4400" width="50" height="50">
   <properties>
    <property name="status" value="active"/>
   </properties>
  </object>
  <object id="2806" name="spike" gid="96" x="1150" y="4850" width="50" height="50">
   <properties>
    <property name="id" value="3"/>
   </properties>
  </object>
  <object id="2807" name="spike" gid="96" x="1150" y="5000" width="50" height="50">
   <properties>
    <property name="id" value="3"/>
   </properties>
  </object>
  <object id="2808" name="spike" gid="96" x="1150" y="5050" width="50" height="50">
   <properties>
    <property name="id" value="3"/>
   </properties>
  </object>
  <object id="2809" name="spike" gid="96" x="1150" y="5150" width="50" height="50">
   <properties>
    <property name="id" value="3"/>
   </properties>
  </object>
  <object id="2810" name="spike" gid="100" x="1150" y="5100" width="50" height="50">
   <properties>
    <property name="status" value="active"/>
   </properties>
  </object>
  <object id="2811" name="spike" gid="100" x="1150" y="4950" width="50" height="50">
   <properties>
    <property name="status" value="active"/>
   </properties>
  </object>
  <object id="2812" name="spike" gid="100" x="1150" y="4900" width="50" height="50">
   <properties>
    <property name="status" value="active"/>
   </properties>
  </object>
  <object id="2815" name="spike" gid="95" x="350" y="2500" width="50" height="50">
   <properties>
    <property name="id" value="2"/>
    <property name="status" value="active"/>
   </properties>
  </object>
  <object id="2816" name="spike" gid="95" x="1100" y="2500" width="50" height="50">
   <properties>
    <property name="id" value="2"/>
    <property name="status" value="active"/>
   </properties>
  </object>
  <object id="2817" name="spike" gid="95" x="400" y="2200" width="50" height="50">
   <properties>
    <property name="id" value="2"/>
    <property name="status" value="active"/>
   </properties>
  </object>
  <object id="2818" name="spike" gid="95" x="1050" y="2200" width="50" height="50">
   <properties>
    <property name="id" value="2"/>
    <property name="status" value="active"/>
   </properties>
  </object>
  <object id="2819" name="spike" gid="95" x="450" y="1950" width="50" height="50">
   <properties>
    <property name="id" value="2"/>
    <property name="status" value="active"/>
   </properties>
  </object>
  <object id="2820" name="spike" gid="95" x="1000" y="1950" width="50" height="50">
   <properties>
    <property name="id" value="2"/>
    <property name="status" value="active"/>
   </properties>
  </object>
  <object id="2821" name="spike" gid="95" x="550" y="1550" width="50" height="50">
   <properties>
    <property name="id" value="2"/>
    <property name="status" value="active"/>
   </properties>
  </object>
  <object id="2822" name="spike" gid="95" x="900" y="1550" width="50" height="50">
   <properties>
    <property name="id" value="2"/>
    <property name="status" value="active"/>
   </properties>
  </object>
  <object id="2823" name="spike" gid="95" x="600" y="1300" width="50" height="50">
   <properties>
    <property name="id" value="2"/>
    <property name="status" value="active"/>
   </properties>
  </object>
  <object id="2824" name="spike" gid="95" x="850" y="1300" width="50" height="50">
   <properties>
    <property name="id" value="2"/>
    <property name="status" value="active"/>
   </properties>
  </object>
  <object id="2932" name="spike" gid="99" x="350" y="3050" width="50" height="50">
   <properties>
    <property name="id" value="6"/>
    <property name="status" value="active"/>
   </properties>
  </object>
  <object id="2933" name="spike" gid="99" x="1100" y="3050" width="50" height="50">
   <properties>
    <property name="id" value="6"/>
    <property name="status" value="active"/>
   </properties>
  </object>
  <object id="2934" name="spike" gid="99" x="1100" y="2800" width="50" height="50">
   <properties>
    <property name="id" value="6"/>
    <property name="status" value="active"/>
   </properties>
  </object>
  <object id="2935" name="spike" gid="99" x="350" y="2800" width="50" height="50">
   <properties>
    <property name="id" value="6"/>
    <property name="status" value="active"/>
   </properties>
  </object>
  <object id="2936" name="spike" gid="99" x="400" y="2400" width="50" height="50">
   <properties>
    <property name="id" value="6"/>
    <property name="status" value="active"/>
   </properties>
  </object>
  <object id="2937" name="spike" gid="99" x="1050" y="2400" width="50" height="50">
   <properties>
    <property name="id" value="6"/>
    <property name="status" value="active"/>
   </properties>
  </object>
  <object id="2938" name="spike" gid="99" x="450" y="2100" width="50" height="50">
   <properties>
    <property name="id" value="6"/>
    <property name="status" value="active"/>
   </properties>
  </object>
  <object id="2939" name="spike" gid="99" x="1000" y="2100" width="50" height="50">
   <properties>
    <property name="id" value="6"/>
    <property name="status" value="active"/>
   </properties>
  </object>
  <object id="2941" name="spike" gid="99" x="500" y="1850" width="50" height="50">
   <properties>
    <property name="id" value="6"/>
    <property name="status" value="active"/>
   </properties>
  </object>
  <object id="2942" name="spike" gid="99" x="950" y="1850" width="50" height="50">
   <properties>
    <property name="id" value="6"/>
    <property name="status" value="active"/>
   </properties>
  </object>
  <object id="2943" name="spike" gid="99" x="600" y="1500" width="50" height="50">
   <properties>
    <property name="id" value="6"/>
    <property name="status" value="active"/>
   </properties>
  </object>
  <object id="2944" name="spike" gid="99" x="850" y="1500" width="50" height="50">
   <properties>
    <property name="id" value="6"/>
    <property name="status" value="active"/>
   </properties>
  </object>
  <object id="3041" name="spike" gid="96" x="800" y="5650" width="50" height="50">
   <properties>
    <property name="id" value="3"/>
   </properties>
  </object>
  <object id="3042" name="spike" gid="94" x="650" y="5650" width="50" height="50">
   <properties>
    <property name="id" value="1"/>
   </properties>
  </object>
  <object id="3051" name="spike" gid="96" x="500" y="5000" width="50" height="50">
   <properties>
    <property name="id" value="3"/>
   </properties>
  </object>
  <object id="3052" name="spike" gid="100" x="500" y="4950" width="50" height="50">
   <properties>
    <property name="status" value="active"/>
   </properties>
  </object>
 </objectgroup>
 <objectgroup id="29" name="redCoin">
  <object id="2501" name="switch-spike" gid="93" x="850" y="10050" width="50" height="50">
   <properties>
    <property name="auto" value="true"/>
    <property name="id" value="0"/>
    <property name="speed" value="1.5"/>
    <property name="status" value="disabled"/>
   </properties>
  </object>
  <object id="2502" name="switch-spike" gid="95" x="900" y="10000" width="50" height="50">
   <properties>
    <property name="auto" value="true"/>
    <property name="id" value="2"/>
    <property name="speed" value="1.5"/>
    <property name="status" value="active"/>
   </properties>
  </object>
  <object id="2813" name="redCoin" gid="143" x="675" y="3825" width="50" height="50">
   <properties>
    <property name="id" value="ch1_11"/>
   </properties>
  </object>
 </objectgroup>
 <objectgroup id="27" name="switch-spike">
  <object id="2573" name="switch-spike" gid="93" x="400" y="9350" width="50" height="50">
   <properties>
    <property name="id" value="0"/>
    <property name="status" value="active"/>
   </properties>
  </object>
  <object id="2574" name="switch-spike" gid="93" x="350" y="9100" width="50" height="50">
   <properties>
    <property name="id" value="0"/>
    <property name="status" value="active"/>
   </properties>
  </object>
  <object id="2575" name="switch-spike" gid="93" x="550" y="8950" width="50" height="50">
   <properties>
    <property name="id" value="0"/>
    <property name="status" value="active"/>
   </properties>
  </object>
  <object id="2577" name="switch-spike" gid="95" x="500" y="9200" width="50" height="50">
   <properties>
    <property name="id" value="2"/>
    <property name="status" value="disabled"/>
   </properties>
  </object>
  <object id="2578" name="switch-spike" gid="95" x="550" y="9050" width="50" height="50">
   <properties>
    <property name="id" value="2"/>
    <property name="status" value="disabled"/>
   </properties>
  </object>
  <object id="2581" name="switch-spike" gid="93" x="500" y="9250" width="50" height="50">
   <properties>
    <property name="id" value="0"/>
    <property name="status" value="active"/>
   </properties>
  </object>
  <object id="2582" name="switch-spike" gid="94" x="250" y="9300" width="50" height="50">
   <properties>
    <property name="id" value="1"/>
    <property name="status" value="disabled"/>
   </properties>
  </object>
  <object id="2588" name="switch-spike" gid="94" x="950" y="8900" width="50" height="50">
   <properties>
    <property name="id" value="1"/>
    <property name="status" value="active"/>
   </properties>
  </object>
  <object id="2602" name="switch-spike" gid="93" x="450" y="8050" width="50" height="50">
   <properties>
    <property name="id" value="0"/>
    <property name="status" value="active"/>
   </properties>
  </object>
  <object id="2603" name="switch-spike" gid="95" x="350" y="8050" width="50" height="50">
   <properties>
    <property name="id" value="2"/>
    <property name="status" value="disabled"/>
   </properties>
  </object>
  <object id="2604" name="switch-spike" gid="95" x="550" y="8050" width="50" height="50">
   <properties>
    <property name="id" value="2"/>
    <property name="status" value="disabled"/>
   </properties>
  </object>
  <object id="2613" name="switch-spike" gid="96" x="500" y="10700" width="50" height="50">
   <properties>
    <property name="id" value="3"/>
    <property name="status" value="active"/>
   </properties>
  </object>
  <object id="2741" name="switch-spike" gid="93" x="600" y="5400" width="50" height="50">
   <properties>
    <property name="id" value="0"/>
    <property name="status" value="disabled"/>
   </properties>
  </object>
  <object id="2742" name="switch-spike" gid="93" x="400" y="5300" width="50" height="50">
   <properties>
    <property name="id" value="0"/>
    <property name="status" value="disabled"/>
   </properties>
  </object>
  <object id="2743" name="switch-spike" gid="93" x="300" y="5250" width="50" height="50">
   <properties>
    <property name="id" value="0"/>
    <property name="status" value="active"/>
   </properties>
  </object>
  <object id="2744" name="switch-spike" gid="93" x="500" y="5350" width="50" height="50">
   <properties>
    <property name="id" value="0"/>
    <property name="status" value="active"/>
   </properties>
  </object>
  <object id="2802" name="switch-spike" gid="94" x="1050" y="3850" width="50" height="50">
   <properties>
    <property name="id" value="1"/>
    <property name="status" value="disabled"/>
   </properties>
  </object>
  <object id="2804" name="switch-spike" gid="96" x="1050" y="4100" width="50" height="50">
   <properties>
    <property name="id" value="3"/>
    <property name="status" value="active"/>
   </properties>
  </object>
 </objectgroup>
 <objectgroup id="8" name="save"/>
 <objectgroup id="37" name="shaders">
  <properties>
   <property name="shaderName" value="none"/>
  </properties>
 </objectgroup>
 <objectgroup id="10" name="laser">
  <object id="2395" name="laser" gid="101" x="700" y="10800" width="50" height="50">
   <properties>
    <property name="direction" value="h"/>
   </properties>
  </object>
  <object id="2397" name="laser" gid="101" x="750" y="10800" width="50" height="50">
   <properties>
    <property name="direction" value="h"/>
   </properties>
  </object>
  <object id="2398" name="laser" gid="101" x="700" y="10100" width="50" height="50">
   <properties>
    <property name="direction" value="h"/>
   </properties>
  </object>
  <object id="2399" name="laser" gid="101" x="750" y="10100" width="50" height="50">
   <properties>
    <property name="direction" value="h"/>
   </properties>
  </object>
  <object id="2400" name="laser" gid="101" x="700" y="9850" width="50" height="50">
   <properties>
    <property name="direction" value="h"/>
   </properties>
  </object>
  <object id="2401" name="laser" gid="101" x="750" y="9850" width="50" height="50">
   <properties>
    <property name="direction" value="h"/>
   </properties>
  </object>
  <object id="2402" name="laser" gid="101" x="700" y="9400" width="50" height="50">
   <properties>
    <property name="direction" value="h"/>
   </properties>
  </object>
  <object id="2403" name="laser" gid="101" x="750" y="9400" width="50" height="50">
   <properties>
    <property name="direction" value="h"/>
   </properties>
  </object>
  <object id="2404" name="laser" gid="101" x="700" y="9100" width="50" height="50">
   <properties>
    <property name="direction" value="h"/>
   </properties>
  </object>
  <object id="2405" name="laser" gid="101" x="750" y="9100" width="50" height="50">
   <properties>
    <property name="direction" value="h"/>
   </properties>
  </object>
  <object id="2406" name="laser" gid="101" x="700" y="8900" width="50" height="50">
   <properties>
    <property name="direction" value="h"/>
   </properties>
  </object>
  <object id="2407" name="laser" gid="101" x="750" y="8900" width="50" height="50">
   <properties>
    <property name="direction" value="h"/>
   </properties>
  </object>
  <object id="2408" name="laser" gid="101" x="700" y="7950" width="50" height="50">
   <properties>
    <property name="direction" value="h"/>
   </properties>
  </object>
  <object id="2409" name="laser" gid="101" x="750" y="7950" width="50" height="50">
   <properties>
    <property name="direction" value="h"/>
   </properties>
  </object>
  <object id="2410" name="laser" gid="101" x="700" y="8200" width="50" height="50">
   <properties>
    <property name="direction" value="h"/>
   </properties>
  </object>
  <object id="2411" name="laser" gid="101" x="750" y="8200" width="50" height="50">
   <properties>
    <property name="direction" value="h"/>
   </properties>
  </object>
  <object id="2412" name="laser" gid="101" x="700" y="7750" width="50" height="50">
   <properties>
    <property name="direction" value="h"/>
   </properties>
  </object>
  <object id="2413" name="laser" gid="101" x="750" y="7750" width="50" height="50">
   <properties>
    <property name="direction" value="h"/>
   </properties>
  </object>
  <object id="2414" name="laser" gid="101" x="700" y="7250" width="50" height="50">
   <properties>
    <property name="direction" value="h"/>
   </properties>
  </object>
  <object id="2415" name="laser" gid="101" x="750" y="7250" width="50" height="50">
   <properties>
    <property name="direction" value="h"/>
   </properties>
  </object>
  <object id="2416" name="laser" gid="101" x="800" y="7250" width="50" height="50">
   <properties>
    <property name="direction" value="h"/>
   </properties>
  </object>
  <object id="2417" name="laser" gid="101" x="700" y="6700" width="50" height="50">
   <properties>
    <property name="direction" value="h"/>
   </properties>
  </object>
  <object id="2418" name="laser" gid="101" x="750" y="6700" width="50" height="50">
   <properties>
    <property name="direction" value="h"/>
   </properties>
  </object>
  <object id="2419" name="laser" gid="101" x="1050" y="6700" width="50" height="50">
   <properties>
    <property name="direction" value="h"/>
   </properties>
  </object>
  <object id="2423" name="laser" gid="107" x="1000" y="6150" width="50" height="50">
   <properties>
    <property name="direction" value="v"/>
   </properties>
  </object>
  <object id="2425" name="laser" gid="107" x="1000" y="6100" width="50" height="50">
   <properties>
    <property name="direction" value="v"/>
   </properties>
  </object>
  <object id="2429" name="laser" gid="101" x="1050" y="4650" width="50" height="50">
   <properties>
    <property name="direction" value="h"/>
   </properties>
  </object>
  <object id="2430" name="laser" gid="101" x="1050" y="4300" width="50" height="50">
   <properties>
    <property name="direction" value="h"/>
   </properties>
  </object>
  <object id="2431" name="laser" gid="101" x="750" y="5100" width="50" height="50">
   <properties>
    <property name="direction" value="h"/>
   </properties>
  </object>
  <object id="2432" name="laser" gid="101" x="800" y="5100" width="50" height="50">
   <properties>
    <property name="direction" value="h"/>
   </properties>
  </object>
  <object id="2436" name="laser" gid="101" x="550" y="11450" width="50" height="50">
   <properties>
    <property name="direction" value="h"/>
   </properties>
  </object>
  <object id="2437" name="laser" gid="101" x="600" y="11450" width="50" height="50">
   <properties>
    <property name="direction" value="h"/>
   </properties>
  </object>
  <object id="2438" name="laser" gid="101" x="850" y="11450" width="50" height="50">
   <properties>
    <property name="direction" value="h"/>
   </properties>
  </object>
  <object id="2439" name="laser" gid="101" x="900" y="11450" width="50" height="50">
   <properties>
    <property name="direction" value="h"/>
   </properties>
  </object>
  <object id="2440" name="laser" gid="101" x="650" y="11450" width="50" height="50">
   <properties>
    <property name="direction" value="h"/>
   </properties>
  </object>
  <object id="2441" name="laser" gid="101" x="800" y="11450" width="50" height="50">
   <properties>
    <property name="direction" value="h"/>
   </properties>
  </object>
  <object id="2442" name="laser" gid="115" x="700" y="11450" width="50" height="50">
   <properties>
    <property name="direction" value="hoff"/>
   </properties>
  </object>
  <object id="2443" name="laser" gid="115" x="750" y="11450" width="50" height="50">
   <properties>
    <property name="direction" value="hoff"/>
   </properties>
  </object>
  <object id="2494" name="laser" gid="107" x="650" y="10000" width="50" height="50">
   <properties>
    <property name="direction" value="v"/>
   </properties>
  </object>
  <object id="2495" name="laser" gid="107" x="650" y="10050" width="50" height="50">
   <properties>
    <property name="direction" value="v"/>
   </properties>
  </object>
  <object id="2496" name="laser" gid="113" x="650" y="9900" width="50" height="50">
   <properties>
    <property name="direction" value="voff"/>
   </properties>
  </object>
  <object id="2497" name="laser" gid="113" x="650" y="9950" width="50" height="50">
   <properties>
    <property name="direction" value="voff"/>
   </properties>
  </object>
  <object id="2598" name="laser" gid="101" x="1050" y="8000" width="50" height="50">
   <properties>
    <property name="direction" value="h"/>
   </properties>
  </object>
  <object id="2619" name="laser" gid="107" x="250" y="8950" width="50" height="50">
   <properties>
    <property name="direction" value="v"/>
   </properties>
  </object>
  <object id="2620" name="laser" gid="107" x="250" y="9000" width="50" height="50">
   <properties>
    <property name="direction" value="v"/>
   </properties>
  </object>
  <object id="2621" name="laser" gid="107" x="250" y="9050" width="50" height="50">
   <properties>
    <property name="direction" value="v"/>
   </properties>
  </object>
  <object id="2622" name="laser" gid="107" x="250" y="9100" width="50" height="50">
   <properties>
    <property name="direction" value="v"/>
   </properties>
  </object>
  <object id="2650" name="laser" gid="107" x="250" y="7650" width="50" height="50">
   <properties>
    <property name="direction" value="v"/>
   </properties>
  </object>
  <object id="2651" name="laser" gid="107" x="250" y="7700" width="50" height="50">
   <properties>
    <property name="direction" value="v"/>
   </properties>
  </object>
  <object id="2668" name="laser" gid="101" x="1050" y="7500" width="50" height="50">
   <properties>
    <property name="direction" value="h"/>
   </properties>
  </object>
  <object id="2701" name="laser" gid="101" x="400" y="6500" width="50" height="50">
   <properties>
    <property name="direction" value="h"/>
   </properties>
  </object>
  <object id="2702" name="laser" gid="101" x="450" y="6500" width="50" height="50">
   <properties>
    <property name="direction" value="h"/>
   </properties>
  </object>
  <object id="2703" name="laser" gid="101" x="550" y="6400" width="50" height="50">
   <properties>
    <property name="direction" value="h"/>
   </properties>
  </object>
  <object id="2704" name="laser" gid="107" x="500" y="6450" width="50" height="50">
   <properties>
    <property name="direction" value="v"/>
   </properties>
  </object>
  <object id="2705" name="laser" gid="107" x="600" y="6350" width="50" height="50">
   <properties>
    <property name="direction" value="v"/>
   </properties>
  </object>
  <object id="2708" name="laser" gid="101" x="650" y="5950" width="50" height="50">
   <properties>
    <property name="direction" value="h"/>
   </properties>
  </object>
  <object id="2711" name="laser" gid="101" x="800" y="5950" width="50" height="50">
   <properties>
    <property name="direction" value="h"/>
   </properties>
  </object>
  <object id="2716" name="laser" gid="101" x="700" y="5100" width="50" height="50">
   <properties>
    <property name="direction" value="h"/>
   </properties>
  </object>
  <object id="2717" name="laser" gid="101" x="650" y="5450" width="50" height="50">
   <properties>
    <property name="direction" value="h"/>
   </properties>
  </object>
  <object id="2718" name="laser" gid="101" x="800" y="5450" width="50" height="50">
   <properties>
    <property name="direction" value="h"/>
   </properties>
  </object>
  <object id="2719" name="laser" gid="107" x="1000" y="6050" width="50" height="50">
   <properties>
    <property name="direction" value="v"/>
   </properties>
  </object>
  <object id="2720" name="laser" gid="107" x="1000" y="6000" width="50" height="50">
   <properties>
    <property name="direction" value="v"/>
   </properties>
  </object>
  <object id="2721" name="laser" gid="115" x="750" y="5950" width="50" height="50">
   <properties>
    <property name="direction" value="hoff"/>
   </properties>
  </object>
  <object id="2722" name="laser" gid="115" x="700" y="5950" width="50" height="50">
   <properties>
    <property name="direction" value="hoff"/>
   </properties>
  </object>
  <object id="2727" name="laser" gid="115" x="700" y="5450" width="50" height="50">
   <properties>
    <property name="direction" value="hoff"/>
   </properties>
  </object>
  <object id="2728" name="laser" gid="115" x="750" y="5450" width="50" height="50">
   <properties>
    <property name="direction" value="hoff"/>
   </properties>
  </object>
  <object id="2788" name="laser" gid="101" x="750" y="4100" width="50" height="50">
   <properties>
    <property name="direction" value="h"/>
   </properties>
  </object>
  <object id="2789" name="laser" gid="101" x="800" y="4100" width="50" height="50">
   <properties>
    <property name="direction" value="h"/>
   </properties>
  </object>
  <object id="2814" name="laser" gid="101" x="700" y="4100" width="50" height="50">
   <properties>
    <property name="direction" value="h"/>
   </properties>
  </object>
  <object id="2825" name="laser" gid="101" x="450" y="3000" width="50" height="50">
   <properties>
    <property name="direction" value="h"/>
   </properties>
  </object>
  <object id="2826" name="laser" gid="101" x="500" y="3000" width="50" height="50">
   <properties>
    <property name="direction" value="h"/>
   </properties>
  </object>
  <object id="2827" name="laser" gid="101" x="400" y="3000" width="50" height="50">
   <properties>
    <property name="direction" value="h"/>
   </properties>
  </object>
  <object id="2828" name="laser" gid="101" x="600" y="3000" width="50" height="50">
   <properties>
    <property name="direction" value="h"/>
   </properties>
  </object>
  <object id="2829" name="laser" gid="101" x="650" y="3000" width="50" height="50">
   <properties>
    <property name="direction" value="h"/>
   </properties>
  </object>
  <object id="2830" name="laser" gid="101" x="550" y="3000" width="50" height="50">
   <properties>
    <property name="direction" value="h"/>
   </properties>
  </object>
  <object id="2835" name="laser" gid="101" x="800" y="3000" width="50" height="50">
   <properties>
    <property name="direction" value="h"/>
   </properties>
  </object>
  <object id="2837" name="laser" gid="101" x="900" y="3000" width="50" height="50">
   <properties>
    <property name="direction" value="h"/>
   </properties>
  </object>
  <object id="2838" name="laser" gid="101" x="950" y="3000" width="50" height="50">
   <properties>
    <property name="direction" value="h"/>
   </properties>
  </object>
  <object id="2839" name="laser" gid="101" x="850" y="3000" width="50" height="50">
   <properties>
    <property name="direction" value="h"/>
   </properties>
  </object>
  <object id="2840" name="laser" gid="101" x="1000" y="3000" width="50" height="50">
   <properties>
    <property name="direction" value="h"/>
   </properties>
  </object>
  <object id="2841" name="laser" gid="101" x="1050" y="3000" width="50" height="50">
   <properties>
    <property name="direction" value="h"/>
   </properties>
  </object>
  <object id="2842" name="laser" gid="101" x="450" y="2750" width="50" height="50">
   <properties>
    <property name="direction" value="h"/>
   </properties>
  </object>
  <object id="2843" name="laser" gid="101" x="500" y="2750" width="50" height="50">
   <properties>
    <property name="direction" value="h"/>
   </properties>
  </object>
  <object id="2844" name="laser" gid="101" x="400" y="2750" width="50" height="50">
   <properties>
    <property name="direction" value="h"/>
   </properties>
  </object>
  <object id="2847" name="laser" gid="101" x="550" y="2750" width="50" height="50">
   <properties>
    <property name="direction" value="h"/>
   </properties>
  </object>
  <object id="2848" name="laser" gid="101" x="750" y="2750" width="50" height="50">
   <properties>
    <property name="direction" value="h"/>
   </properties>
  </object>
  <object id="2850" name="laser" gid="101" x="700" y="2750" width="50" height="50">
   <properties>
    <property name="direction" value="h"/>
   </properties>
  </object>
  <object id="2856" name="laser" gid="101" x="500" y="2350" width="50" height="50">
   <properties>
    <property name="direction" value="h"/>
   </properties>
  </object>
  <object id="2857" name="laser" gid="101" x="550" y="2350" width="50" height="50">
   <properties>
    <property name="direction" value="h"/>
   </properties>
  </object>
  <object id="2858" name="laser" gid="101" x="450" y="2350" width="50" height="50">
   <properties>
    <property name="direction" value="h"/>
   </properties>
  </object>
  <object id="2859" name="laser" gid="101" x="650" y="2350" width="50" height="50">
   <properties>
    <property name="direction" value="h"/>
   </properties>
  </object>
  <object id="2861" name="laser" gid="101" x="600" y="2350" width="50" height="50">
   <properties>
    <property name="direction" value="h"/>
   </properties>
  </object>
  <object id="2862" name="laser" gid="101" x="800" y="2350" width="50" height="50">
   <properties>
    <property name="direction" value="h"/>
   </properties>
  </object>
  <object id="2863" name="laser" gid="101" x="850" y="2350" width="50" height="50">
   <properties>
    <property name="direction" value="h"/>
   </properties>
  </object>
  <object id="2865" name="laser" gid="101" x="950" y="2350" width="50" height="50">
   <properties>
    <property name="direction" value="h"/>
   </properties>
  </object>
  <object id="2866" name="laser" gid="101" x="1000" y="2350" width="50" height="50">
   <properties>
    <property name="direction" value="h"/>
   </properties>
  </object>
  <object id="2867" name="laser" gid="101" x="900" y="2350" width="50" height="50">
   <properties>
    <property name="direction" value="h"/>
   </properties>
  </object>
  <object id="2868" name="laser" gid="101" x="550" y="2050" width="50" height="50">
   <properties>
    <property name="direction" value="h"/>
   </properties>
  </object>
  <object id="2870" name="laser" gid="101" x="500" y="2050" width="50" height="50">
   <properties>
    <property name="direction" value="h"/>
   </properties>
  </object>
  <object id="2871" name="laser" gid="101" x="700" y="2050" width="50" height="50">
   <properties>
    <property name="direction" value="h"/>
   </properties>
  </object>
  <object id="2872" name="laser" gid="101" x="750" y="2050" width="50" height="50">
   <properties>
    <property name="direction" value="h"/>
   </properties>
  </object>
  <object id="2873" name="laser" gid="101" x="650" y="2050" width="50" height="50">
   <properties>
    <property name="direction" value="h"/>
   </properties>
  </object>
  <object id="2874" name="laser" gid="101" x="850" y="2050" width="50" height="50">
   <properties>
    <property name="direction" value="h"/>
   </properties>
  </object>
  <object id="2876" name="laser" gid="101" x="800" y="2050" width="50" height="50">
   <properties>
    <property name="direction" value="h"/>
   </properties>
  </object>
  <object id="2879" name="laser" gid="101" x="950" y="2050" width="50" height="50">
   <properties>
    <property name="direction" value="h"/>
   </properties>
  </object>
  <object id="2880" name="laser" gid="101" x="550" y="1800" width="50" height="50">
   <properties>
    <property name="direction" value="h"/>
   </properties>
  </object>
  <object id="2881" name="laser" gid="101" x="600" y="1800" width="50" height="50">
   <properties>
    <property name="direction" value="h"/>
   </properties>
  </object>
  <object id="2884" name="laser" gid="101" x="650" y="1800" width="50" height="50">
   <properties>
    <property name="direction" value="h"/>
   </properties>
  </object>
  <object id="2885" name="laser" gid="101" x="850" y="1800" width="50" height="50">
   <properties>
    <property name="direction" value="h"/>
   </properties>
  </object>
  <object id="2886" name="laser" gid="101" x="900" y="1800" width="50" height="50">
   <properties>
    <property name="direction" value="h"/>
   </properties>
  </object>
  <object id="2887" name="laser" gid="101" x="800" y="1800" width="50" height="50">
   <properties>
    <property name="direction" value="h"/>
   </properties>
  </object>
  <object id="2892" name="laser" gid="115" x="700" y="3000" width="50" height="50">
   <properties>
    <property name="direction" value="hoff"/>
   </properties>
  </object>
  <object id="2893" name="laser" gid="115" x="750" y="3000" width="50" height="50">
   <properties>
    <property name="direction" value="hoff"/>
   </properties>
  </object>
  <object id="2900" name="laser" gid="115" x="700" y="2350" width="50" height="50">
   <properties>
    <property name="direction" value="hoff"/>
   </properties>
  </object>
  <object id="2901" name="laser" gid="115" x="750" y="2350" width="50" height="50">
   <properties>
    <property name="direction" value="hoff"/>
   </properties>
  </object>
  <object id="2906" name="laser" gid="115" x="600" y="2050" width="50" height="50">
   <properties>
    <property name="direction" value="hoff"/>
   </properties>
  </object>
  <object id="2907" name="laser" gid="115" x="900" y="2050" width="50" height="50">
   <properties>
    <property name="direction" value="hoff"/>
   </properties>
  </object>
  <object id="2908" name="laser" gid="115" x="700" y="1800" width="50" height="50">
   <properties>
    <property name="direction" value="hoff"/>
   </properties>
  </object>
  <object id="2909" name="laser" gid="115" x="750" y="1800" width="50" height="50">
   <properties>
    <property name="direction" value="hoff"/>
   </properties>
  </object>
  <object id="2914" name="slab" gid="77" x="650" y="1400" width="50" height="50"/>
  <object id="2915" name="trampoline" gid="89" x="650" y="1350" width="50" height="50"/>
  <object id="3040" name="trampoline" gid="89" x="650" y="1350" width="50" height="50"/>
  <object id="2916" name="slab" gid="77" x="800" y="1400" width="50" height="50"/>
  <object id="2917" name="trampoline" gid="89" x="800" y="1350" width="50" height="50"/>
  <object id="2918" name="laser" gid="101" x="650" y="1450" width="50" height="50">
   <properties>
    <property name="direction" value="h"/>
   </properties>
  </object>
  <object id="2920" name="laser" gid="101" x="800" y="1450" width="50" height="50">
   <properties>
    <property name="direction" value="h"/>
   </properties>
  </object>
  <object id="2921" name="laser" gid="115" x="750" y="1450" width="50" height="50">
   <properties>
    <property name="direction" value="hoff"/>
   </properties>
  </object>
  <object id="2922" name="laser" gid="115" x="700" y="1450" width="50" height="50">
   <properties>
    <property name="direction" value="hoff"/>
   </properties>
  </object>
  <object id="2923" name="laser" gid="101" x="700" y="1200" width="50" height="50">
   <properties>
    <property name="direction" value="h"/>
   </properties>
  </object>
  <object id="2924" name="laser" gid="101" x="750" y="1200" width="50" height="50">
   <properties>
    <property name="direction" value="h"/>
   </properties>
  </object>
  <object id="2926" name="laser" gid="115" x="800" y="1200" width="50" height="50">
   <properties>
    <property name="direction" value="hoff"/>
   </properties>
  </object>
  <object id="2927" name="laser" gid="115" x="650" y="1200" width="50" height="50">
   <properties>
    <property name="direction" value="hoff"/>
   </properties>
  </object>
  <object id="2945" name="laser" gid="107" x="350" y="3350" width="50" height="50">
   <properties>
    <property name="direction" value="v"/>
   </properties>
  </object>
  <object id="2946" name="laser" gid="107" x="350" y="3300" width="50" height="50">
   <properties>
    <property name="direction" value="v"/>
   </properties>
  </object>
  <object id="2947" name="laser" gid="107" x="350" y="3250" width="50" height="50">
   <properties>
    <property name="direction" value="v"/>
   </properties>
  </object>
  <object id="2948" name="laser" gid="107" x="350" y="3200" width="50" height="50">
   <properties>
    <property name="direction" value="v"/>
   </properties>
  </object>
  <object id="2949" name="laser" gid="107" x="1100" y="3200" width="50" height="50">
   <properties>
    <property name="direction" value="v"/>
   </properties>
  </object>
  <object id="2950" name="laser" gid="107" x="1100" y="3150" width="50" height="50">
   <properties>
    <property name="direction" value="v"/>
   </properties>
  </object>
  <object id="2951" name="laser" gid="107" x="1100" y="3100" width="50" height="50">
   <properties>
    <property name="direction" value="v"/>
   </properties>
  </object>
  <object id="2952" name="laser" gid="107" x="1100" y="3050" width="50" height="50">
   <properties>
    <property name="direction" value="v"/>
   </properties>
  </object>
  <object id="2953" name="laser" gid="107" x="1100" y="3300" width="50" height="50">
   <properties>
    <property name="direction" value="v"/>
   </properties>
  </object>
  <object id="2954" name="laser" gid="107" x="1100" y="3250" width="50" height="50">
   <properties>
    <property name="direction" value="v"/>
   </properties>
  </object>
  <object id="2955" name="laser" gid="107" x="1100" y="3350" width="50" height="50">
   <properties>
    <property name="direction" value="v"/>
   </properties>
  </object>
  <object id="2956" name="laser" gid="107" x="350" y="3150" width="50" height="50">
   <properties>
    <property name="direction" value="v"/>
   </properties>
  </object>
  <object id="2957" name="laser" gid="107" x="350" y="3100" width="50" height="50">
   <properties>
    <property name="direction" value="v"/>
   </properties>
  </object>
  <object id="2958" name="laser" gid="107" x="350" y="3050" width="50" height="50">
   <properties>
    <property name="direction" value="v"/>
   </properties>
  </object>
  <object id="2959" name="laser" gid="107" x="350" y="2950" width="50" height="50">
   <properties>
    <property name="direction" value="v"/>
   </properties>
  </object>
  <object id="2960" name="laser" gid="107" x="350" y="2900" width="50" height="50">
   <properties>
    <property name="direction" value="v"/>
   </properties>
  </object>
  <object id="2961" name="laser" gid="107" x="350" y="2850" width="50" height="50">
   <properties>
    <property name="direction" value="v"/>
   </properties>
  </object>
  <object id="2962" name="laser" gid="107" x="350" y="2800" width="50" height="50">
   <properties>
    <property name="direction" value="v"/>
   </properties>
  </object>
  <object id="2964" name="laser" gid="107" x="1100" y="2950" width="50" height="50">
   <properties>
    <property name="direction" value="v"/>
   </properties>
  </object>
  <object id="2965" name="laser" gid="107" x="1100" y="2900" width="50" height="50">
   <properties>
    <property name="direction" value="v"/>
   </properties>
  </object>
  <object id="2966" name="laser" gid="107" x="1100" y="2850" width="50" height="50">
   <properties>
    <property name="direction" value="v"/>
   </properties>
  </object>
  <object id="2967" name="laser" gid="107" x="1100" y="2800" width="50" height="50">
   <properties>
    <property name="direction" value="v"/>
   </properties>
  </object>
  <object id="2968" name="laser" gid="107" x="350" y="2700" width="50" height="50">
   <properties>
    <property name="direction" value="v"/>
   </properties>
  </object>
  <object id="2969" name="laser" gid="107" x="350" y="2650" width="50" height="50">
   <properties>
    <property name="direction" value="v"/>
   </properties>
  </object>
  <object id="2970" name="laser" gid="107" x="350" y="2600" width="50" height="50">
   <properties>
    <property name="direction" value="v"/>
   </properties>
  </object>
  <object id="2971" name="laser" gid="107" x="350" y="2550" width="50" height="50">
   <properties>
    <property name="direction" value="v"/>
   </properties>
  </object>
  <object id="2972" name="laser" gid="107" x="350" y="2500" width="50" height="50">
   <properties>
    <property name="direction" value="v"/>
   </properties>
  </object>
  <object id="2973" name="laser" gid="107" x="1100" y="2700" width="50" height="50">
   <properties>
    <property name="direction" value="v"/>
   </properties>
  </object>
  <object id="2974" name="laser" gid="107" x="1100" y="2650" width="50" height="50">
   <properties>
    <property name="direction" value="v"/>
   </properties>
  </object>
  <object id="2975" name="laser" gid="107" x="1100" y="2600" width="50" height="50">
   <properties>
    <property name="direction" value="v"/>
   </properties>
  </object>
  <object id="2976" name="laser" gid="107" x="1100" y="2550" width="50" height="50">
   <properties>
    <property name="direction" value="v"/>
   </properties>
  </object>
  <object id="2977" name="laser" gid="107" x="1100" y="2500" width="50" height="50">
   <properties>
    <property name="direction" value="v"/>
   </properties>
  </object>
  <object id="3032" name="laser" gid="101" x="650" y="2750" width="50" height="50">
   <properties>
    <property name="direction" value="h"/>
   </properties>
  </object>
  <object id="3033" name="laser" gid="101" x="600" y="2750" width="50" height="50">
   <properties>
    <property name="direction" value="h"/>
   </properties>
  </object>
  <object id="3034" name="laser" gid="101" x="850" y="2750" width="50" height="50">
   <properties>
    <property name="direction" value="h"/>
   </properties>
  </object>
  <object id="3035" name="laser" gid="101" x="800" y="2750" width="50" height="50">
   <properties>
    <property name="direction" value="h"/>
   </properties>
  </object>
  <object id="3036" name="laser" gid="115" x="900" y="2750" width="50" height="50">
   <properties>
    <property name="direction" value="hoff"/>
   </properties>
  </object>
  <object id="3037" name="laser" gid="115" x="950" y="2750" width="50" height="50">
   <properties>
    <property name="direction" value="hoff"/>
   </properties>
  </object>
  <object id="3038" name="laser" gid="115" x="1000" y="2750" width="50" height="50">
   <properties>
    <property name="direction" value="hoff"/>
   </properties>
  </object>
  <object id="3039" name="laser" gid="115" x="1050" y="2750" width="50" height="50">
   <properties>
    <property name="direction" value="hoff"/>
   </properties>
  </object>
  <object id="3043" name="laser" gid="101" x="750" y="11050" width="50" height="50">
   <properties>
    <property name="direction" value="h"/>
   </properties>
  </object>
  <object id="3044" name="laser" gid="101" x="800" y="11050" width="50" height="50">
   <properties>
    <property name="direction" value="h"/>
   </properties>
  </object>
  <object id="3045" name="laser" gid="101" x="850" y="11050" width="50" height="50">
   <properties>
    <property name="direction" value="h"/>
   </properties>
  </object>
  <object id="3046" name="laser" gid="101" x="900" y="11050" width="50" height="50">
   <properties>
    <property name="direction" value="h"/>
   </properties>
  </object>
  <object id="3047" name="laser" gid="101" x="700" y="11050" width="50" height="50">
   <properties>
    <property name="direction" value="h"/>
   </properties>
  </object>
  <object id="3048" name="laser" gid="115" x="600" y="11050" width="50" height="50">
   <properties>
    <property name="direction" value="hoff"/>
   </properties>
  </object>
  <object id="3049" name="laser" gid="115" x="650" y="11050" width="50" height="50">
   <properties>
    <property name="direction" value="hoff"/>
   </properties>
  </object>
  <object id="3050" name="laser" gid="115" x="550" y="11050" width="50" height="50">
   <properties>
    <property name="direction" value="hoff"/>
   </properties>
  </object>
 </objectgroup>
 <objectgroup id="11" name="bg">
  <properties>
   <property name="bgName" value="castleBG_bw"/>
   <property name="bgShader" value="rainbow"/>
  </properties>
 </objectgroup>
 <objectgroup id="12" name="foregroundEffect">
  <properties>
   <property name="foregroundEffectType" value="none"/>
  </properties>
 </objectgroup>
 <objectgroup id="22" name="mapEffect">
  <properties>
   <property name="effectType" value="none"/>
  </properties>
 </objectgroup>
 <objectgroup id="15" name="music">
  <properties>
   <property name="songName" value="last_elevator"/>
  </properties>
 </objectgroup>
 <objectgroup id="20" name="warps">
  <object id="2928" name="warp" gid="130" x="650" y="1050" width="50" height="50">
   <properties>
    <property name="direction" value="up"/>
    <property name="target" value="map43"/>
   </properties>
  </object>
  <object id="2929" name="warp" gid="130" x="700" y="1050" width="50" height="50">
   <properties>
    <property name="direction" value="up"/>
    <property name="target" value="map43"/>
   </properties>
  </object>
  <object id="2930" name="warp" gid="130" x="750" y="1050" width="50" height="50">
   <properties>
    <property name="direction" value="up"/>
    <property name="target" value="map43"/>
   </properties>
  </object>
  <object id="2931" name="warp" gid="130" x="800" y="1050" width="50" height="50">
   <properties>
    <property name="direction" value="up"/>
    <property name="target" value="map43"/>
   </properties>
  </object>
 </objectgroup>
</map>
