<?xml version="1.0" encoding="UTF-8"?>
<map version="1.10" tiledversion="1.12.1" orientation="orthogonal" renderorder="right-down" width="28" height="18" tilewidth="50" tileheight="50" infinite="0" nextlayerid="20" nextobjectid="94">
 <tileset firstgid="1" source="ch1-tiles.tsx"/>
 <tileset firstgid="89" source="../../textures/laser.tsx"/>
 <tileset firstgid="107" source="../../textures/spike.tsx"/>
 <tileset firstgid="115" source="../../textures/save.tsx"/>
 <tileset firstgid="116" source="../../textures/transition-tiles.tsx"/>
 <layer id="1" name="tiles-main" width="28" height="18">
  <data encoding="csv">
0,0,0,0,0,0,0,0,0,0,0,0,0,0,0,0,0,2,0,0,0,2,0,0,0,0,0,0,
0,0,0,0,0,0,0,0,0,0,0,0,0,0,0,0,0,2,0,0,0,2,0,0,0,0,0,0,
0,0,2,2,2,2,7,2,2,2,2,2,0,0,0,0,0,7,0,0,0,7,0,0,0,0,0,0,
0,0,2,0,0,0,0,0,0,0,0,2,0,0,0,0,2,2,0,0,0,2,0,0,0,0,0,0,
2,2,2,0,0,0,0,0,0,0,0,2,0,0,0,2,2,7,0,0,0,2,7,2,2,2,2,2,
2,2,0,0,0,0,0,0,0,0,0,2,0,0,0,2,0,0,0,0,0,0,0,0,0,0,0,0,
0,0,0,0,0,0,0,0,0,0,0,2,2,2,2,2,0,0,0,0,0,0,0,0,0,0,0,0,
0,0,0,0,2,2,7,0,0,0,0,7,0,0,0,0,0,0,0,0,0,0,0,0,0,0,0,0,
0,0,0,2,2,0,2,0,0,0,0,0,0,0,0,0,0,0,0,0,0,0,0,0,0,0,0,0,
0,0,0,2,0,0,2,0,0,0,0,0,0,0,0,0,0,0,0,0,0,0,7,2,2,2,2,2,
2,2,2,2,0,0,2,0,0,0,0,0,0,0,0,0,0,0,0,0,0,0,2,0,0,0,0,0,
0,0,0,0,0,0,2,0,0,0,0,0,0,0,0,0,0,0,0,0,2,2,2,0,0,0,0,0,
0,0,0,0,0,0,2,0,0,0,0,7,2,0,0,0,0,0,0,82,2,0,0,0,0,0,0,0,
0,0,0,0,0,0,2,2,2,2,2,2,2,0,0,0,0,7,2,2,2,0,0,0,0,0,0,0,
0,0,0,0,0,0,0,0,0,0,0,0,2,0,0,0,0,2,0,0,0,0,0,0,0,0,0,0,
0,0,0,0,0,0,0,0,0,0,0,0,2,0,0,0,0,2,0,0,0,0,0,0,0,0,0,0,
0,0,0,0,0,0,0,0,0,0,0,0,2,0,0,0,0,2,0,0,0,0,0,0,0,0,0,0,
0,0,0,0,0,0,0,0,0,0,0,0,2,0,0,0,0,2,0,0,0,0,0,0,0,0,0,0
</data>
 </layer>
 <layer id="2" name="tiles-deco" width="28" height="18">
  <data encoding="csv">
10,3,3,10,10,10,10,10,10,10,10,10,10,3,10,3,3,0,0,0,0,0,10,10,3,3,10,3,
3,3,10,10,10,10,10,10,10,10,10,10,10,3,10,10,10,0,0,0,0,0,10,10,3,10,3,10,
10,10,0,0,0,0,0,0,0,0,0,0,10,10,10,10,10,0,0,0,0,0,10,10,3,3,3,10,
10,10,0,0,0,0,0,0,0,0,0,0,10,3,10,10,0,0,0,0,0,0,10,10,10,10,10,10,
10,0,0,0,0,0,0,0,0,0,0,0,10,10,10,0,0,0,0,0,0,0,0,0,0,0,0,0,
0,0,0,0,0,0,0,0,0,0,0,0,10,10,10,0,0,0,0,0,0,0,0,0,0,0,0,0,
0,0,0,0,0,0,0,0,0,0,0,0,0,0,0,0,0,0,0,0,0,0,0,0,0,0,0,0,
0,0,0,0,0,0,0,0,0,0,0,0,0,0,0,0,0,0,0,0,0,0,0,0,0,0,0,0,
0,0,0,0,0,10,0,0,0,0,0,0,0,0,0,0,0,0,0,0,0,0,0,0,0,0,0,0,
0,0,0,0,10,10,0,0,0,0,0,0,0,0,0,0,0,0,0,0,0,0,0,0,0,0,0,0,
0,0,0,0,10,10,0,0,0,0,0,0,0,0,0,0,0,0,0,0,0,84,0,10,10,10,10,10,
10,10,10,10,10,10,0,84,0,0,0,0,0,0,0,0,0,0,0,0,0,0,0,10,3,10,3,10,
10,3,10,10,3,10,0,84,84,0,0,0,0,0,0,0,0,0,0,0,0,10,10,10,10,3,3,10,
10,10,10,3,3,10,0,0,0,0,0,0,0,0,0,0,0,0,0,0,0,10,10,3,10,10,3,3,
10,3,10,10,10,3,10,10,10,10,10,10,0,0,0,0,0,0,10,10,10,10,3,10,3,3,10,10,
3,10,10,3,10,10,10,10,10,3,10,10,0,0,0,0,0,0,10,3,10,3,3,10,10,3,3,3,
10,10,3,3,10,3,3,10,3,3,10,3,0,0,0,0,0,0,10,10,3,10,10,3,10,10,10,3,
10,3,3,10,10,3,10,10,10,3,10,10,0,0,0,0,0,0,10,10,10,3,10,10,10,3,10,10
</data>
 </layer>
 <objectgroup id="16" name="foregroundEffect">
  <properties>
   <property name="foregroundEffectType" value="rain"/>
  </properties>
 </objectgroup>
 <objectgroup id="17" name="topEffect">
  <properties>
   <property name="topEffectType" value="wind"/>
  </properties>
 </objectgroup>
 <objectgroup id="13" name="bg">
  <properties>
   <property name="bgName" value="bgMountains"/>
  </properties>
 </objectgroup>
 <objectgroup id="5" name="spike-normal">
  <object id="58" name="spike" gid="113" x="700" y="400" width="50" height="50">
   <properties>
    <property name="id" value="6"/>
   </properties>
  </object>
  <object id="62" name="spike" gid="110" x="800" y="800" width="50" height="50">
   <properties>
    <property name="id" value="3"/>
   </properties>
  </object>
  <object id="63" name="spike" gid="108" x="650" y="800" width="50" height="50">
   <properties>
    <property name="id" value="1"/>
   </properties>
  </object>
  <object id="80" name="spike" gid="109" x="750" y="400" width="50" height="50">
   <properties>
    <property name="id" value="2"/>
   </properties>
  </object>
 </objectgroup>
 <objectgroup id="10" name="laser">
  <object id="1" name="laser" gid="89" x="350" y="400" width="50" height="50">
   <properties>
    <property name="direction" value="h"/>
   </properties>
  </object>
  <object id="8" name="laser" gid="95" x="550" y="450" width="50" height="50">
   <properties>
    <property name="direction" value="v"/>
   </properties>
  </object>
  <object id="10" name="laser" gid="95" x="550" y="600" width="50" height="50">
   <properties>
    <property name="direction" value="v"/>
   </properties>
  </object>
  <object id="12" name="laser" gid="89" x="650" y="700" width="50" height="50">
   <properties>
    <property name="direction" value="h"/>
   </properties>
  </object>
  <object id="13" name="laser" gid="89" x="700" y="700" width="50" height="50">
   <properties>
    <property name="direction" value="h"/>
   </properties>
  </object>
  <object id="14" name="laser" gid="89" x="750" y="700" width="50" height="50">
   <properties>
    <property name="direction" value="h"/>
   </properties>
  </object>
  <object id="15" name="laser" gid="89" x="800" y="700" width="50" height="50">
   <properties>
    <property name="direction" value="h"/>
   </properties>
  </object>
  <object id="16" name="laser" gid="95" x="850" y="650" width="50" height="50">
   <properties>
    <property name="direction" value="v"/>
   </properties>
  </object>
  <object id="17" name="laser" gid="95" x="850" y="600" width="50" height="50">
   <properties>
    <property name="direction" value="v"/>
   </properties>
  </object>
  <object id="23" name="laser" gid="95" x="850" y="350" width="50" height="50">
   <properties>
    <property name="direction" value="v"/>
   </properties>
  </object>
  <object id="24" name="laser" gid="95" x="850" y="300" width="50" height="50">
   <properties>
    <property name="direction" value="v"/>
   </properties>
  </object>
  <object id="30" name="laser" gid="89" x="900" y="150" width="50" height="50">
   <properties>
    <property name="direction" value="h"/>
   </properties>
  </object>
  <object id="31" name="laser" gid="89" x="950" y="150" width="50" height="50">
   <properties>
    <property name="direction" value="h"/>
   </properties>
  </object>
  <object id="32" name="laser" gid="89" x="1000" y="150" width="50" height="50">
   <properties>
    <property name="direction" value="h"/>
   </properties>
  </object>
  <object id="35" name="laser" gid="101" x="850" y="400" width="50" height="50">
   <properties>
    <property name="direction" value="voff"/>
   </properties>
  </object>
  <object id="36" name="laser" gid="101" x="850" y="500" width="50" height="50">
   <properties>
    <property name="direction" value="voff"/>
   </properties>
  </object>
  <object id="37" name="laser" gid="101" x="850" y="550" width="50" height="50">
   <properties>
    <property name="direction" value="voff"/>
   </properties>
  </object>
  <object id="38" name="laser" gid="101" x="850" y="450" width="50" height="50">
   <properties>
    <property name="direction" value="voff"/>
   </properties>
  </object>
  <object id="39" name="laser" gid="101" x="550" y="500" width="50" height="50">
   <properties>
    <property name="direction" value="voff"/>
   </properties>
  </object>
  <object id="40" name="laser" gid="101" x="550" y="550" width="50" height="50">
   <properties>
    <property name="direction" value="voff"/>
   </properties>
  </object>
  <object id="41" name="laser" gid="103" x="400" y="400" width="50" height="50">
   <properties>
    <property name="direction" value="hoff"/>
   </properties>
  </object>
  <object id="42" name="laser" gid="103" x="450" y="400" width="50" height="50">
   <properties>
    <property name="direction" value="hoff"/>
   </properties>
  </object>
  <object id="43" name="laser" gid="103" x="500" y="400" width="50" height="50">
   <properties>
    <property name="direction" value="hoff"/>
   </properties>
  </object>
  <object id="64" name="laser" gid="95" x="300" y="250" width="50" height="50">
   <properties>
    <property name="direction" value="v"/>
   </properties>
  </object>
  <object id="65" name="laser" gid="95" x="300" y="200" width="50" height="50">
   <properties>
    <property name="direction" value="v"/>
   </properties>
  </object>
  <object id="66" name="laser" gid="101" x="300" y="350" width="50" height="50">
   <properties>
    <property name="direction" value="voff"/>
   </properties>
  </object>
  <object id="67" name="laser" gid="101" x="300" y="300" width="50" height="50">
   <properties>
    <property name="direction" value="voff"/>
   </properties>
  </object>
  <object id="75" name="laser" gid="95" x="1100" y="300" width="50" height="50">
   <properties>
    <property name="direction" value="v"/>
   </properties>
  </object>
  <object id="76" name="laser" gid="95" x="1100" y="350" width="50" height="50">
   <properties>
    <property name="direction" value="v"/>
   </properties>
  </object>
  <object id="77" name="laser" gid="101" x="1100" y="450" width="50" height="50">
   <properties>
    <property name="direction" value="voff"/>
   </properties>
  </object>
  <object id="78" name="laser" gid="101" x="1100" y="400" width="50" height="50">
   <properties>
    <property name="direction" value="voff"/>
   </properties>
  </object>
 </objectgroup>
 <objectgroup id="12" name="save">
  <object id="73" name="save" gid="115" x="200" y="250" width="50" height="50"/>
 </objectgroup>
 <objectgroup id="11" name="mapEffect">
  <properties>
   <property name="effectType" value="fog"/>
  </properties>
 </objectgroup>
 <objectgroup id="14" name="music">
  <properties>
   <property name="songName" value="rain"/>
  </properties>
 </objectgroup>
 <objectgroup id="19" name="shaders">
  <properties>
   <property name="shaderName" value="rain"/>
  </properties>
 </objectgroup>
 <objectgroup id="18" name="doubleEffect">
  <properties>
   <property name="doubleEffectType" value="redMist"/>
  </properties>
 </objectgroup>
 <objectgroup id="15" name="warps">
  <object id="82" name="warp" gid="119" x="0" y="350" width="50" height="50">
   <properties>
    <property name="direction" value="left"/>
    <property name="target" value="map02"/>
   </properties>
  </object>
  <object id="83" name="warp" gid="119" x="0" y="400" width="50" height="50">
   <properties>
    <property name="direction" value="left"/>
    <property name="target" value="map02"/>
   </properties>
  </object>
  <object id="84" name="warp" gid="119" x="0" y="400" width="50" height="50">
   <properties>
    <property name="direction" value="left"/>
    <property name="target" value="map02"/>
   </properties>
  </object>
  <object id="85" name="warp" gid="119" x="0" y="450" width="50" height="50">
   <properties>
    <property name="direction" value="left"/>
    <property name="target" value="map02"/>
   </properties>
  </object>
  <object id="86" name="warp" gid="119" x="0" y="450" width="50" height="50">
   <properties>
    <property name="direction" value="left"/>
    <property name="target" value="map02"/>
   </properties>
  </object>
  <object id="87" name="warp" gid="119" x="0" y="450" width="50" height="50">
   <properties>
    <property name="direction" value="left"/>
    <property name="target" value="map02"/>
   </properties>
  </object>
  <object id="88" name="warp" gid="119" x="0" y="450" width="50" height="50">
   <properties>
    <property name="direction" value="left"/>
    <property name="target" value="map02"/>
   </properties>
  </object>
  <object id="89" name="warp" gid="119" x="0" y="500" width="50" height="50">
   <properties>
    <property name="direction" value="left"/>
    <property name="target" value="map02"/>
   </properties>
  </object>
  <object id="90" name="warp" gid="117" x="1350" y="300" width="50" height="50">
   <properties>
    <property name="direction" value="right"/>
    <property name="target" value="map04"/>
   </properties>
  </object>
  <object id="91" name="warp" gid="117" x="1350" y="350" width="50" height="50">
   <properties>
    <property name="direction" value="right"/>
    <property name="target" value="map04"/>
   </properties>
  </object>
  <object id="92" name="warp" gid="117" x="1350" y="400" width="50" height="50">
   <properties>
    <property name="direction" value="right"/>
    <property name="target" value="map04"/>
   </properties>
  </object>
  <object id="93" name="warp" gid="117" x="1350" y="450" width="50" height="50">
   <properties>
    <property name="direction" value="right"/>
    <property name="target" value="map04"/>
   </properties>
  </object>
 </objectgroup>
</map>
