<?xml version="1.0" encoding="UTF-8"?>
<map version="1.10" tiledversion="1.12.1" orientation="orthogonal" renderorder="right-down" width="60" height="18" tilewidth="50" tileheight="50" infinite="0" nextlayerid="33" nextobjectid="2037">
 <properties>
  <property name="songName" value="rain"/>
 </properties>
 <tileset firstgid="1" source="ch1-tiles.tsx"/>
 <tileset firstgid="89" source="../../textures/trampoline.tsx"/>
 <tileset firstgid="92" source="../../textures/save.tsx"/>
 <tileset firstgid="93" source="../../textures/spike.tsx"/>
 <tileset firstgid="101" source="../../textures/laser.tsx"/>
 <tileset firstgid="119" source="../../textures/light.tsx"/>
 <tileset firstgid="121" source="../../textures/trampoline-mini.tsx"/>
 <tileset firstgid="130" source="../../textures/transition-tiles.tsx"/>
 <tileset firstgid="135" source="../../textures/small-spike.tsx"/>
 <tileset firstgid="139" source="../../textures/coins.tsx"/>
 <layer id="1" name="tiles-main" width="60" height="18">
  <data encoding="csv">
0,0,0,0,0,0,0,0,33,0,0,0,0,0,0,33,0,0,0,0,0,33,0,0,33,0,0,0,0,0,0,0,0,0,0,0,0,0,0,0,0,0,0,0,0,0,0,33,0,0,0,0,0,0,0,0,0,0,0,0,
0,0,0,0,0,0,0,0,33,0,0,0,0,0,0,33,0,0,0,0,0,33,0,0,33,0,0,0,0,0,0,0,0,0,0,0,0,0,0,0,0,0,0,0,0,0,0,33,0,0,0,0,0,0,0,0,0,0,0,0,
0,0,0,0,0,0,0,0,33,0,0,0,0,0,0,33,0,0,0,0,0,33,0,0,33,0,0,0,0,0,0,0,0,0,0,0,0,0,0,0,0,0,0,0,0,0,0,33,0,0,0,0,0,0,0,0,0,0,0,0,
0,0,0,0,0,0,0,0,35,36,36,36,36,36,36,33,0,0,0,0,0,33,0,0,33,0,0,0,35,0,0,0,0,0,0,0,0,0,0,0,0,0,0,0,0,0,0,35,0,0,0,0,0,0,0,0,0,0,0,0,
0,0,0,0,0,0,0,0,0,0,0,0,0,0,0,33,0,0,0,0,0,33,0,0,35,0,0,0,33,0,0,0,0,0,0,0,0,0,0,0,0,0,0,0,0,0,0,0,0,0,0,0,0,0,0,0,0,0,0,0,
0,0,0,35,36,35,0,0,0,0,0,0,0,0,0,33,0,0,0,0,0,33,0,0,0,0,0,0,33,0,0,0,35,0,0,0,0,0,0,0,0,0,0,0,0,0,0,0,0,0,0,0,0,0,0,0,0,0,0,0,
0,0,0,0,0,0,0,0,0,0,0,0,0,0,0,35,0,0,0,0,0,35,0,0,0,0,0,0,0,0,0,0,0,0,0,0,0,0,0,0,0,0,0,0,0,35,0,0,0,0,0,0,0,0,0,0,0,0,0,0,
0,0,0,0,0,0,0,0,0,0,0,0,0,0,0,0,0,0,0,0,0,0,0,0,0,0,0,0,0,0,0,0,0,0,0,0,0,0,0,0,0,0,0,0,0,33,0,0,35,0,0,0,0,0,0,0,0,0,0,0,
0,0,0,0,0,0,0,0,0,0,0,35,0,0,0,0,0,0,0,0,0,0,0,0,0,0,0,0,0,0,0,0,0,0,0,0,0,0,0,0,0,0,0,0,0,33,0,0,33,0,0,0,0,0,0,0,0,0,0,0,
0,0,35,36,36,36,35,0,0,0,0,0,0,0,0,0,0,0,35,0,0,0,0,0,0,0,0,0,0,0,0,0,0,0,0,0,0,0,0,35,0,0,0,0,0,33,36,36,33,0,0,0,0,0,0,0,0,0,0,0,
0,0,0,0,0,0,0,0,0,0,0,0,0,35,0,0,0,0,0,0,0,0,0,0,35,0,0,0,0,0,35,0,0,0,35,0,0,35,0,0,0,0,0,0,0,33,0,0,33,0,0,0,0,0,0,0,0,0,0,0,
0,0,0,0,0,0,0,0,0,0,0,0,0,0,0,0,0,0,0,0,0,35,0,0,0,0,35,0,0,0,33,0,0,0,33,0,0,0,0,0,0,0,35,0,0,33,0,0,33,0,0,0,0,0,0,0,0,0,0,0,
0,0,0,0,0,0,0,0,0,0,0,0,0,0,0,0,35,0,0,0,0,0,0,0,0,0,33,0,0,0,33,0,0,0,33,0,0,0,0,0,0,0,33,0,0,33,0,0,33,0,0,0,0,0,0,0,0,0,0,0,
0,0,0,0,0,0,0,0,0,0,0,0,0,0,0,0,0,0,0,0,0,0,0,0,0,0,33,0,0,0,33,0,0,0,33,0,0,0,0,0,0,0,33,36,36,33,0,0,33,0,0,0,0,0,0,0,0,0,0,0,
0,0,0,0,0,0,0,0,0,0,0,0,0,0,0,0,0,0,0,0,0,0,0,0,0,0,33,0,0,0,33,0,0,0,33,0,0,0,0,0,0,0,33,0,0,33,0,0,33,0,0,0,0,0,0,0,0,0,0,0,
0,0,0,0,0,0,0,0,0,0,0,0,0,0,0,0,0,0,0,0,0,0,0,0,0,0,33,0,0,0,33,0,0,0,33,0,0,0,0,0,0,0,33,0,0,33,0,0,33,0,0,0,0,0,0,0,0,0,0,0,
0,0,0,0,0,0,0,0,0,0,0,0,0,0,0,0,0,0,0,0,0,0,0,0,0,0,33,0,0,0,33,0,0,0,33,0,0,0,0,0,0,0,33,0,0,33,0,0,33,0,0,0,0,0,0,0,0,0,0,0,
0,0,0,0,0,0,0,0,0,0,0,0,0,0,0,0,0,0,0,0,0,0,0,0,0,0,33,0,0,0,33,0,0,0,33,0,0,0,0,0,0,0,33,0,0,33,0,0,33,0,0,0,0,0,0,0,0,0,0,0
</data>
 </layer>
 <layer id="5" name="tiles-deco" width="60" height="18">
  <data encoding="csv">
0,0,0,0,45,0,0,0,0,41,41,41,41,41,41,0,0,0,0,0,0,0,0,0,0,0,0,0,0,0,0,0,0,0,0,0,0,0,0,0,0,0,0,0,0,0,0,0,0,0,0,0,0,0,0,0,0,0,0,0,
0,0,0,0,45,0,0,0,0,41,41,41,41,41,41,0,0,0,0,0,0,0,0,0,0,0,0,0,0,0,0,0,0,0,0,0,0,0,0,0,0,0,0,0,0,0,0,0,0,0,0,0,0,0,0,0,0,0,0,0,
0,0,0,0,45,0,0,0,0,41,37,41,41,37,37,0,0,0,0,0,0,0,32,32,0,0,0,0,0,0,0,0,0,0,0,0,0,0,0,0,0,0,0,0,0,0,0,0,0,0,0,0,0,0,0,0,0,0,0,0,
0,0,0,0,45,0,0,0,0,0,0,0,0,0,0,0,32,32,32,32,32,0,0,0,0,32,46,32,0,0,0,0,0,0,0,0,0,0,0,0,0,0,0,0,0,0,0,0,0,0,0,0,0,0,0,0,0,0,0,0,
0,0,0,0,45,0,0,0,0,0,0,0,0,0,0,0,0,0,0,0,0,0,0,0,0,0,0,0,0,0,0,0,0,0,0,0,0,0,0,0,0,0,0,0,0,0,0,0,0,0,0,0,0,0,0,0,0,0,0,0,
0,0,0,0,0,0,0,0,0,0,0,0,0,0,0,0,0,0,0,0,0,0,0,0,0,0,0,0,0,32,32,32,0,0,0,0,0,0,0,0,0,0,0,0,0,0,0,0,0,0,0,0,0,0,0,0,0,0,0,0,
0,0,0,0,0,0,0,0,0,0,0,0,0,0,0,0,0,0,0,0,0,0,0,0,0,0,0,0,0,0,0,0,0,0,0,0,0,0,0,0,0,0,0,0,0,0,0,0,0,0,0,0,0,0,0,0,0,0,0,0,
0,0,0,0,0,0,0,0,0,0,0,0,0,0,0,0,0,0,0,0,0,0,0,0,0,0,0,0,0,0,0,0,0,0,0,0,0,0,0,0,0,0,0,0,0,0,0,0,0,0,0,0,0,0,0,0,0,0,0,0,
0,0,0,0,0,0,0,0,0,0,0,0,0,0,0,0,0,0,0,0,0,0,0,0,0,0,0,0,0,0,0,0,0,0,0,0,0,0,0,0,0,0,0,0,0,0,0,0,0,0,0,0,0,0,0,0,0,44,0,0,
0,0,0,0,0,0,0,0,0,0,0,45,0,0,0,0,0,0,0,0,0,0,0,0,0,0,0,0,0,0,0,0,0,0,0,0,0,0,0,0,0,0,0,0,0,0,0,0,0,0,0,0,44,0,0,0,0,44,0,0,
0,0,45,0,0,0,45,0,0,0,0,44,0,0,0,0,0,0,45,0,0,0,0,0,0,0,0,0,0,0,0,0,0,0,0,0,0,0,0,45,0,0,0,0,0,0,41,41,0,0,0,0,44,0,0,0,0,44,0,0,
0,0,45,0,0,0,45,0,0,0,0,45,0,45,0,0,0,0,45,0,0,0,0,0,45,0,0,0,0,0,0,0,0,0,0,0,0,45,0,45,0,0,0,0,0,0,41,41,0,0,0,0,44,0,0,0,0,44,0,0,
0,0,44,0,0,0,45,0,0,0,0,44,0,45,0,0,0,0,44,0,0,45,0,0,45,0,0,0,0,0,0,32,32,32,0,0,0,45,0,44,0,0,0,0,0,0,41,41,0,0,0,0,44,0,0,0,0,44,0,0,
0,0,44,0,0,0,44,0,0,0,0,44,0,45,0,0,45,0,45,0,0,44,0,0,44,0,0,32,32,32,0,0,0,0,0,0,0,44,0,45,0,0,0,0,0,0,41,41,0,0,0,0,44,0,0,0,0,44,0,0,
0,0,44,0,0,0,44,0,0,0,0,44,0,44,0,0,45,0,44,0,0,45,0,0,45,0,0,0,0,0,0,0,0,0,0,0,0,44,0,44,0,0,0,41,41,0,41,41,0,0,0,0,44,0,0,0,0,44,0,0,
0,0,44,0,0,0,44,0,0,0,0,44,0,44,0,0,44,0,44,0,0,44,0,0,44,0,0,0,0,0,0,0,0,0,0,0,0,44,0,44,0,0,0,41,41,0,41,41,0,0,0,0,44,0,0,0,0,44,0,0,
0,0,44,0,0,0,44,0,0,0,0,44,0,44,0,0,44,0,44,0,0,44,0,0,44,0,0,0,0,0,0,0,0,0,0,0,0,44,0,44,0,0,0,41,41,0,41,41,0,0,0,0,44,0,0,0,0,44,0,0,
0,0,44,0,0,0,44,0,0,0,0,44,0,44,0,0,44,0,44,0,0,44,0,0,44,0,0,0,0,0,0,0,0,0,0,0,0,44,0,44,0,0,0,41,41,0,41,41,0,0,0,0,44,0,0,0,0,44,0,0
</data>
 </layer>
 <layer id="18" name="tiles-deco2" width="60" height="18">
  <data encoding="csv">
0,0,0,0,0,0,0,0,0,0,0,0,0,0,0,0,0,0,0,0,0,0,0,0,0,0,0,0,0,0,0,0,0,0,0,0,0,0,0,0,0,0,0,0,0,0,0,0,0,0,0,0,0,0,0,0,0,0,0,0,
0,0,0,0,0,0,0,0,0,0,0,0,0,0,0,0,0,0,0,0,0,0,0,0,0,0,0,0,0,0,0,0,0,0,0,0,0,0,0,0,0,0,0,0,0,0,0,0,0,0,0,0,0,0,0,0,0,0,0,0,
0,0,0,0,0,0,0,0,0,0,0,0,0,0,0,0,0,0,0,0,0,0,0,0,0,0,0,0,0,0,0,0,0,0,0,0,0,0,0,0,0,0,0,0,0,0,0,0,0,0,0,0,0,0,0,0,0,0,0,0,
0,0,0,0,0,0,0,0,0,0,0,0,0,0,0,0,0,0,0,0,0,0,0,0,0,0,0,0,0,0,0,0,0,0,0,0,0,0,0,0,0,0,0,0,0,0,0,0,0,0,0,0,0,0,0,0,0,0,0,0,
0,0,0,0,0,0,0,0,0,0,0,0,0,0,0,0,0,0,0,0,0,0,0,0,0,0,0,0,0,0,0,0,0,0,0,0,0,0,0,0,0,0,0,0,0,0,0,0,0,0,0,0,0,0,0,0,0,0,0,0,
0,0,0,0,0,0,0,0,0,0,0,0,0,0,0,0,0,0,0,0,0,0,0,0,0,0,0,0,0,0,0,0,0,0,0,0,0,0,0,0,0,0,0,0,0,0,0,0,0,0,0,0,0,0,0,0,0,0,0,0,
0,0,0,0,0,0,0,0,0,0,0,0,0,0,0,0,0,0,0,0,0,0,0,0,0,0,0,0,0,0,0,0,0,0,0,0,0,0,0,0,0,0,0,0,0,0,0,0,0,0,0,0,0,0,0,0,0,0,0,0,
0,0,0,0,0,0,0,0,0,0,0,0,0,0,0,0,0,0,0,0,0,0,0,0,0,0,0,0,0,0,0,0,0,0,0,0,0,0,0,0,0,0,0,0,0,0,0,0,0,0,0,0,0,0,0,0,0,0,0,0,
0,0,0,0,0,0,0,0,0,0,0,0,0,0,0,0,0,0,0,0,0,0,0,0,0,0,0,0,0,0,0,0,0,0,0,0,0,0,0,0,0,0,0,0,0,0,0,0,0,0,0,0,0,0,0,0,0,0,0,0,
0,0,0,0,0,0,0,0,0,0,0,0,0,0,0,0,0,0,0,0,0,0,0,0,0,0,0,0,0,0,0,0,0,0,0,0,0,0,0,0,0,0,0,0,0,0,0,0,0,0,0,0,0,0,0,0,0,0,0,0,
0,0,0,0,0,0,0,0,0,0,0,0,0,0,0,0,0,0,0,0,0,0,0,0,0,0,0,0,0,0,0,0,0,0,0,0,0,0,0,0,0,0,0,0,0,0,0,0,0,0,0,0,0,0,0,0,0,0,0,0,
0,0,0,0,0,0,0,0,0,0,0,0,0,0,0,0,0,0,0,0,0,0,0,0,0,0,0,0,0,0,0,0,0,0,0,0,0,0,0,0,0,0,0,0,0,0,0,0,0,0,0,0,0,0,0,0,0,0,0,0,
0,0,0,0,0,0,0,0,0,0,0,0,0,0,0,0,0,0,0,0,0,0,0,0,0,0,0,0,0,0,0,0,0,0,0,0,0,0,0,0,0,0,0,0,0,0,0,0,0,0,0,0,0,0,0,0,0,0,0,0,
0,0,0,0,0,0,0,0,0,0,0,0,0,0,0,0,0,0,0,0,0,0,0,0,0,0,0,0,0,0,0,0,0,0,0,0,0,0,0,0,0,0,0,0,0,0,0,0,0,0,0,0,0,0,0,0,0,0,0,0,
0,0,0,0,0,0,0,0,0,0,0,0,0,0,0,0,0,0,0,0,0,0,0,0,0,0,0,0,0,0,0,0,0,0,0,0,0,0,0,0,0,0,0,0,0,0,0,0,0,0,0,0,0,0,0,0,0,0,0,0,
0,0,0,0,0,0,0,0,0,0,0,0,0,0,0,0,0,0,0,0,0,0,0,0,0,0,0,0,0,0,0,0,0,0,0,0,0,0,0,0,0,0,0,0,0,0,0,0,0,0,0,0,0,0,0,0,0,0,0,0,
0,0,0,0,0,0,0,0,0,0,0,0,0,0,0,0,0,0,0,0,0,0,0,0,0,0,0,0,0,0,0,0,0,0,0,0,0,0,0,0,0,0,0,0,0,0,0,0,0,0,0,0,0,0,0,0,0,0,0,0,
0,0,0,0,0,0,0,0,0,0,0,0,0,0,0,0,0,0,0,0,0,0,0,0,0,0,0,0,0,0,0,0,0,0,0,0,0,0,0,0,0,0,0,0,0,0,0,0,0,0,0,0,0,0,0,0,0,0,0,0
</data>
 </layer>
 <objectgroup id="16" name="falling">
  <properties>
   <property name="direction" value="down"/>
  </properties>
  <object id="1945" name="falling" gid="48" x="2650" y="500" width="50" height="50">
   <properties>
    <property name="direction" value="down"/>
   </properties>
  </object>
  <object id="1946" name="falling" gid="48" x="2800" y="450" width="50" height="50">
   <properties>
    <property name="direction" value="down"/>
   </properties>
  </object>
 </objectgroup>
 <objectgroup id="13" name="platform"/>
 <objectgroup id="7" name="trampoline"/>
 <objectgroup id="26" name="camera">
  <properties>
   <property name="cameraType" value="unlockX"/>
  </properties>
 </objectgroup>
 <objectgroup id="28" name="solid_block">
  <object id="1939" name="solid_block" gid="35" x="400" y="200" width="50" height="50"/>
  <object id="1947" name="solid_block" gid="35" x="2100" y="600" width="50" height="50"/>
  <object id="1948" name="solid_block" gid="35" x="2250" y="350" width="50" height="50"/>
  <object id="1949" name="solid_block" gid="35" x="2400" y="400" width="50" height="50"/>
  <object id="1950" name="solid_block" gid="35" x="1500" y="550" width="50" height="50"/>
  <object id="1951" name="solid_block" gid="35" x="1400" y="350" width="50" height="50"/>
  <object id="1952" name="solid_block" gid="35" x="1600" y="350" width="50" height="50"/>
  <object id="1954" name="solid_block" gid="35" x="1300" y="600" width="50" height="50"/>
  <object id="1955" name="solid_block" gid="35" x="900" y="500" width="50" height="50"/>
  <object id="1956" name="solid_block" gid="35" x="550" y="450" width="50" height="50"/>
  <object id="1957" name="solid_block" gid="35" x="750" y="350" width="50" height="50"/>
  <object id="1958" name="solid_block" gid="35" x="1050" y="350" width="50" height="50"/>
  <object id="1959" name="solid_block" gid="35" x="1200" y="250" width="50" height="50"/>
  <object id="1960" name="solid_block" gid="35" x="250" y="300" width="50" height="50"/>
  <object id="1961" name="solid_block" gid="35" x="150" y="300" width="50" height="50"/>
  <object id="1962" name="switch-spike" gid="93" x="550" y="400" width="50" height="50">
   <properties>
    <property name="auto" value="true"/>
    <property name="id" value="0"/>
    <property name="speed" value="1"/>
    <property name="status" value="active"/>
   </properties>
  </object>
  <object id="1963" name="switch-spike" gid="93" x="900" y="450" width="50" height="50">
   <properties>
    <property name="auto" value="true"/>
    <property name="id" value="0"/>
    <property name="speed" value="1"/>
    <property name="status" value="disabled"/>
   </properties>
  </object>
  <object id="1964" name="switch-spike" gid="93" x="1300" y="550" width="50" height="50">
   <properties>
    <property name="auto" value="true"/>
    <property name="id" value="0"/>
    <property name="speed" value="1"/>
    <property name="status" value="disabled"/>
   </properties>
  </object>
  <object id="1966" name="switch-spike" gid="93" x="2250" y="300" width="50" height="50">
   <properties>
    <property name="auto" value="true"/>
    <property name="id" value="0"/>
    <property name="speed" value="1.5"/>
    <property name="status" value="active"/>
   </properties>
  </object>
  <object id="1968" name="switch-spike" gid="95" x="1600" y="400" width="50" height="50">
   <properties>
    <property name="auto" value="true"/>
    <property name="id" value="2"/>
    <property name="speed" value="1.5"/>
    <property name="status" value="disabled"/>
   </properties>
  </object>
  <object id="1969" name="switch-spike" gid="95" x="1050" y="400" width="50" height="50">
   <properties>
    <property name="auto" value="true"/>
    <property name="id" value="2"/>
    <property name="speed" value="1.5"/>
    <property name="status" value="active"/>
   </properties>
  </object>
  <object id="1970" name="switch-spike" gid="93" x="1500" y="500" width="50" height="50">
   <properties>
    <property name="auto" value="true"/>
    <property name="id" value="0"/>
    <property name="speed" value="1.5"/>
    <property name="status" value="active"/>
   </properties>
  </object>
  <object id="1971" name="switch-spike" gid="95" x="750" y="400" width="50" height="50">
   <properties>
    <property name="auto" value="true"/>
    <property name="id" value="2"/>
    <property name="speed" value="1.5"/>
    <property name="status" value="disabled"/>
   </properties>
  </object>
  <object id="1972" name="switch-spike" gid="95" x="250" y="350" width="50" height="50">
   <properties>
    <property name="auto" value="true"/>
    <property name="id" value="2"/>
    <property name="speed" value="1.5"/>
    <property name="status" value="disabled"/>
   </properties>
  </object>
  <object id="1973" name="switch-spike" gid="95" x="150" y="350" width="50" height="50">
   <properties>
    <property name="auto" value="true"/>
    <property name="id" value="2"/>
    <property name="speed" value="1.5"/>
    <property name="status" value="active"/>
   </properties>
  </object>
  <object id="2005" name="switch-spike" gid="93" x="2400" y="350" width="50" height="50">
   <properties>
    <property name="auto" value="true"/>
    <property name="id" value="0"/>
    <property name="speed" value="1.5"/>
    <property name="status" value="disabled"/>
   </properties>
  </object>
  <object id="2008" name="switch-spike" gid="93" x="1600" y="250" width="50" height="50">
   <properties>
    <property name="auto" value="true"/>
    <property name="id" value="0"/>
    <property name="speed" value="1.5"/>
    <property name="status" value="disabled"/>
   </properties>
  </object>
  <object id="2009" name="switch-spike" gid="93" x="1400" y="150" width="50" height="50">
   <properties>
    <property name="auto" value="true"/>
    <property name="id" value="0"/>
    <property name="speed" value="1.5"/>
    <property name="status" value="active"/>
   </properties>
  </object>
  <object id="2010" name="solid_block" gid="35" x="1600" y="300" width="50" height="50"/>
  <object id="2011" name="solid_block" gid="35" x="1400" y="200" width="50" height="50"/>
  <object id="2025" name="switch-spike" gid="95" x="2350" y="250" width="50" height="50">
   <properties>
    <property name="auto" value="true"/>
    <property name="id" value="2"/>
    <property name="speed" value="1.5"/>
    <property name="status" value="active"/>
   </properties>
  </object>
  <object id="2035" name="solid_block" gid="35" x="2350" y="200" width="50" height="50"/>
  <object id="2036" name="switch-spike" gid="95" x="1400" y="400" width="50" height="50">
   <properties>
    <property name="auto" value="true"/>
    <property name="id" value="2"/>
    <property name="speed" value="1.5"/>
    <property name="status" value="disabled"/>
   </properties>
  </object>
 </objectgroup>
 <objectgroup id="25" name="slab">
  <object id="1903" name="slab" gid="48" x="2600" y="500" width="50" height="50"/>
  <object id="1908" name="slab" gid="48" x="2850" y="450" width="50" height="50"/>
  <object id="1909" name="slab" gid="48" x="2900" y="450" width="50" height="50"/>
  <object id="1910" name="slab" gid="48" x="2950" y="450" width="50" height="50"/>
 </objectgroup>
 <objectgroup id="19" name="trampoline-mini"/>
 <objectgroup id="31" name="trampoline">
  <object id="2004" name="trampoline" gid="89" x="2100" y="550" width="50" height="50"/>
 </objectgroup>
 <objectgroup id="30" name="small-spike">
  <object id="1935" name="small-spike" gid="135" x="325" y="450" width="25" height="25">
   <properties>
    <property name="id" value="0"/>
   </properties>
  </object>
  <object id="1936" name="small-spike" gid="135" x="300" y="450" width="25" height="25">
   <properties>
    <property name="id" value="0"/>
   </properties>
  </object>
  <object id="2012" name="small-spike" gid="137" x="1250" y="25" width="25" height="25">
   <properties>
    <property name="id" value="2"/>
   </properties>
  </object>
  <object id="2013" name="small-spike" gid="137" x="1300" y="25" width="25" height="25">
   <properties>
    <property name="id" value="2"/>
   </properties>
  </object>
  <object id="2015" name="small-spike" gid="137" x="1350" y="25" width="25" height="25">
   <properties>
    <property name="id" value="2"/>
   </properties>
  </object>
  <object id="2016" name="small-spike" gid="137" x="1400" y="25" width="25" height="25">
   <properties>
    <property name="id" value="2"/>
   </properties>
  </object>
  <object id="2017" name="small-spike" gid="137" x="1450" y="25" width="25" height="25">
   <properties>
    <property name="id" value="2"/>
   </properties>
  </object>
  <object id="2018" name="small-spike" gid="137" x="1550" y="25" width="25" height="25">
   <properties>
    <property name="id" value="2"/>
   </properties>
  </object>
  <object id="2019" name="small-spike" gid="137" x="1500" y="25" width="25" height="25">
   <properties>
    <property name="id" value="2"/>
   </properties>
  </object>
  <object id="2020" name="small-spike" gid="137" x="1600" y="25" width="25" height="25">
   <properties>
    <property name="id" value="2"/>
   </properties>
  </object>
  <object id="2021" name="small-spike" gid="137" x="1700" y="25" width="25" height="25">
   <properties>
    <property name="id" value="2"/>
   </properties>
  </object>
  <object id="2023" name="small-spike" gid="137" x="1650" y="25" width="25" height="25">
   <properties>
    <property name="id" value="2"/>
   </properties>
  </object>
  <object id="2024" name="small-spike" gid="137" x="1750" y="25" width="25" height="25">
   <properties>
    <property name="id" value="2"/>
   </properties>
  </object>
 </objectgroup>
 <objectgroup id="9" name="spike-normal">
  <object id="1928" name="spike" gid="93" x="1050" y="550" width="50" height="50">
   <properties>
    <property name="id" value="0"/>
    <property name="status" value="active"/>
   </properties>
  </object>
  <object id="1929" name="spike" gid="93" x="650" y="500" width="50" height="50">
   <properties>
    <property name="id" value="0"/>
    <property name="status" value="active"/>
   </properties>
  </object>
  <object id="1930" name="spike" gid="93" x="800" y="600" width="50" height="50">
   <properties>
    <property name="id" value="0"/>
    <property name="status" value="active"/>
   </properties>
  </object>
  <object id="1932" name="spike" gid="97" x="1200" y="500" width="50" height="50">
   <properties>
    <property name="id" value="4"/>
   </properties>
  </object>
  <object id="1933" name="spike" gid="93" x="1950" y="450" width="50" height="50">
   <properties>
    <property name="id" value="0"/>
    <property name="status" value="active"/>
   </properties>
  </object>
  <object id="1934" name="spike" gid="97" x="1850" y="500" width="50" height="50">
   <properties>
    <property name="id" value="4"/>
   </properties>
  </object>
  <object id="1940" name="spike" gid="99" x="450" y="250" width="50" height="50">
   <properties>
    <property name="id" value="6"/>
   </properties>
  </object>
 </objectgroup>
 <objectgroup id="29" name="redCoin">
  <object id="2007" name="redCoin" gid="143" x="1300" y="200" width="50" height="50">
   <properties>
    <property name="id" value="ch1_10"/>
   </properties>
  </object>
 </objectgroup>
 <objectgroup id="27" name="switch-spike">
  <object id="1938" name="switch-spike" gid="95" x="400" y="250" width="50" height="50">
   <properties>
    <property name="id" value="2"/>
    <property name="status" value="disabled"/>
   </properties>
  </object>
 </objectgroup>
 <objectgroup id="8" name="save"/>
 <objectgroup id="21" name="acidlayer"/>
 <objectgroup id="10" name="laser">
  <object id="1911" name="laser" gid="101" x="800" y="300" width="50" height="50">
   <properties>
    <property name="direction" value="h"/>
   </properties>
  </object>
  <object id="1912" name="laser" gid="101" x="850" y="300" width="50" height="50">
   <properties>
    <property name="direction" value="h"/>
   </properties>
  </object>
  <object id="1913" name="laser" gid="101" x="900" y="300" width="50" height="50">
   <properties>
    <property name="direction" value="h"/>
   </properties>
  </object>
  <object id="1914" name="laser" gid="101" x="950" y="300" width="50" height="50">
   <properties>
    <property name="direction" value="h"/>
   </properties>
  </object>
  <object id="1915" name="laser" gid="101" x="1000" y="300" width="50" height="50">
   <properties>
    <property name="direction" value="h"/>
   </properties>
  </object>
  <object id="1917" name="laser" gid="101" x="1100" y="250" width="50" height="50">
   <properties>
    <property name="direction" value="h"/>
   </properties>
  </object>
  <object id="1918" name="laser" gid="101" x="1150" y="250" width="50" height="50">
   <properties>
    <property name="direction" value="h"/>
   </properties>
  </object>
  <object id="1919" name="laser" gid="101" x="1350" y="600" width="50" height="50">
   <properties>
    <property name="direction" value="h"/>
   </properties>
  </object>
  <object id="1920" name="laser" gid="101" x="1400" y="600" width="50" height="50">
   <properties>
    <property name="direction" value="h"/>
   </properties>
  </object>
  <object id="1921" name="laser" gid="101" x="1450" y="600" width="50" height="50">
   <properties>
    <property name="direction" value="h"/>
   </properties>
  </object>
  <object id="1922" name="laser" gid="101" x="1550" y="550" width="50" height="50">
   <properties>
    <property name="direction" value="h"/>
   </properties>
  </object>
  <object id="1923" name="laser" gid="101" x="1600" y="550" width="50" height="50">
   <properties>
    <property name="direction" value="h"/>
   </properties>
  </object>
  <object id="1924" name="laser" gid="101" x="1650" y="550" width="50" height="50">
   <properties>
    <property name="direction" value="h"/>
   </properties>
  </object>
  <object id="1925" name="laser" gid="101" x="1450" y="350" width="50" height="50">
   <properties>
    <property name="direction" value="h"/>
   </properties>
  </object>
  <object id="1926" name="laser" gid="101" x="1500" y="350" width="50" height="50">
   <properties>
    <property name="direction" value="h"/>
   </properties>
  </object>
  <object id="1927" name="laser" gid="101" x="1550" y="350" width="50" height="50">
   <properties>
    <property name="direction" value="h"/>
   </properties>
  </object>
  <object id="1941" name="laser" gid="101" x="2300" y="450" width="50" height="50">
   <properties>
    <property name="direction" value="h"/>
   </properties>
  </object>
  <object id="1942" name="laser" gid="101" x="2350" y="450" width="50" height="50">
   <properties>
    <property name="direction" value="h"/>
   </properties>
  </object>
  <object id="1943" name="laser" gid="101" x="2150" y="650" width="50" height="50">
   <properties>
    <property name="direction" value="h"/>
   </properties>
  </object>
  <object id="1944" name="laser" gid="101" x="2200" y="650" width="50" height="50">
   <properties>
    <property name="direction" value="h"/>
   </properties>
  </object>
 </objectgroup>
 <objectgroup id="11" name="bg">
  <properties>
   <property name="bgName" value="castleBG3"/>
   <property name="bgShader" value="toxic"/>
  </properties>
 </objectgroup>
 <objectgroup id="32" name="shaders">
  <properties>
   <property name="shaderName" value="radioactive"/>
  </properties>
 </objectgroup>
 <objectgroup id="12" name="foregroundEffect">
  <properties>
   <property name="foregroundEffectType" value="toxic"/>
  </properties>
 </objectgroup>
 <objectgroup id="22" name="mapEffect">
  <properties>
   <property name="effectType" value="poison-fog"/>
  </properties>
 </objectgroup>
 <objectgroup id="15" name="music">
  <properties>
   <property name="songName" value="castle_underground"/>
  </properties>
 </objectgroup>
 <objectgroup id="20" name="warps">
  <object id="1974" name="warp" gid="133" x="0" y="150" width="50" height="50">
   <properties>
    <property name="direction" value="left"/>
    <property name="target" value="map38"/>
   </properties>
  </object>
  <object id="1975" name="warp" gid="133" x="0" y="100" width="50" height="50">
   <properties>
    <property name="direction" value="left"/>
    <property name="target" value="map38"/>
   </properties>
  </object>
  <object id="1976" name="warp" gid="133" x="0" y="50" width="50" height="50">
   <properties>
    <property name="direction" value="left"/>
    <property name="target" value="map38"/>
   </properties>
  </object>
  <object id="1977" name="warp" gid="133" x="0" y="300" width="50" height="50">
   <properties>
    <property name="direction" value="left"/>
    <property name="target" value="map38"/>
   </properties>
  </object>
  <object id="1978" name="warp" gid="133" x="0" y="250" width="50" height="50">
   <properties>
    <property name="direction" value="left"/>
    <property name="target" value="map38"/>
   </properties>
  </object>
  <object id="1979" name="warp" gid="133" x="0" y="200" width="50" height="50">
   <properties>
    <property name="direction" value="left"/>
    <property name="target" value="map38"/>
   </properties>
  </object>
  <object id="1980" name="warp" gid="133" x="0" y="450" width="50" height="50">
   <properties>
    <property name="direction" value="left"/>
    <property name="target" value="map38"/>
   </properties>
  </object>
  <object id="1981" name="warp" gid="133" x="0" y="400" width="50" height="50">
   <properties>
    <property name="direction" value="left"/>
    <property name="target" value="map38"/>
   </properties>
  </object>
  <object id="1982" name="warp" gid="133" x="0" y="350" width="50" height="50">
   <properties>
    <property name="direction" value="left"/>
    <property name="target" value="map38"/>
   </properties>
  </object>
  <object id="1983" name="warp" gid="133" x="0" y="600" width="50" height="50">
   <properties>
    <property name="direction" value="left"/>
    <property name="target" value="map38"/>
   </properties>
  </object>
  <object id="1984" name="warp" gid="133" x="0" y="550" width="50" height="50">
   <properties>
    <property name="direction" value="left"/>
    <property name="target" value="map38"/>
   </properties>
  </object>
  <object id="1985" name="warp" gid="133" x="0" y="500" width="50" height="50">
   <properties>
    <property name="direction" value="left"/>
    <property name="target" value="map38"/>
   </properties>
  </object>
  <object id="1986" name="warp" gid="133" x="0" y="750" width="50" height="50">
   <properties>
    <property name="direction" value="left"/>
    <property name="target" value="map38"/>
   </properties>
  </object>
  <object id="1987" name="warp" gid="133" x="0" y="700" width="50" height="50">
   <properties>
    <property name="direction" value="left"/>
    <property name="target" value="map38"/>
   </properties>
  </object>
  <object id="1988" name="warp" gid="133" x="0" y="650" width="50" height="50">
   <properties>
    <property name="direction" value="left"/>
    <property name="target" value="map38"/>
   </properties>
  </object>
  <object id="1989" name="warp" gid="133" x="0" y="900" width="50" height="50">
   <properties>
    <property name="direction" value="left"/>
    <property name="target" value="map38"/>
   </properties>
  </object>
  <object id="1990" name="warp" gid="133" x="0" y="850" width="50" height="50">
   <properties>
    <property name="direction" value="left"/>
    <property name="target" value="map38"/>
   </properties>
  </object>
  <object id="1991" name="warp" gid="133" x="0" y="800" width="50" height="50">
   <properties>
    <property name="direction" value="left"/>
    <property name="target" value="map38"/>
   </properties>
  </object>
  <object id="1995" name="warp" gid="131" x="2950" y="100" width="50" height="50">
   <properties>
    <property name="direction" value="right"/>
    <property name="target" value="map40"/>
   </properties>
  </object>
  <object id="1996" name="warp" gid="131" x="2950" y="50" width="50" height="50">
   <properties>
    <property name="direction" value="right"/>
    <property name="target" value="map40"/>
   </properties>
  </object>
  <object id="1998" name="warp" gid="131" x="2950" y="250" width="50" height="50">
   <properties>
    <property name="direction" value="right"/>
    <property name="target" value="map40"/>
   </properties>
  </object>
  <object id="1999" name="warp" gid="131" x="2950" y="200" width="50" height="50">
   <properties>
    <property name="direction" value="right"/>
    <property name="target" value="map40"/>
   </properties>
  </object>
  <object id="2000" name="warp" gid="131" x="2950" y="150" width="50" height="50">
   <properties>
    <property name="direction" value="right"/>
    <property name="target" value="map40"/>
   </properties>
  </object>
  <object id="2001" name="warp" gid="131" x="2950" y="400" width="50" height="50">
   <properties>
    <property name="direction" value="right"/>
    <property name="target" value="map40"/>
   </properties>
  </object>
  <object id="2002" name="warp" gid="131" x="2950" y="350" width="50" height="50">
   <properties>
    <property name="direction" value="right"/>
    <property name="target" value="map40"/>
   </properties>
  </object>
  <object id="2003" name="warp" gid="131" x="2950" y="300" width="50" height="50">
   <properties>
    <property name="direction" value="right"/>
    <property name="target" value="map40"/>
   </properties>
  </object>
  <object id="2026" name="warp" gid="131" x="2950" y="550" width="50" height="50">
   <properties>
    <property name="direction" value="right"/>
    <property name="target" value="map40"/>
   </properties>
  </object>
  <object id="2027" name="warp" gid="131" x="2950" y="500" width="50" height="50">
   <properties>
    <property name="direction" value="right"/>
    <property name="target" value="map40"/>
   </properties>
  </object>
  <object id="2028" name="warp" gid="131" x="2950" y="700" width="50" height="50">
   <properties>
    <property name="direction" value="right"/>
    <property name="target" value="map40"/>
   </properties>
  </object>
  <object id="2029" name="warp" gid="131" x="2950" y="650" width="50" height="50">
   <properties>
    <property name="direction" value="right"/>
    <property name="target" value="map40"/>
   </properties>
  </object>
  <object id="2030" name="warp" gid="131" x="2950" y="600" width="50" height="50">
   <properties>
    <property name="direction" value="right"/>
    <property name="target" value="map40"/>
   </properties>
  </object>
  <object id="2031" name="warp" gid="131" x="2950" y="850" width="50" height="50">
   <properties>
    <property name="direction" value="right"/>
    <property name="target" value="map40"/>
   </properties>
  </object>
  <object id="2032" name="warp" gid="131" x="2950" y="800" width="50" height="50">
   <properties>
    <property name="direction" value="right"/>
    <property name="target" value="map40"/>
   </properties>
  </object>
  <object id="2033" name="warp" gid="131" x="2950" y="750" width="50" height="50">
   <properties>
    <property name="direction" value="right"/>
    <property name="target" value="map40"/>
   </properties>
  </object>
  <object id="2034" name="warp" gid="131" x="2950" y="900" width="50" height="50">
   <properties>
    <property name="direction" value="right"/>
    <property name="target" value="map40"/>
   </properties>
  </object>
 </objectgroup>
</map>
